; generated by PrusaSlicer 2.2.0-alpha2+linux-x64 on 2020-02-05 at 08:00:16 UTC

; 

; external perimeters extrusion width = 0.45mm
; perimeters extrusion width = 0.45mm
; infill extrusion width = 0.45mm
; solid infill extrusion width = 0.45mm
; top infill extrusion width = 0.40mm
; first layer extrusion width = 0.42mm

M73 P0 R34
M73 Q0 S34
M201 X1000 Y1000 Z1000 E8000 ; sets maximum accelerations, mm/sec^2
M203 X200 Y200 Z12 E120 ; sets maximum feedrates, mm/sec
M204 P1250 R1250 T1250 ; sets acceleration (P, T) and retract acceleration (R), mm/sec^2
M205 X8.00 Y8.00 Z0.40 E1.50 ; sets the jerk limits, mm/sec
M205 S0 T0 ; sets the minimum extruding and travel feed rate, mm/sec
M107
M115 U3.8.0 ; tell printer latest fw version
G90 ; use absolute coordinates
M83 ; extruder relative mode
M104 S215 ; set extruder temp
M140 S60 ; set bed temp
M190 S60 ; wait for bed temp
M109 S215 ; wait for extruder temp
G28 W ; home all without mesh bed level
G80 ; mesh bed leveling
G21 ; set units to millimeters

; Send the filament type to the MMU2.0 unit.
; E stands for extruder number, F stands for filament type (0: default; 1:flex; 2: PVA)
M403 E0 F0
M403 E1 F0
M403 E2 F0
M403 E3 F0
M403 E4 F0


;go outside print area
G1 Y-3.0 F1000.0
G1 Z0.4 F1000.0
; select extruder
T0
; initial load
G1 X55.0 E32.0 F1073.0
M73 Q1 S33
M73 P1 R33
G1 X5.0 E32.0 F1800.0
G1 X55.0 E8.0 F2000.0
G1 Z0.3 F1000.0
G92 E0.0
G1 X240.0 E25.0 F2200.0
G1 Y-2.0 F1000.0
G1 X55.0 E25 F1400.0
G1 Z0.20 F1000.0
G1 X5.0 E4.0 F1000.0
G92 E0.0


M221 S95
G92 E0.0
G21 ; set units to millimeters
G90 ; use absolute coordinates
M83 ; use relative distances for extrusion
M900 K30 ; Filament gcode
;BEFORE_LAYER_CHANGE
G92 E0.0
;0.2


G1 E-0.80000 F2100.00000
G1 Z0.600 F10800.000
;AFTER_LAYER_CHANGE
;0.2
G1 X119.130 Y85.680
G1 Z0.200
G1 E0.80000 F2100.00000
M204 S1000
G1 X119.538 Y85.070 E0.02302
G1 X120.035 Y84.658 E0.02024
G1 X120.907 Y84.220 E0.03058
G1 X121.740 Y84.008 E0.02696
G1 X124.104 Y84.002 E0.07412
G1 X124.953 Y84.161 E0.02708
G1 X126.155 Y84.790 E0.04255
G1 X126.746 Y85.449 E0.02775
G1 X127.056 Y86.263 E0.02731
G1 X131.082 Y122.447 E1.14154
G1 X131.043 Y123.804 E0.04257
G1 X130.872 Y124.316 E0.01692
G1 X130.589 Y124.778 E0.01698
G1 X130.245 Y125.138 E0.01562
G1 X129.833 Y125.418 E0.01562
G1 X128.942 Y125.843 E0.03094
G1 X128.340 Y125.986 E0.01941
G1 X121.877 Y125.998 E0.20263
G1 X121.304 Y125.922 E0.01811
G1 X120.161 Y125.415 E0.03922
G1 X119.615 Y125.010 E0.02130
G1 X119.138 Y124.337 E0.02587
G1 X118.918 Y123.552 E0.02555
G1 X118.926 Y86.379 E1.16553
G1 X119.113 Y85.738 E0.02096
G1 F8640.000
G1 X119.538 Y85.070 E-0.18277
G1 X120.035 Y84.658 E-0.14906
G1 X120.907 Y84.220 E-0.22523
G1 X121.740 Y84.008 E-0.19855
G1 X121.759 Y84.008 E-0.00440
G1 E-0.04000 F2100.00000
G1 Z0.800 F10800.000
G1 X116.852 Y90.013
G1 Z0.200
G1 E0.80000 F2100.00000
G1 X116.578 Y89.019 E0.03233
G1 X116.631 Y85.913 E0.09739
G1 X117.019 Y84.668 E0.04089
G1 X117.717 Y83.599 E0.04004
G1 X118.990 Y82.554 E0.05164
G1 X120.125 Y82.006 E0.03952
G1 X121.356 Y81.697 E0.03979
G1 X124.643 Y81.696 E0.10308
G1 X126.022 Y82.068 E0.04477
G1 X127.656 Y82.993 E0.05887
G1 X128.554 Y83.939 E0.04091
G1 X129.043 Y84.808 E0.03124
G1 X129.346 Y85.782 E0.03200
G1 X129.644 Y88.351 E0.08106
G1 X129.633 Y88.586 E0.00740
G1 X129.695 Y88.810 E0.00730
G1 X133.418 Y122.313 E1.05692
G1 X133.318 Y124.374 E0.06471
G1 X132.988 Y125.316 E0.03128
G1 X132.435 Y126.219 E0.03319
G1 X131.130 Y127.378 E0.05474
G1 X129.829 Y128.008 E0.04534
G1 X128.451 Y128.328 E0.04434
G1 X126.971 Y128.335 E0.04642
G1 X126.729 Y128.297 E0.00769
G1 X126.497 Y128.334 E0.00735
G1 X123.374 Y128.334 E0.09793
G1 X123.085 Y128.292 E0.00915
G1 X122.721 Y128.338 E0.01150
G1 X121.140 Y128.275 E0.04960
G1 X120.101 Y127.980 E0.03389
G1 X118.706 Y127.268 E0.04908
G1 X117.735 Y126.420 E0.04044
G1 X116.996 Y125.272 E0.04282
G1 X116.570 Y123.678 E0.05172
G1 X116.570 Y91.024 E1.02385
G1 X116.836 Y90.070 E0.03104
G1 X117.244 Y90.013 F10800.000
G1 F2100.000
G1 X116.955 Y88.996 E0.03316
G1 X116.999 Y85.997 E0.09402
G1 X117.350 Y84.851 E0.03757
G1 X118.017 Y83.829 E0.03827
G1 X119.173 Y82.884 E0.04684
G1 X120.271 Y82.354 E0.03821
G1 X121.424 Y82.068 E0.03725
G1 X124.571 Y82.066 E0.09866
G1 X125.859 Y82.409 E0.04179
G1 X127.403 Y83.275 E0.05552
G1 X128.238 Y84.145 E0.03780
G1 X128.704 Y84.975 E0.02984
G1 X128.981 Y85.876 E0.02955
G1 X129.268 Y88.376 E0.07889
G1 X129.252 Y88.629 E0.00796
G1 X129.323 Y88.870 E0.00787
G1 X133.041 Y122.340 E1.05591
G1 X132.953 Y124.277 E0.06079
G1 X132.654 Y125.139 E0.02860
G1 X132.162 Y125.957 E0.02994
G1 X130.941 Y127.051 E0.05139
G1 X129.721 Y127.646 E0.04255
G1 X128.428 Y127.951 E0.04167
G1 X126.987 Y127.958 E0.04518
G1 X126.728 Y127.913 E0.00823
G1 X126.479 Y127.957 E0.00791
G1 X123.389 Y127.957 E0.09690
G1 X123.089 Y127.911 E0.00953
G1 X122.719 Y127.960 E0.01170
G1 X121.178 Y127.900 E0.04835
G1 X120.256 Y127.636 E0.03007
G1 X118.898 Y126.943 E0.04779
G1 X118.036 Y126.191 E0.03586
G1 X117.352 Y125.143 E0.03925
G1 X116.947 Y123.653 E0.04843
G1 X116.947 Y91.051 E1.02220
G1 X117.228 Y90.071 E0.03198
G1 X117.638 Y90.013 F10800.000
G1 F2100.000
G1 X117.333 Y88.971 E0.03405
G1 X117.368 Y86.081 E0.09061
G1 X117.702 Y84.988 E0.03585
G1 X118.315 Y84.061 E0.03483
G1 X119.357 Y83.214 E0.04212
G1 X120.417 Y82.703 E0.03690
G1 X121.491 Y82.440 E0.03469
G1 X124.499 Y82.437 E0.09431
G1 X125.697 Y82.750 E0.03883
G1 X127.153 Y83.558 E0.05218
G1 X127.922 Y84.353 E0.03470
G1 X128.350 Y85.105 E0.02713
G1 X128.615 Y85.970 E0.02834
G1 X128.891 Y88.399 E0.07666
G1 X128.870 Y88.672 E0.00858
G1 X128.950 Y88.930 E0.00849
G1 X132.665 Y122.368 E1.05486
G1 X132.587 Y124.181 E0.05692
G1 X132.319 Y124.965 E0.02597
G1 X131.887 Y125.698 E0.02667
G1 X130.751 Y126.725 E0.04803
G1 X129.612 Y127.285 E0.03977
G1 X128.404 Y127.574 E0.03897
G1 X127.004 Y127.581 E0.04388
G1 X126.727 Y127.529 E0.00883
G1 X126.460 Y127.580 E0.00852
G1 X123.405 Y127.580 E0.09580
G1 X123.092 Y127.529 E0.00993
G1 X122.716 Y127.583 E0.01192
G1 X121.217 Y127.524 E0.04705
G1 X120.379 Y127.279 E0.02734
G1 X119.091 Y126.618 E0.04542
G1 X118.336 Y125.961 E0.03138
G1 X117.707 Y125.013 E0.03568
G1 X117.324 Y123.627 E0.04509
G1 X117.324 Y91.079 E1.02052
G1 X117.621 Y90.071 E0.03295
G1 X118.032 Y90.013 F10800.000
G1 F2100.000
G1 X117.710 Y88.945 E0.03499
G1 X117.737 Y86.163 E0.08723
G1 X118.032 Y85.172 E0.03241
G1 X118.613 Y84.294 E0.03302
G1 X119.540 Y83.544 E0.03738
G1 X120.562 Y83.051 E0.03558
G1 X121.558 Y82.812 E0.03211
G1 X124.429 Y82.808 E0.09003
G1 X125.538 Y83.093 E0.03588
G1 X126.903 Y83.842 E0.04884
G1 X127.607 Y84.561 E0.03155
G1 X128.012 Y85.273 E0.02567
G1 X128.249 Y86.061 E0.02581
G1 X128.514 Y88.420 E0.07443
G1 X128.487 Y88.715 E0.00928
G1 X128.577 Y88.993 E0.00917
G1 X132.289 Y122.396 E1.05377
G1 X132.221 Y124.086 E0.05303
G1 X131.969 Y124.824 E0.02447
G1 X131.578 Y125.480 E0.02394
G1 X130.560 Y126.399 E0.04300
G1 X129.502 Y126.923 E0.03702
G1 X128.379 Y127.197 E0.03623
G1 X127.023 Y127.204 E0.04252
G1 X126.727 Y127.144 E0.00948
G1 X126.440 Y127.203 E0.00919
G1 X123.422 Y127.203 E0.09462
G1 X123.096 Y127.147 E0.01037
G1 X122.712 Y127.205 E0.01218
G1 X121.256 Y127.148 E0.04569
G1 X120.505 Y126.923 E0.02457
G1 X119.284 Y126.293 E0.04309
G1 X118.634 Y125.729 E0.02698
G1 X118.061 Y124.881 E0.03210
G1 X117.701 Y123.600 E0.04170
G1 X117.701 Y91.107 E1.01880
G1 X118.015 Y90.071 E0.03396
G1 X118.491 Y89.991 F10800.000
G1 F2100.000
G1 X118.348 Y89.769 E0.00828
G1 X118.087 Y88.918 E0.02791
G1 X118.106 Y86.245 E0.08382
G1 X118.385 Y85.308 E0.03065
G1 X118.909 Y84.529 E0.02946
G1 X119.723 Y83.874 E0.03273
G1 X120.707 Y83.400 E0.03426
G1 X121.622 Y83.184 E0.02949
G1 X124.405 Y83.185 E0.08724
G1 X125.379 Y83.435 E0.03152
G1 X126.656 Y84.128 E0.04554
G1 X127.292 Y84.770 E0.02834
G1 X127.673 Y85.440 E0.02418
G1 X127.882 Y86.151 E0.02325
G1 X128.137 Y88.440 E0.07220
G1 X128.102 Y88.758 E0.01005
G1 X128.205 Y89.057 E0.00990
G1 X131.913 Y122.424 E1.05263
G1 X131.855 Y123.992 E0.04920
G1 X131.634 Y124.649 E0.02173
G1 X131.268 Y125.263 E0.02241
G1 X130.369 Y126.072 E0.03794
G1 X129.353 Y126.576 E0.03556
G1 X128.355 Y126.820 E0.03220
G1 X127.044 Y126.827 E0.04112
G1 X126.726 Y126.757 E0.01020
G1 X126.417 Y126.826 E0.00992
G1 X123.440 Y126.826 E0.09336
G1 X123.099 Y126.764 E0.01085
G1 X122.707 Y126.828 E0.01246
G1 X121.296 Y126.772 E0.04428
G1 X120.633 Y126.568 E0.02174
G1 X119.477 Y125.969 E0.04082
G1 X118.930 Y125.495 E0.02269
G1 X118.415 Y124.746 E0.02851
G1 X118.078 Y123.574 E0.03825
G1 X118.078 Y91.137 E1.01704
G1 X118.375 Y90.182 E0.03136
G1 X118.460 Y90.042 E0.00512
G1 X118.737 Y90.312 F10800.000
G1 F2100.000
G1 X118.455 Y91.167 E0.02821
G1 X118.455 Y123.546 E1.01523
G1 X118.767 Y124.609 E0.03472
G1 X119.224 Y125.258 E0.02491
G1 X119.671 Y125.645 E0.01852
G1 X120.764 Y126.214 E0.03863
G1 X121.337 Y126.396 E0.01886
G1 X122.701 Y126.450 E0.04280
G1 X123.103 Y126.380 E0.01279
G1 X123.459 Y126.449 E0.01137
G1 X126.393 Y126.449 E0.09201
G1 X126.725 Y126.368 E0.01072
G1 X127.066 Y126.449 E0.01099
G1 X128.331 Y126.443 E0.03966
G1 X129.204 Y126.229 E0.02818
G1 X130.179 Y125.746 E0.03411
G1 X130.961 Y125.043 E0.03296
G1 X131.284 Y124.508 E0.01959
G1 X131.489 Y123.898 E0.02019
G1 X131.536 Y122.452 E0.04535
G1 X127.833 Y89.123 E1.05145
G1 X127.716 Y88.802 E0.01071
G1 X127.759 Y88.458 E0.01089
G1 X127.509 Y86.210 E0.07090
G1 X127.318 Y85.570 E0.02095
G1 X126.978 Y84.981 E0.02132
G1 X126.410 Y84.415 E0.02515
G1 X125.221 Y83.779 E0.04228
G1 X124.380 Y83.562 E0.02723
G1 X121.686 Y83.556 E0.08449
G1 F8640.000
G1 X124.380 Y83.562 E-0.62220
G1 X124.958 Y83.711 E-0.13780
G1 E-0.04000 F2100.00000
G1 Z0.800 F10800.000
G1 X118.737 Y89.676
G1 Z0.200
G1 E0.80000 F2100.00000
G1 X118.696 Y89.620 E0.00217
G1 X118.464 Y88.889 E0.02403
G1 X118.475 Y86.323 E0.08045
G1 X118.715 Y85.494 E0.02708
G1 X119.206 Y84.763 E0.02760
G1 X119.905 Y84.205 E0.02805
G1 X120.852 Y83.749 E0.03294
G1 X121.686 Y83.556 E0.02684
G1 F8640.000
G1 X120.852 Y83.749 E-0.19766
G1 X119.905 Y84.205 E-0.24256
G1 X119.206 Y84.763 E-0.20660
G1 X118.933 Y85.170 E-0.11318
G1 E-0.04000 F2100.00000
G1 Z0.800 F10800.000
G1 X119.114 Y90.425
G1 Z0.200
G1 E0.80000 F2100.00000
G1 X119.448 Y89.983 E0.01738
G1 X119.114 Y89.558 E0.01694
G1 X119.986 Y90.039 F10800.000
G1 F2100.000
G1 X119.386 Y89.308 E0.02965
G1 X119.218 Y88.825 E0.01605
G1 X119.215 Y86.477 E0.07362
G1 X119.398 Y85.815 E0.02152
G1 X119.794 Y85.239 E0.02193
G1 X120.269 Y84.867 E0.01892
G1 X121.142 Y84.446 E0.03037
G1 X121.727 Y84.310 E0.01885
G1 X124.331 Y84.317 E0.08163
G1 X124.910 Y84.467 E0.01877
G1 X125.926 Y84.995 E0.03588
G1 X126.357 Y85.411 E0.01878
G1 X126.611 Y85.836 E0.01554
G1 X126.764 Y86.329 E0.01619
G1 X127.004 Y88.487 E0.06808
G1 X126.936 Y88.891 E0.01285
G1 X127.090 Y89.261 E0.01255
G1 X130.784 Y122.511 E1.04893
G1 X130.755 Y123.716 E0.03781
G1 X130.598 Y124.193 E0.01572
G1 X130.346 Y124.603 E0.01509
G1 X129.798 Y125.093 E0.02305
G1 X128.906 Y125.535 E0.03123
G1 X128.283 Y125.689 E0.02012
G1 X127.117 Y125.695 E0.03655
G1 X126.723 Y125.584 E0.01282
G1 X126.339 Y125.695 E0.01255
G1 X123.500 Y125.695 E0.08901
G1 X123.109 Y125.610 E0.01254
G1 X122.680 Y125.695 E0.01372
G1 X121.510 Y125.661 E0.03672
G1 X121.081 Y125.529 E0.01405
G1 X120.063 Y124.998 E0.03601
G1 X119.757 Y124.723 E0.01289
G1 X119.469 Y124.327 E0.01537
G1 X119.209 Y123.489 E0.02751
G1 X119.209 Y91.231 E1.01142
G1 X119.414 Y90.639 E0.01963
G1 X119.734 Y90.234 E0.01618
G1 X119.939 Y90.075 E0.00813
G1 X120.846 Y90.150 F10800.000
G1 F2100.000
G1 X120.845 Y89.855 E0.00928
G1 X120.376 Y89.742 E0.01511
G1 X120.108 Y89.593 E0.00962
G1 X119.701 Y89.098 E0.02010
G1 X119.586 Y88.740 E0.01180
G1 X119.586 Y86.547 E0.06876
G1 X119.728 Y86.000 E0.01770
G1 X120.088 Y85.477 E0.01990
G1 X120.450 Y85.198 E0.01434
G1 X121.287 Y84.795 E0.02913
G1 X121.748 Y84.687 E0.01486
G1 X124.306 Y84.694 E0.08018
G1 X124.757 Y84.812 E0.01463
G1 X125.688 Y85.289 E0.03278
G1 X126.047 Y85.628 E0.01549
G1 X126.276 Y86.010 E0.01396
G1 X126.391 Y86.388 E0.01240
G1 X126.626 Y88.499 E0.06659
G1 X126.543 Y88.937 E0.01398
G1 X126.718 Y89.334 E0.01361
G1 X130.408 Y122.541 E1.04759
G1 X130.387 Y123.630 E0.03415
G1 X130.265 Y124.016 E0.01270
G1 X130.040 Y124.382 E0.01347
G1 X129.608 Y124.766 E0.01812
G1 X128.756 Y125.189 E0.02981
G1 X128.258 Y125.312 E0.01610
G1 X127.146 Y125.318 E0.03488
G1 X126.722 Y125.188 E0.01389
G1 X126.308 Y125.318 E0.01361
G1 X123.522 Y125.318 E0.08734
G1 X123.112 Y125.224 E0.01318
G1 X122.666 Y125.318 E0.01432
G1 X121.592 Y125.292 E0.03366
G1 X121.239 Y125.186 E0.01156
G1 X120.260 Y124.676 E0.03459
G1 X120.026 Y124.459 E0.01003
G1 X119.818 Y124.180 E0.01092
G1 X119.586 Y123.458 E0.02375
G1 X119.586 Y91.262 E1.00948
G1 X119.730 Y90.848 E0.01375
G1 X120.009 Y90.494 E0.01412
G1 X120.318 Y90.283 E0.01175
G1 X120.788 Y90.165 E0.01520
G1 F8640.000
G1 X120.845 Y89.855 E-0.07286
G1 X120.376 Y89.742 E-0.11126
G1 X120.108 Y89.593 E-0.07084
G1 X119.701 Y89.098 E-0.14799
G1 X119.586 Y88.740 E-0.08690
G1 X119.586 Y87.570 E-0.27015
G1 E-0.04000 F2100.00000
G1 Z0.800 F10800.000
G1 X126.038 Y88.999
G1 Z0.200
G1 E0.80000 F2100.00000
G1 X126.252 Y89.209 E0.00941
G1 X126.347 Y89.409 E0.00695
G1 X130.032 Y122.571 E1.04618
G1 X130.019 Y123.543 E0.03046
G1 X129.913 Y123.877 E0.01101
G1 X129.736 Y124.157 E0.01037
G1 X129.418 Y124.440 E0.01335
G1 X128.607 Y124.842 E0.02839
G1 X128.233 Y124.935 E0.01207
G1 X127.177 Y124.941 E0.03312
G1 X126.721 Y124.789 E0.01507
G1 X126.275 Y124.940 E0.01478
G1 X123.546 Y124.940 E0.08555
G1 X123.116 Y124.836 E0.01387
G1 X122.648 Y124.940 E0.01504
G1 X121.672 Y124.923 E0.03062
G1 X121.394 Y124.842 E0.00908
G1 X120.498 Y124.382 E0.03158
G1 X120.296 Y124.195 E0.00862
G1 X120.140 Y123.982 E0.00828
G1 X119.963 Y123.429 E0.01820
G1 X119.963 Y91.294 E1.00758
G1 X120.046 Y91.057 E0.00787
G1 X120.288 Y90.749 E0.01229
G1 X120.444 Y90.640 E0.00595
G1 X121.457 Y90.386 E0.03276
G1 X121.647 Y90.397 E0.00596
G1 X122.060 Y90.577 E0.01412
G1 X122.201 Y90.702 E0.00591
G1 X122.564 Y91.391 E0.02441
G1 X122.689 Y91.516 E0.00553
G1 X122.763 Y91.632 E0.00434
G1 X123.100 Y91.969 E0.01493
G1 X123.434 Y91.635 E0.01482
G1 X123.508 Y91.519 E0.00433
G1 X123.637 Y91.390 E0.00570
G1 X123.731 Y91.205 E0.00651
G1 X123.780 Y90.896 E0.00981
G1 X123.780 Y89.538 E0.04260
G1 X123.931 Y89.186 E0.01198
G1 X123.637 Y88.610 E0.02029
G1 X123.490 Y88.463 E0.00651
G1 X123.305 Y88.369 E0.00651
G1 X123.100 Y88.336 E0.00651
G1 X122.895 Y88.369 E0.00651
G1 X122.710 Y88.463 E0.00651
G1 X122.563 Y88.610 E0.00651
G1 X122.234 Y89.255 E0.02271
G1 X122.102 Y89.393 E0.00599
G1 X121.701 Y89.588 E0.01400
G1 X121.453 Y89.613 E0.00781
G1 X120.493 Y89.382 E0.03094
G1 X120.328 Y89.286 E0.00599
G1 X120.045 Y88.941 E0.01400
G1 X119.963 Y88.706 E0.00781
G1 X119.963 Y86.573 E0.06689
G1 X120.082 Y86.134 E0.01427
G1 X120.376 Y85.721 E0.01587
G1 X120.629 Y85.530 E0.00995
G1 X121.432 Y85.143 E0.02794
G1 X121.769 Y85.064 E0.01086
G1 X124.280 Y85.071 E0.07871
G1 X124.605 Y85.157 E0.01055
G1 X125.453 Y85.585 E0.02979
G1 X125.741 Y85.849 E0.01224
G1 X125.924 Y86.146 E0.01094
G1 X126.018 Y86.448 E0.00993
G1 X126.248 Y88.511 E0.06508
G1 X126.209 Y88.709 E0.00633
G1 X126.068 Y88.947 E0.00865
G1 X125.459 Y89.017 F10800.000
G1 F2100.000
G1 X125.943 Y89.427 E0.01989
G1 X125.977 Y89.491 E0.00227
G1 X129.656 Y122.603 E1.04459
G1 X129.651 Y123.456 E0.02676
G1 X129.562 Y123.737 E0.00922
G1 X129.436 Y123.927 E0.00717
G1 X129.228 Y124.113 E0.00875
G1 X128.457 Y124.495 E0.02698
G1 X128.208 Y124.558 E0.00804
G1 X127.208 Y124.563 E0.03135
G1 X126.998 Y124.491 E0.00697
G1 X126.715 Y124.250 E0.01165
G1 X126.460 Y124.482 E0.01083
G1 X126.239 Y124.563 E0.00739
G1 X123.576 Y124.563 E0.08350
G1 X123.304 Y124.487 E0.00885
G1 X123.093 Y124.453 E0.00670
G1 X122.628 Y124.563 E0.01497
G1 X121.748 Y124.553 E0.02761
G1 X121.546 Y124.496 E0.00657
G1 X120.730 Y124.085 E0.02864
G1 X120.588 Y123.956 E0.00601
G1 X120.462 Y123.784 E0.00668
G1 X120.340 Y123.400 E0.01263
G1 X120.340 Y91.325 E1.00568
G1 X120.361 Y91.265 E0.00199
G1 X120.562 Y91.010 E0.01019
G1 X120.616 Y90.976 E0.00199
G1 X121.510 Y90.761 E0.02883
