; generated by Slic3r Prusa Edition 1.42.0-beta2+win64 on 2019-10-15 at 17:00:48

; 

; external perimeters extrusion width = 0.45mm
; perimeters extrusion width = 0.45mm
; infill extrusion width = 0.45mm
; solid infill extrusion width = 0.45mm
; top infill extrusion width = 0.40mm
; support material extrusion width = 0.35mm
; first layer extrusion width = 0.42mm

M73 P0 R30
M73 Q0 S30
M201 X1000 Y1000 Z1000 E5000 ; sets maximum accelerations, mm/sec^2
M203 X200 Y200 Z12 E120 ; sets maximum feedrates, mm/sec
M204 P1250 R1250 T1250 ; sets acceleration (P, T) and retract acceleration (R), mm/sec^2
M205 X8.00 Y8.00 Z0.40 E1.50 ; sets the jerk limits, mm/sec
M205 S0 T0 ; sets the minimum extruding and travel feed rate, mm/sec
M107
M115 U3.8.0 ; tell printer latest fw version
G90 ; use absolute coordinates
M83 ; extruder relative mode
M104 S215 ; set extruder temp
M140 S60 ; set bed temp
M190 S60 ; wait for bed temp
M109 S215 ; wait for extruder temp
G28 W ; home all without mesh bed level
G80 ; mesh bed leveling
G1 Y-3.0 F1000.0 ; go outside print area
G92 E0.0
G1 X60.0 E9.0 F1000.0 ; intro line
M73 Q0 S30
M73 P0 R30
G1 X100.0 E12.5 F1000.0 ; intro line
G92 E0.0
M221 S95
M900 K30 ; Filament gcode
G21 ; set units to millimeters
G90 ; use absolute coordinates
M83 ; use relative distances for extrusion
;BEFORE_LAYER_CHANGE
G92 E0.0
;0.2


G1 E-0.80000 F2100.00000
G1 Z0.600 F10800.000
;AFTER_LAYER_CHANGE
;0.2
G1 X86.483 Y85.763
G1 Z0.200
G1 E0.80000 F2100.00000
M204 S1000
G1 X88.574 Y84.074 E0.08427
G1 X89.490 Y83.579 E0.03265
G1 X91.429 Y82.780 E0.06576
G1 X92.255 Y82.549 E0.02688
G1 X93.180 Y82.460 E0.02915
G1 X110.212 Y82.460 E0.53401
G1 X111.126 Y82.543 E0.02880
G1 X113.097 Y82.989 E0.06334
G1 X158.026 Y93.873 E1.44949
G1 X159.185 Y94.314 E0.03888
G1 X161.471 Y95.816 E0.08576
G1 X162.383 Y96.689 E0.03957
G1 X163.962 Y99.042 E0.08886
G1 X164.902 Y100.974 E0.06736
G1 X165.156 Y101.658 E0.02288
G1 X165.694 Y104.304 E0.08466
G1 X165.703 Y105.627 E0.04148
G1 X165.116 Y108.473 E0.09112
G1 X164.018 Y110.855 E0.08224
G1 X162.571 Y113.065 E0.08283
G1 X161.865 Y113.859 E0.03332
G1 X159.490 Y115.512 E0.09074
G1 X158.337 Y116.040 E0.03974
G1 X111.230 Y127.436 E1.51963
G1 X110.233 Y127.540 E0.03141
G1 X92.927 Y127.533 E0.54261
G1 X91.569 Y127.270 E0.04338
G1 X89.061 Y126.219 E0.08524
G1 X88.389 Y125.794 E0.02497
G1 X86.787 Y124.516 E0.06424
G1 X85.898 Y123.536 E0.04148
G1 X85.452 Y122.753 E0.02828
G1 X84.598 Y120.697 E0.06979
G1 X84.279 Y119.328 E0.04408
G1 X84.262 Y90.943 E0.89000
G1 X84.509 Y89.553 E0.04425
G1 X85.497 Y87.152 E0.08141
G1 X85.930 Y86.418 E0.02671
G1 X86.444 Y85.809 E0.02500
G1 F8640
G1 X88.574 Y84.074 E-0.63419
G1 X89.053 Y83.815 E-0.12581
G1 E-0.04000 F2100.00000
G1 Z0.800 F10800.000
G1 X84.923 Y120.507
G1 Z0.200
G1 E0.80000 F2100.00000
G1 X84.636 Y119.111 E0.04469
G1 X84.636 Y90.891 E0.88481
G1 X84.902 Y89.551 E0.04285
G1 X85.846 Y87.273 E0.07730
G1 X86.911 Y85.863 E0.05541
G1 X88.793 Y84.374 E0.07523
G1 X91.528 Y83.142 E0.09407
G1 X92.348 Y82.908 E0.02673
G1 X110.934 Y82.891 E0.58277
G1 X113.529 Y83.510 E0.08364
G1 X115.806 Y84.454 E0.07729
G1 X116.977 Y85.311 E0.04549
G1 X117.730 Y86.276 E0.03839
G1 X118.723 Y88.312 E0.07103
G1 X119.534 Y90.267 E0.06636
G1 X119.891 Y91.224 E0.03202
G1 X125.759 Y93.337 E0.19556
G1 X153.419 Y93.337 E0.86725
G1 X156.148 Y93.831 E0.08697
G1 X158.794 Y94.541 E0.08589
G1 X161.173 Y96.059 E0.08848
G1 X162.052 Y96.877 E0.03766
G1 X163.538 Y99.060 E0.08279
G1 X164.679 Y101.416 E0.08206
G1 X165.362 Y104.776 E0.10752
G1 X165.315 Y105.699 E0.02898
G1 X164.673 Y108.604 E0.09328
G1 X163.559 Y110.903 E0.08007
G1 X162.216 Y112.922 E0.07605
G1 X161.276 Y113.862 E0.04169
G1 X158.404 Y115.624 E0.10564
G1 X156.088 Y116.182 E0.07470
G1 X153.908 Y116.616 E0.06967
G1 X125.761 Y116.663 E0.88255
G1 X119.891 Y118.776 E0.19561
G1 X119.534 Y119.733 E0.03202
G1 X118.723 Y121.688 E0.06636
G1 X117.730 Y123.724 E0.07103
G1 X116.977 Y124.689 E0.03839
G1 X115.806 Y125.546 E0.04549
G1 X113.533 Y126.488 E0.07715
G1 X111.034 Y127.097 E0.08063
G1 X92.971 Y127.164 E0.56636
G1 X91.625 Y126.897 E0.04303
G1 X89.359 Y125.958 E0.07690
G1 X87.005 Y124.214 E0.09187
G1 X86.270 Y123.426 E0.03379
G1 X84.948 Y120.562 E0.09890
G1 X85.275 Y120.370 F10800.000
G1 F2100
G1 X85.013 Y119.092 E0.04090
G1 X85.013 Y90.910 E0.88363
G1 X85.258 Y89.678 E0.03938
G1 X86.185 Y87.440 E0.07597
G1 X87.164 Y86.144 E0.05092
G1 X89.008 Y84.685 E0.07374
G1 X91.669 Y83.492 E0.09144
G1 X92.425 Y83.278 E0.02463
G1 X110.869 Y83.263 E0.57829
G1 X113.399 Y83.864 E0.08154
G1 X115.641 Y84.793 E0.07609
G1 X116.732 Y85.598 E0.04252
G1 X117.400 Y86.459 E0.03416
G1 X118.377 Y88.462 E0.06989
G1 X119.185 Y90.408 E0.06607
G1 X119.598 Y91.520 E0.03718
G1 X125.693 Y93.714 E0.20311
G1 X153.402 Y93.714 E0.86878
G1 X156.059 Y94.198 E0.08469
G1 X158.616 Y94.875 E0.08293
G1 X160.956 Y96.368 E0.08703
G1 X161.752 Y97.107 E0.03408
G1 X163.205 Y99.238 E0.08085
G1 X164.315 Y101.514 E0.07940
G1 X164.987 Y104.827 E0.10598
G1 X164.939 Y105.662 E0.02623
G1 X164.309 Y108.501 E0.09118
G1 X163.226 Y110.726 E0.07760
G1 X161.913 Y112.697 E0.07427
G1 X161.026 Y113.579 E0.03922
G1 X158.233 Y115.287 E0.10263
G1 X156.004 Y115.814 E0.07181
G1 X153.853 Y116.243 E0.06878
G1 X125.695 Y116.286 E0.88288
G1 X119.598 Y118.480 E0.20315
G1 X119.185 Y119.592 E0.03718
G1 X118.377 Y121.538 E0.06607
G1 X117.400 Y123.541 E0.06989
G1 X116.732 Y124.402 E0.03416
G1 X115.641 Y125.207 E0.04252
G1 X113.402 Y126.134 E0.07596
G1 X110.967 Y126.725 E0.07857
G1 X92.989 Y126.786 E0.56370
G1 X91.752 Y126.541 E0.03953
G1 X89.525 Y125.619 E0.07558
G1 X87.244 Y123.922 E0.08914
G1 X86.567 Y123.192 E0.03122
G1 X85.300 Y120.424 E0.09544
G1 X85.627 Y120.234 F10800.000
G1 F2100
G1 X85.390 Y119.073 E0.03714
G1 X85.390 Y90.928 E0.88245
G1 X85.613 Y89.805 E0.03590
G1 X86.524 Y87.606 E0.07464
G1 X87.416 Y86.424 E0.04643
G1 X89.223 Y84.995 E0.07224
G1 X91.810 Y83.842 E0.08879
G1 X92.502 Y83.648 E0.02253
G1 X110.803 Y83.635 E0.57383
G1 X113.268 Y84.218 E0.07943
G1 X115.474 Y85.132 E0.07487
G1 X116.485 Y85.885 E0.03952
G1 X117.069 Y86.641 E0.02996
G1 X118.036 Y88.622 E0.06911
G1 X118.835 Y90.550 E0.06542
G1 X119.306 Y91.815 E0.04234
G1 X125.627 Y94.091 E0.21066
G1 X153.385 Y94.091 E0.87031
G1 X155.971 Y94.564 E0.08243
G1 X158.438 Y95.209 E0.07996
G1 X160.739 Y96.677 E0.08557
G1 X161.453 Y97.338 E0.03051
G1 X162.872 Y99.417 E0.07892
G1 X163.950 Y101.613 E0.07671
G1 X164.612 Y104.877 E0.10441
G1 X164.564 Y105.622 E0.02343
G1 X163.946 Y108.397 E0.08913
G1 X162.893 Y110.549 E0.07512
G1 X161.610 Y112.472 E0.07248
G1 X160.777 Y113.295 E0.03674
G1 X158.063 Y114.949 E0.09963
G1 X155.922 Y115.446 E0.06891
G1 X153.797 Y115.869 E0.06793
G1 X125.628 Y115.909 E0.88321
G1 X119.306 Y118.185 E0.21070
G1 X118.835 Y119.450 E0.04234
G1 X118.036 Y121.378 E0.06542
G1 X117.069 Y123.359 E0.06912
G1 X116.485 Y124.115 E0.02996
G1 X115.474 Y124.868 E0.03952
G1 X113.272 Y125.780 E0.07476
G1 X110.900 Y126.354 E0.07650
G1 X93.006 Y126.409 E0.56105
G1 X91.879 Y126.186 E0.03603
G1 X89.691 Y125.280 E0.07426
G1 X87.484 Y123.631 E0.08638
G1 X86.865 Y122.959 E0.02864
G1 X85.652 Y120.288 E0.09198
G1 X85.980 Y120.098 F10800.000
G1 F2100
G1 X85.767 Y119.054 E0.03341
G1 X85.767 Y90.947 E0.88128
G1 X85.969 Y89.932 E0.03243
G1 X86.863 Y87.773 E0.07330
G1 X87.669 Y86.705 E0.04193
G1 X89.438 Y85.306 E0.07073
G1 X91.949 Y84.192 E0.08612
G1 X92.577 Y84.019 E0.02043
G1 X110.738 Y84.007 E0.56942
G1 X113.138 Y84.573 E0.07732
G1 X115.308 Y85.471 E0.07363
G1 X116.238 Y86.170 E0.03648
G1 X116.738 Y86.824 E0.02580
G1 X117.695 Y88.783 E0.06835
G1 X118.485 Y90.691 E0.06476
G1 X119.013 Y92.111 E0.04750
G1 X125.562 Y94.468 E0.21821
G1 X153.367 Y94.468 E0.87183
G1 X155.883 Y94.931 E0.08021
G1 X158.261 Y95.543 E0.07697
G1 X160.522 Y96.986 E0.08411
G1 X161.154 Y97.568 E0.02694
G1 X162.554 Y99.618 E0.07783
G1 X163.585 Y101.712 E0.07319
G1 X164.238 Y104.925 E0.10280
G1 X164.189 Y105.580 E0.02057
G1 X163.583 Y108.292 E0.08715
G1 X162.560 Y110.371 E0.07263
G1 X161.307 Y112.246 E0.07070
G1 X160.528 Y113.011 E0.03424
G1 X157.894 Y114.610 E0.09663
G1 X155.841 Y115.078 E0.06600
G1 X153.742 Y115.496 E0.06712
G1 X125.562 Y115.532 E0.88354
G1 X119.013 Y117.889 E0.21824
G1 X118.485 Y119.309 E0.04750
G1 X117.695 Y121.217 E0.06476
G1 X116.738 Y123.176 E0.06835
G1 X116.238 Y123.830 E0.02580
G1 X115.308 Y124.529 E0.03648
G1 X113.141 Y125.426 E0.07353
G1 X110.833 Y125.982 E0.07442
G1 X93.024 Y126.032 E0.55840
G1 X92.006 Y125.830 E0.03253
G1 X89.858 Y124.940 E0.07292
G1 X87.725 Y123.340 E0.08360
G1 X87.164 Y122.727 E0.02604
G1 X86.004 Y120.153 E0.08854
G1 X86.333 Y119.964 F10800.000
G1 F2100
G1 X86.144 Y119.035 E0.02970
G1 X86.144 Y90.965 E0.88011
G1 X86.324 Y90.060 E0.02896
G1 X87.202 Y87.939 E0.07197
G1 X87.922 Y86.986 E0.03744
G1 X89.653 Y85.616 E0.06922
G1 X92.088 Y84.543 E0.08343
G1 X92.652 Y84.389 E0.01834
G1 X110.673 Y84.379 E0.56503
G1 X113.008 Y84.927 E0.07520
G1 X115.140 Y85.810 E0.07237
G1 X115.989 Y86.455 E0.03340
G1 X116.407 Y87.005 E0.02169
G1 X117.353 Y88.943 E0.06760
G1 X118.136 Y90.832 E0.06411
G1 X118.721 Y92.406 E0.05266
G1 X125.496 Y94.845 E0.22576
G1 X153.350 Y94.845 E0.87335
G1 X155.797 Y95.298 E0.07803
G1 X158.084 Y95.878 E0.07397
G1 X160.306 Y97.295 E0.08264
G1 X160.855 Y97.799 E0.02337
G1 X162.235 Y99.820 E0.07673
G1 X163.236 Y101.857 E0.07117
G1 X163.860 Y104.924 E0.09815
G1 X163.818 Y105.512 E0.01847
G1 X163.235 Y108.147 E0.08460
G1 X162.240 Y110.172 E0.07075
G1 X161.005 Y112.020 E0.06971
G1 X160.313 Y112.701 E0.03042
G1 X157.780 Y114.250 E0.09309
G1 X155.765 Y114.709 E0.06479
G1 X153.686 Y115.122 E0.06646
G1 X125.496 Y115.155 E0.88387
G1 X118.721 Y117.594 E0.22578
G1 X118.136 Y119.168 E0.05266
G1 X117.353 Y121.057 E0.06411
G1 X116.407 Y122.995 E0.06760
G1 X115.989 Y123.545 E0.02169
G1 X115.140 Y124.190 E0.03340
G1 X113.010 Y125.072 E0.07229
G1 X110.767 Y125.610 E0.07234
G1 X93.042 Y125.655 E0.55576
G1 X92.134 Y125.475 E0.02903
G1 X90.024 Y124.601 E0.07159
G1 X87.966 Y123.050 E0.08080
G1 X87.464 Y122.497 E0.02344
G1 X86.357 Y120.018 E0.08510
G1 X86.686 Y119.830 F10800.000
G1 F2100
G1 X86.521 Y119.016 E0.02603
G1 X86.521 Y90.984 E0.87894
G1 X86.680 Y90.187 E0.02548
G1 X87.542 Y88.105 E0.07064
G1 X88.175 Y87.267 E0.03295
G1 X89.868 Y85.927 E0.06770
G1 X92.226 Y84.894 E0.08071
G1 X92.726 Y84.759 E0.01624
G1 X110.609 Y84.751 E0.56069
G1 X112.878 Y85.281 E0.07307
G1 X114.973 Y86.149 E0.07109
G1 X115.738 Y86.737 E0.03027
G1 X116.076 Y87.186 E0.01763
G1 X117.012 Y89.103 E0.06687
G1 X117.786 Y90.973 E0.06346
G1 X118.429 Y92.702 E0.05783
G1 X125.430 Y95.222 E0.23331
G1 X153.332 Y95.222 E0.87486
G1 X155.712 Y95.665 E0.07588
G1 X157.907 Y96.212 E0.07094
G1 X160.088 Y97.604 E0.08113
G1 X160.583 Y98.061 E0.02111
G1 X161.915 Y100.021 E0.07431
G1 X162.887 Y102.001 E0.06917
G1 X163.482 Y104.925 E0.09354
G1 X163.447 Y105.445 E0.01637
G1 X162.886 Y108.001 E0.08204
G1 X161.919 Y109.973 E0.06885
G1 X160.702 Y111.795 E0.06871
G1 X160.097 Y112.391 E0.02663
G1 X157.666 Y113.889 E0.08953
G1 X155.689 Y114.339 E0.06356
G1 X153.631 Y114.749 E0.06580
G1 X125.430 Y114.778 E0.88420
G1 X118.429 Y117.298 E0.23333
G1 X117.786 Y119.027 E0.05783
G1 X117.012 Y120.897 E0.06346
G1 X116.076 Y122.814 E0.06687
G1 X115.738 Y123.263 E0.01763
G1 X114.973 Y123.851 E0.03027
G1 X112.880 Y124.718 E0.07102
G1 X110.701 Y125.238 E0.07025
G1 X93.060 Y125.278 E0.55312
G1 X92.261 Y125.119 E0.02554
G1 X90.191 Y124.262 E0.07024
G1 X88.209 Y122.761 E0.07797
G1 X87.765 Y122.267 E0.02082
G1 X86.710 Y119.885 E0.08169
G1 X87.039 Y119.697 F10800.000
G1 F2100
G1 X86.898 Y118.998 E0.02238
G1 X86.898 Y91.002 E0.87777
G1 X87.035 Y90.314 E0.02201
G1 X87.881 Y88.272 E0.06931
G1 X88.428 Y87.548 E0.02845
G1 X90.083 Y86.238 E0.06617
G1 X92.363 Y85.246 E0.07797
G1 X92.799 Y85.130 E0.01415
G1 X110.544 Y85.123 E0.55640
G1 X112.748 Y85.636 E0.07094
G1 X114.804 Y86.487 E0.06978
G1 X115.485 Y87.018 E0.02707
G1 X115.745 Y87.367 E0.01364
G1 X116.670 Y89.263 E0.06615
G1 X117.436 Y91.114 E0.06280
G1 X118.136 Y92.997 E0.06299
G1 X125.364 Y95.599 E0.24087
G1 X153.315 Y95.599 E0.87637
G1 X155.627 Y96.033 E0.07377
G1 X157.731 Y96.547 E0.06789
G1 X159.872 Y97.913 E0.07963
G1 X160.283 Y98.291 E0.01752
G1 X161.596 Y100.222 E0.07320
G1 X162.538 Y102.145 E0.06716
G1 X163.104 Y104.926 E0.08897
G1 X163.075 Y105.380 E0.01426
G1 X162.537 Y107.856 E0.07945
G1 X161.599 Y109.774 E0.06695
G1 X160.399 Y111.570 E0.06772
G1 X159.880 Y112.082 E0.02288
G1 X157.551 Y113.528 E0.08595
G1 X155.613 Y113.970 E0.06232
G1 X153.575 Y114.375 E0.06514
G1 X125.365 Y114.401 E0.88453
G1 X118.136 Y117.003 E0.24088
G1 X117.436 Y118.886 E0.06299
G1 X116.670 Y120.737 E0.06280
G1 X115.745 Y122.633 E0.06615
G1 X115.485 Y122.982 E0.01364
G1 X114.804 Y123.513 E0.02707
G1 X112.750 Y124.364 E0.06973
G1 X110.635 Y124.866 E0.06815
G1 X93.078 Y124.901 E0.55050
G1 X92.388 Y124.764 E0.02205
G1 X90.358 Y123.923 E0.06889
G1 X88.452 Y122.472 E0.07511
G1 X88.066 Y122.039 E0.01818
G1 X87.063 Y119.752 E0.07830
G1 X87.393 Y119.566 F10800.000
G1 F2100
G1 X87.275 Y118.979 E0.01877
G1 X87.275 Y91.021 E0.87660
G1 X87.390 Y90.441 E0.01853
G1 X88.220 Y88.438 E0.06797
G1 X88.680 Y87.829 E0.02396
G1 X90.297 Y86.550 E0.06464
G1 X92.499 Y85.598 E0.07520
G1 X92.870 Y85.501 E0.01205
G1 X110.481 Y85.495 E0.55215
G1 X112.618 Y85.990 E0.06880
G1 X114.635 Y86.825 E0.06844
G1 X115.230 Y87.297 E0.02380
G1 X115.413 Y87.547 E0.00971
G1 X116.324 Y89.413 E0.06510
G1 X117.086 Y91.255 E0.06251
G1 X117.844 Y93.293 E0.06816
G1 X125.298 Y95.976 E0.24842
G1 X153.297 Y95.976 E0.87788
G1 X155.544 Y96.401 E0.07171
G1 X157.555 Y96.882 E0.06482
G1 X159.654 Y98.221 E0.07808
G1 X160.010 Y98.552 E0.01525
G1 X161.276 Y100.422 E0.07078
G1 X162.189 Y102.289 E0.06517
G1 X162.726 Y104.928 E0.08445
G1 X162.703 Y105.315 E0.01215
G1 X162.188 Y107.711 E0.07685
G1 X161.278 Y109.575 E0.06503
G1 X160.096 Y111.344 E0.06672
G1 X159.661 Y111.774 E0.01915
G1 X157.436 Y113.168 E0.08234
G1 X155.537 Y113.601 E0.06107
G1 X153.520 Y114.002 E0.06448
G1 X125.299 Y114.024 E0.88486
G1 X117.844 Y116.707 E0.24843
G1 X117.086 Y118.745 E0.06816
G1 X116.324 Y120.587 E0.06251
G1 X115.413 Y122.453 E0.06510
G1 X115.230 Y122.703 E0.00971
G1 X114.635 Y123.175 E0.02380
G1 X112.619 Y124.010 E0.06841
G1 X110.570 Y124.494 E0.06605
G1 X93.096 Y124.524 E0.54788
G1 X92.515 Y124.408 E0.01856
G1 X90.525 Y123.584 E0.06753
G1 X88.696 Y122.185 E0.07221
G1 X88.369 Y121.813 E0.01552
G1 X87.417 Y119.621 E0.07494
G1 X87.747 Y119.435 F10800.000
G1 F2100
G1 X87.652 Y118.960 E0.01519
G1 X87.652 Y91.040 E0.87544
M73 Q3 S29
M73 P3 R29
G1 X87.746 Y90.568 E0.01506
G1 X88.559 Y88.605 E0.06664
G1 X88.933 Y88.109 E0.01946
G1 X90.511 Y86.861 E0.06309
G1 X92.633 Y85.951 E0.07239
G1 X92.940 Y85.872 E0.00994
G1 X110.417 Y85.868 E0.54796
G1 X112.489 Y86.344 E0.06666
G1 X114.465 Y87.163 E0.06707
G1 X114.972 Y87.573 E0.02043
G1 X115.080 Y87.725 E0.00588
G1 X115.978 Y89.562 E0.06410
G1 X116.734 Y91.389 E0.06200
G1 X117.551 Y93.588 E0.07354
G1 X125.232 Y96.353 E0.25597
G1 X153.279 Y96.353 E0.87938
G1 X155.463 Y96.769 E0.06969
G1 X157.379 Y97.217 E0.06172
G1 X159.438 Y98.530 E0.07655
G1 X159.711 Y98.782 E0.01164
G1 X160.956 Y100.622 E0.06967
G1 X161.839 Y102.433 E0.06317
G1 X162.348 Y104.933 E0.07998
G1 X162.331 Y105.252 E0.01003
G1 X161.839 Y107.567 E0.07422
G1 X160.957 Y109.376 E0.06310
G1 X159.793 Y111.119 E0.06573
G1 X159.442 Y111.466 E0.01547
G1 X157.320 Y112.807 E0.07871
G1 X155.461 Y113.231 E0.05980
G1 X153.464 Y113.629 E0.06382
G1 X125.233 Y113.647 E0.88519
G1 X117.551 Y116.412 E0.25598
G1 X116.734 Y118.611 E0.07354
G1 X115.978 Y120.438 E0.06200
G1 X115.080 Y122.275 E0.06410
G1 X114.972 Y122.428 E0.00588
G1 X114.465 Y122.837 E0.02043
G1 X112.489 Y123.655 E0.06705
G1 X110.504 Y124.122 E0.06394
G1 X93.114 Y124.147 E0.54527
G1 X92.642 Y124.053 E0.01508
G1 X90.693 Y123.246 E0.06616
G1 X88.942 Y121.898 E0.06927
G1 X88.674 Y121.589 E0.01284
G1 X87.771 Y119.491 E0.07162
G1 X88.102 Y119.306 F10800.000
G1 F2100
G1 X88.029 Y118.942 E0.01164
G1 X88.029 Y91.058 E0.87428
G1 X88.101 Y90.696 E0.01159
G1 X88.899 Y88.771 E0.06531
G1 X89.186 Y88.390 E0.01497
G1 X90.725 Y87.173 E0.06154
