; generated by Slic3r Prusa Edition 1.41.0+win64 on 2018-10-31 at 20:41:37

; 

; external perimeters extrusion width = 0.45mm
; perimeters extrusion width = 0.45mm
; infill extrusion width = 0.45mm
; solid infill extrusion width = 0.45mm
; top infill extrusion width = 0.40mm
; first layer extrusion width = 0.42mm

; external perimeters extrusion width = 0.45mm
; perimeters extrusion width = 0.45mm
; infill extrusion width = 0.45mm
; solid infill extrusion width = 0.45mm
; top infill extrusion width = 0.40mm
; first layer extrusion width = 0.42mm

; external perimeters extrusion width = 0.45mm
; perimeters extrusion width = 0.45mm
; infill extrusion width = 0.45mm
; solid infill extrusion width = 0.45mm
; top infill extrusion width = 0.40mm
; first layer extrusion width = 0.42mm

; external perimeters extrusion width = 0.45mm
; perimeters extrusion width = 0.45mm
; infill extrusion width = 0.45mm
; solid infill extrusion width = 0.45mm
; top infill extrusion width = 0.40mm
; first layer extrusion width = 0.42mm

M201 X1000 Y1000 Z1000 E5000 ; sets maximum accelerations, mm/sec^2
M203 X200 Y200 Z12 E120 ; sets maximum feedrates, mm/sec
M204 P1250 R1250 T1250 ; sets acceleration (P, T) and retract acceleration (R), mm/sec^2
M205 X8.00 Y8.00 Z0.40 E1.50 ; sets the jerk limits, mm/sec
M205 S0 T0 ; sets the minimum extruding and travel feed rate, mm/sec
M107
M115 U3.4.1 ; tell printer latest fw version
M83  ; extruder relative mode
M104 S215 ; set extruder temp
M140 S60 ; set bed temp
M190 S60 ; wait for bed temp
M109 S215 ; wait for extruder temp
G28 W ; home all without mesh bed level
G80 ; mesh bed leveling
G1 Y-3.0 F1000.0 ; go outside print area
G92 E0.0
G1 X60.0 E9.0  F1000.0 ; intro line
M73 Q0 S47
M73 P0 R47
G1 X100.0 E12.5  F1000.0 ; intro line
G92 E0.0
M221 S95
M900 K30; Filament gcode
G21 ; set units to millimeters
G90 ; use absolute coordinates
M83 ; use relative distances for extrusion
;BEFORE_LAYER_CHANGE
G92 E0.0
;0.2


G1 E-0.80000 F2100.00000
G1 Z0.600 F10800.000
;AFTER_LAYER_CHANGE
;0.2
G1 X93.449 Y74.456
G1 Z0.200
G1 E0.80000 F2100.00000
M204 S1000
G1 F1200
G1 X94.151 Y73.983 E0.02653
G1 X94.976 Y73.812 E0.02642
G1 X155.004 Y73.811 E1.88213
G1 X155.827 Y73.974 E0.02631
G1 X156.528 Y74.434 E0.02631
G1 X157.006 Y75.124 E0.02631
G1 X157.188 Y75.943 E0.02631
G1 X157.320 Y92.131 E0.50758
G1 X157.188 Y134.024 E1.31352
G1 X157.019 Y134.845 E0.02631
G1 X156.550 Y135.545 E0.02642
G1 X155.841 Y136.021 E0.02676
G1 X155.000 Y136.189 E0.02689
G1 X94.978 Y136.188 E1.88195
G1 X94.156 Y136.019 E0.02631
G1 X93.456 Y135.551 E0.02642
G1 X92.979 Y134.839 E0.02687
G1 X92.811 Y134.000 E0.02683
G1 X92.812 Y75.978 E1.81924
G1 X92.981 Y75.156 E0.02631
G1 X93.416 Y74.506 E0.02454
; PURGING FINISHED
G1 F8640
G1 X94.151 Y73.983 E-0.20828
G1 X94.976 Y73.812 E-0.19457
G1 X96.523 Y73.812 E-0.35715
G1 E-0.04000 F2100.00000
G1 Z0.800 F10800.000
G1 X95.718 Y92.718
G1 Z0.200
G1 E0.80000 F2100.00000
G1 F1200
G1 X154.544 Y92.718 E1.84444
G1 X154.544 Y101.544 E0.27673
G1 X95.718 Y101.544 E1.84444
G1 X95.718 Y92.778 E0.27485
G1 X95.341 Y92.341 F10800.000
G1 F1200
G1 X154.921 Y92.341 E1.86809
G1 X154.921 Y101.921 E0.30038
G1 X95.341 Y101.921 E1.86809
G1 X95.341 Y92.401 E0.29849
G1 X95.740 Y92.362 F10800.000
G1 F8640
G1 X98.632 Y92.398 E-0.76000
G1 E-0.04000 F2100.00000
G1 Z0.800 F10800.000
G1 X96.594 Y101.431
G1 Z0.200
G1 E0.80000 F2100.00000
G1 F1200
G1 X96.001 Y100.837 E0.02635
G1 X96.001 Y100.303 E0.01676
G1 X96.959 Y101.261 E0.04252
G1 X97.493 Y101.261 E0.01676
G1 X96.001 Y99.770 E0.06622
G1 X96.001 Y99.236 E0.01676
G1 X98.026 Y101.261 E0.08993
G1 X98.560 Y101.261 E0.01676
G1 X96.001 Y98.702 E0.11363
G1 X96.001 Y98.168 E0.01676
G1 X99.094 Y101.261 E0.13734
G1 X99.628 Y101.261 E0.01676
G1 X96.001 Y97.634 E0.16104
G1 X96.001 Y97.100 E0.01676
G1 X100.162 Y101.261 E0.18474
G1 X100.696 Y101.261 E0.01676
G1 X96.001 Y96.566 E0.20845
G1 X96.001 Y96.032 E0.01676
G1 X101.230 Y101.261 E0.23215
G1 X101.764 Y101.261 E0.01676
G1 X96.001 Y95.498 E0.25586
G1 X96.001 Y94.964 E0.01676
G1 X102.298 Y101.261 E0.27956
G1 X102.832 Y101.261 E0.01676
G1 X96.001 Y94.430 E0.30327
G1 X96.001 Y93.896 E0.01676
G1 X103.366 Y101.261 E0.32697
G1 X103.900 Y101.261 E0.01676
G1 X96.001 Y93.362 E0.35067
G1 X96.001 Y93.001 E0.01135
G1 X96.173 Y93.001 E0.00541
G1 X104.434 Y101.261 E0.36673
G1 X104.968 Y101.261 E0.01676
G1 X96.707 Y93.001 E0.36673
G1 X97.241 Y93.001 E0.01676
G1 X105.501 Y101.261 E0.36673
G1 X106.035 Y101.261 E0.01676
G1 X97.775 Y93.001 E0.36673
G1 X98.309 Y93.001 E0.01676
G1 X106.569 Y101.261 E0.36673
G1 X107.103 Y101.261 E0.01676
G1 X98.843 Y93.001 E0.36673
G1 X99.377 Y93.001 E0.01676
G1 X107.637 Y101.261 E0.36673
G1 X108.171 Y101.261 E0.01676
G1 X99.911 Y93.001 E0.36673
G1 X100.445 Y93.001 E0.01676
G1 X108.705 Y101.261 E0.36673
G1 X109.239 Y101.261 E0.01676
G1 X100.979 Y93.001 E0.36673
G1 X101.513 Y93.001 E0.01676
G1 X109.773 Y101.261 E0.36673
G1 X110.307 Y101.261 E0.01676
G1 X102.046 Y93.001 E0.36673
G1 X102.580 Y93.001 E0.01676
G1 X110.841 Y101.261 E0.36673
G1 X111.375 Y101.261 E0.01676
G1 X103.114 Y93.001 E0.36673
G1 X103.648 Y93.001 E0.01676
G1 X111.909 Y101.261 E0.36673
G1 X112.442 Y101.261 E0.01676
G1 X104.182 Y93.001 E0.36673
G1 X104.716 Y93.001 E0.01676
G1 X112.976 Y101.261 E0.36673
G1 X113.510 Y101.261 E0.01676
G1 X105.250 Y93.001 E0.36673
G1 X105.784 Y93.001 E0.01676
G1 X114.044 Y101.261 E0.36673
G1 X114.578 Y101.261 E0.01676
G1 X106.318 Y93.001 E0.36673
G1 X106.852 Y93.001 E0.01676
G1 X115.112 Y101.261 E0.36673
G1 X115.646 Y101.261 E0.01676
G1 X107.386 Y93.001 E0.36673
G1 X107.920 Y93.001 E0.01676
G1 X116.180 Y101.261 E0.36673
G1 X116.714 Y101.261 E0.01676
G1 X108.454 Y93.001 E0.36673
G1 X108.988 Y93.001 E0.01676
G1 X117.248 Y101.261 E0.36673
G1 X117.782 Y101.261 E0.01676
G1 X109.521 Y93.001 E0.36673
G1 X110.055 Y93.001 E0.01676
G1 X118.316 Y101.261 E0.36673
G1 X118.850 Y101.261 E0.01676
G1 X110.589 Y93.001 E0.36673
G1 X111.123 Y93.001 E0.01676
G1 X119.384 Y101.261 E0.36673
G1 X119.917 Y101.261 E0.01676
G1 X111.657 Y93.001 E0.36673
G1 X112.191 Y93.001 E0.01676
G1 X120.451 Y101.261 E0.36673
G1 X120.985 Y101.261 E0.01676
G1 X112.725 Y93.001 E0.36673
G1 X113.259 Y93.001 E0.01676
G1 X121.519 Y101.261 E0.36673
G1 X122.053 Y101.261 E0.01676
G1 X113.793 Y93.001 E0.36673
G1 X114.327 Y93.001 E0.01676
G1 X122.587 Y101.261 E0.36673
G1 X123.121 Y101.261 E0.01676
G1 X114.861 Y93.001 E0.36673
G1 X115.395 Y93.001 E0.01676
G1 X123.655 Y101.261 E0.36673
G1 X124.189 Y101.261 E0.01676
G1 X115.929 Y93.001 E0.36673
G1 X116.462 Y93.001 E0.01676
G1 X124.723 Y101.261 E0.36673
M73 Q2 S46
G1 X125.257 Y101.261 E0.01676
G1 X116.996 Y93.001 E0.36673
M73 P2 R46
G1 X117.530 Y93.001 E0.01676
G1 X125.791 Y101.261 E0.36673
G1 X126.325 Y101.261 E0.01676
G1 X118.064 Y93.001 E0.36673
G1 X118.598 Y93.001 E0.01676
G1 X126.858 Y101.261 E0.36673
G1 X127.392 Y101.261 E0.01676
G1 X119.132 Y93.001 E0.36673
G1 X119.666 Y93.001 E0.01676
G1 X127.926 Y101.261 E0.36673
G1 X128.460 Y101.261 E0.01676
G1 X120.200 Y93.001 E0.36673
G1 X120.734 Y93.001 E0.01676
G1 X128.994 Y101.261 E0.36673
G1 X129.528 Y101.261 E0.01676
G1 X121.268 Y93.001 E0.36673
G1 X121.802 Y93.001 E0.01676
G1 X130.062 Y101.261 E0.36673
G1 X130.596 Y101.261 E0.01676
G1 X122.336 Y93.001 E0.36673
G1 X122.870 Y93.001 E0.01676
G1 X131.130 Y101.261 E0.36673
G1 X131.664 Y101.261 E0.01676
G1 X123.404 Y93.001 E0.36673
G1 X123.937 Y93.001 E0.01676
G1 X132.198 Y101.261 E0.36673
G1 X132.732 Y101.261 E0.01676
G1 X124.471 Y93.001 E0.36673
G1 X125.005 Y93.001 E0.01676
G1 X133.266 Y101.261 E0.36673
G1 X133.800 Y101.261 E0.01676
G1 X125.539 Y93.001 E0.36673
G1 X126.073 Y93.001 E0.01676
G1 X134.333 Y101.261 E0.36673
G1 X134.867 Y101.261 E0.01676
G1 X126.607 Y93.001 E0.36673
G1 X127.141 Y93.001 E0.01676
G1 X135.401 Y101.261 E0.36673
G1 X135.935 Y101.261 E0.01676
G1 X127.675 Y93.001 E0.36673
G1 X128.209 Y93.001 E0.01676
G1 X136.469 Y101.261 E0.36673
G1 X137.003 Y101.261 E0.01676
G1 X128.743 Y93.001 E0.36673
G1 X129.277 Y93.001 E0.01676
G1 X137.537 Y101.261 E0.36673
G1 X138.071 Y101.261 E0.01676
G1 X129.811 Y93.001 E0.36673
G1 X130.345 Y93.001 E0.01676
G1 X138.605 Y101.261 E0.36673
G1 X139.139 Y101.261 E0.01676
G1 X130.878 Y93.001 E0.36673
G1 X131.412 Y93.001 E0.01676
G1 X139.673 Y101.261 E0.36673
G1 X140.207 Y101.261 E0.01676
G1 X131.946 Y93.001 E0.36673
G1 X132.480 Y93.001 E0.01676
G1 X140.741 Y101.261 E0.36673
G1 X141.275 Y101.261 E0.01676
G1 X133.014 Y93.001 E0.36673
G1 X133.548 Y93.001 E0.01676
G1 X141.808 Y101.261 E0.36673
G1 X142.342 Y101.261 E0.01676
G1 X134.082 Y93.001 E0.36673
G1 X134.616 Y93.001 E0.01676
G1 X142.876 Y101.261 E0.36673
G1 X143.410 Y101.261 E0.01676
G1 X135.150 Y93.001 E0.36673
G1 X135.684 Y93.001 E0.01676
G1 X143.944 Y101.261 E0.36673
G1 X144.478 Y101.261 E0.01676
G1 X136.218 Y93.001 E0.36673
G1 X136.752 Y93.001 E0.01676
G1 X145.012 Y101.261 E0.36673
G1 X145.546 Y101.261 E0.01676
G1 X137.286 Y93.001 E0.36673
G1 X137.820 Y93.001 E0.01676
G1 X146.080 Y101.261 E0.36673
G1 X146.614 Y101.261 E0.01676
G1 X138.353 Y93.001 E0.36673
G1 X138.887 Y93.001 E0.01676
G1 X147.148 Y101.261 E0.36673
G1 X147.682 Y101.261 E0.01676
G1 X139.421 Y93.001 E0.36673
G1 X139.955 Y93.001 E0.01676
G1 X148.216 Y101.261 E0.36673
G1 X148.749 Y101.261 E0.01676
G1 X140.489 Y93.001 E0.36673
G1 X141.023 Y93.001 E0.01676
G1 X149.283 Y101.261 E0.36673
G1 X149.817 Y101.261 E0.01676
G1 X141.557 Y93.001 E0.36673
G1 X142.091 Y93.001 E0.01676
G1 X150.351 Y101.261 E0.36673
G1 X150.885 Y101.261 E0.01676
G1 X142.625 Y93.001 E0.36673
G1 X143.159 Y93.001 E0.01676
G1 X151.419 Y101.261 E0.36673
G1 X151.953 Y101.261 E0.01676
G1 X143.693 Y93.001 E0.36673
G1 X144.227 Y93.001 E0.01676
G1 X152.487 Y101.261 E0.36673
G1 X153.021 Y101.261 E0.01676
G1 X144.761 Y93.001 E0.36673
G1 X145.295 Y93.001 E0.01676
G1 X153.555 Y101.261 E0.36673
G1 X154.089 Y101.261 E0.01676
G1 X145.828 Y93.001 E0.36673
G1 X146.362 Y93.001 E0.01676
G1 X154.261 Y100.900 E0.35068
G1 X154.261 Y100.366 E0.01676
G1 X146.896 Y93.001 E0.32697
G1 X147.430 Y93.001 E0.01676
G1 X154.261 Y99.832 E0.30327
G1 X154.261 Y99.298 E0.01676
G1 X147.964 Y93.001 E0.27957
G1 X148.498 Y93.001 E0.01676
G1 X154.261 Y98.764 E0.25586
G1 X154.261 Y98.230 E0.01676
G1 X149.032 Y93.001 E0.23216
G1 X149.566 Y93.001 E0.01676
G1 X154.261 Y97.696 E0.20845
G1 X154.261 Y97.162 E0.01676
G1 X150.100 Y93.001 E0.18475
G1 X150.634 Y93.001 E0.01676
G1 X154.261 Y96.628 E0.16104
G1 X154.261 Y96.094 E0.01676
G1 X151.168 Y93.001 E0.13734
G1 X151.702 Y93.001 E0.01676
G1 X154.261 Y95.560 E0.11364
G1 X154.261 Y95.027 E0.01676
G1 X152.236 Y93.001 E0.08993
G1 X152.769 Y93.001 E0.01676
G1 X154.261 Y94.493 E0.06623
G1 X154.261 Y93.959 E0.01676
G1 X153.303 Y93.001 E0.04252
G1 X153.837 Y93.001 E0.01676
G1 X154.431 Y93.594 E0.02635
G1 F8640
G1 X153.837 Y93.001 E-0.19383
G1 X153.303 Y93.001 E-0.12328
G1 X154.261 Y93.959 E-0.31277
G1 X154.261 Y94.493 E-0.12328
G1 X154.240 Y94.472 E-0.00683
G1 E-0.04000 F2100.00000
G1 Z0.800 F10800.000
G1 X154.413 Y108.587
G1 Z0.200
G1 E0.80000 F2100.00000
G1 F1200
G1 X154.413 Y117.413 E0.27673
G1 X95.587 Y117.413 E1.84444
G1 X95.587 Y108.587 E0.27673
G1 X154.353 Y108.587 E1.84256
G1 X154.790 Y108.210 F10800.000
G1 F1200
G1 X154.790 Y117.790 E0.30038
G1 X95.210 Y117.790 E1.86809
G1 X95.210 Y108.210 E0.30038
G1 X154.730 Y108.210 E1.86621
G1 X154.609 Y108.567 F10800.000
G1 F8640
G1 X154.751 Y111.501 E-0.76000
G1 E-0.04000 F2100.00000
G1 Z0.800 F10800.000
G1 X154.300 Y109.463
G1 Z0.200
G1 E0.80000 F2100.00000
G1 F1200
G1 X153.706 Y108.870 E0.02635
G1 X153.172 Y108.870 E0.01676
G1 X154.130 Y109.828 E0.04252
G1 X154.130 Y110.362 E0.01676
G1 X152.638 Y108.870 E0.06623
G1 X152.105 Y108.870 E0.01676
G1 X154.130 Y110.896 E0.08993
G1 X154.130 Y111.429 E0.01676
G1 X151.571 Y108.870 E0.11364
G1 X151.037 Y108.870 E0.01676
G1 X154.130 Y111.963 E0.13734
G1 X154.130 Y112.497 E0.01676
G1 X150.503 Y108.870 E0.16104
G1 X149.969 Y108.870 E0.01676
G1 X154.130 Y113.031 E0.18475
G1 X154.130 Y113.565 E0.01676
G1 X149.435 Y108.870 E0.20845
G1 X148.901 Y108.870 E0.01676
G1 X154.130 Y114.099 E0.23216
G1 X154.130 Y114.633 E0.01676
G1 X148.367 Y108.870 E0.25586
G1 X147.833 Y108.870 E0.01676
G1 X154.130 Y115.167 E0.27957
G1 X154.130 Y115.701 E0.01676
G1 X147.299 Y108.870 E0.30327
G1 X146.765 Y108.870 E0.01676
G1 X154.130 Y116.235 E0.32697
G1 X154.130 Y116.769 E0.01676
G1 X146.231 Y108.870 E0.35068
G1 X145.697 Y108.870 E0.01676
G1 X153.958 Y117.130 E0.36673
G1 X153.424 Y117.130 E0.01676
G1 X145.163 Y108.870 E0.36673
M73 Q4 S45
G1 X144.630 Y108.870 E0.01676
G1 X152.890 Y117.130 E0.36673
M73 P4 R45
G1 X152.356 Y117.130 E0.01676
G1 X144.096 Y108.870 E0.36673
G1 X143.562 Y108.870 E0.01676
G1 X151.822 Y117.130 E0.36673
G1 X151.288 Y117.130 E0.01676
G1 X143.028 Y108.870 E0.36673
G1 X142.494 Y108.870 E0.01676
G1 X150.754 Y117.130 E0.36673
G1 X150.220 Y117.130 E0.01676
G1 X141.960 Y108.870 E0.36673
G1 X141.426 Y108.870 E0.01676
G1 X149.686 Y117.130 E0.36673
G1 X149.152 Y117.130 E0.01676
G1 X140.892 Y108.870 E0.36673
G1 X140.358 Y108.870 E0.01676
G1 X148.618 Y117.130 E0.36673
G1 X148.085 Y117.130 E0.01676
G1 X139.824 Y108.870 E0.36673
G1 X139.290 Y108.870 E0.01676
G1 X147.551 Y117.130 E0.36673
G1 X147.017 Y117.130 E0.01676
G1 X138.756 Y108.870 E0.36673
G1 X138.222 Y108.870 E0.01676
G1 X146.483 Y117.130 E0.36673
G1 X145.949 Y117.130 E0.01676
G1 X137.689 Y108.870 E0.36673
G1 X137.155 Y108.870 E0.01676
G1 X145.415 Y117.130 E0.36673
G1 X144.881 Y117.130 E0.01676
G1 X136.621 Y108.870 E0.36673
G1 X136.087 Y108.870 E0.01676
G1 X144.347 Y117.130 E0.36673
G1 X143.813 Y117.130 E0.01676
G1 X135.553 Y108.870 E0.36673
G1 X135.019 Y108.870 E0.01676
G1 X143.279 Y117.130 E0.36673
G1 X142.745 Y117.130 E0.01676
G1 X134.485 Y108.870 E0.36673
G1 X133.951 Y108.870 E0.01676
G1 X142.211 Y117.130 E0.36673
G1 X141.677 Y117.130 E0.01676
G1 X133.417 Y108.870 E0.36673
G1 X132.883 Y108.870 E0.01676
G1 X141.143 Y117.130 E0.36673
G1 X140.610 Y117.130 E0.01676
G1 X132.349 Y108.870 E0.36673
G1 X131.815 Y108.870 E0.01676
G1 X140.076 Y117.130 E0.36673
G1 X139.542 Y117.130 E0.01676
G1 X131.281 Y108.870 E0.36673
G1 X130.747 Y108.870 E0.01676
G1 X139.008 Y117.130 E0.36673
G1 X138.474 Y117.130 E0.01676
G1 X130.214 Y108.870 E0.36673
G1 X129.680 Y108.870 E0.01676
G1 X137.940 Y117.130 E0.36673
G1 X137.406 Y117.130 E0.01676
G1 X129.146 Y108.870 E0.36673
G1 X128.612 Y108.870 E0.01676
G1 X136.872 Y117.130 E0.36673
G1 X136.338 Y117.130 E0.01676
G1 X128.078 Y108.870 E0.36673
G1 X127.544 Y108.870 E0.01676
G1 X135.804 Y117.130 E0.36673
G1 X135.270 Y117.130 E0.01676
G1 X127.010 Y108.870 E0.36673
G1 X126.476 Y108.870 E0.01676
G1 X134.736 Y117.130 E0.36673
G1 X134.202 Y117.130 E0.01676
G1 X125.942 Y108.870 E0.36673
G1 X125.408 Y108.870 E0.01676
G1 X133.669 Y117.130 E0.36673
G1 X133.135 Y117.130 E0.01676
G1 X124.874 Y108.870 E0.36673
G1 X124.340 Y108.870 E0.01676
G1 X132.601 Y117.130 E0.36673
G1 X132.067 Y117.130 E0.01676
G1 X123.806 Y108.870 E0.36673
G1 X123.273 Y108.870 E0.01676
G1 X131.533 Y117.130 E0.36673
G1 X130.999 Y117.130 E0.01676
G1 X122.739 Y108.870 E0.36673
G1 X122.205 Y108.870 E0.01676
G1 X130.465 Y117.130 E0.36673
G1 X129.931 Y117.130 E0.01676
G1 X121.671 Y108.870 E0.36673
G1 X121.137 Y108.870 E0.01676
G1 X129.397 Y117.130 E0.36673
G1 X128.863 Y117.130 E0.01676
G1 X120.603 Y108.870 E0.36673
G1 X120.069 Y108.870 E0.01676
G1 X128.329 Y117.130 E0.36673
G1 X127.795 Y117.130 E0.01676
G1 X119.535 Y108.870 E0.36673
G1 X119.001 Y108.870 E0.01676
G1 X127.261 Y117.130 E0.36673
G1 X126.727 Y117.130 E0.01676
G1 X118.467 Y108.870 E0.36673
G1 X117.933 Y108.870 E0.01676
G1 X126.194 Y117.130 E0.36673
G1 X125.660 Y117.130 E0.01676
G1 X117.399 Y108.870 E0.36673
G1 X116.865 Y108.870 E0.01676
G1 X125.126 Y117.130 E0.36673
G1 X124.592 Y117.130 E0.01676
G1 X116.331 Y108.870 E0.36673
G1 X115.798 Y108.870 E0.01676
G1 X124.058 Y117.130 E0.36673
G1 X123.524 Y117.130 E0.01676
G1 X115.264 Y108.870 E0.36673
G1 X114.730 Y108.870 E0.01676
G1 X122.990 Y117.130 E0.36673
G1 X122.456 Y117.130 E0.01676
G1 X114.196 Y108.870 E0.36673
G1 X113.662 Y108.870 E0.01676
G1 X121.922 Y117.130 E0.36673
G1 X121.388 Y117.130 E0.01676
