; generated by Slic3r Prusa Edition 1.41.0+win64 on 2018-11-27 at 22:10:38

; 

; external perimeters extrusion width = 0.45mm
; perimeters extrusion width = 0.45mm
; infill extrusion width = 0.45mm
; solid infill extrusion width = 0.45mm
; top infill extrusion width = 0.40mm
; first layer extrusion width = 0.42mm

M201 X1000 Y1000 Z1000 E5000 ; sets maximum accelerations, mm/sec^2
M203 X200 Y200 Z12 E120 ; sets maximum feedrates, mm/sec
M204 P1250 R1250 T1250 ; sets acceleration (P, T) and retract acceleration (R), mm/sec^2
M205 X8.00 Y8.00 Z0.40 E1.50 ; sets the jerk limits, mm/sec
M205 S0 T0 ; sets the minimum extruding and travel feed rate, mm/sec
M107
M115 U3.4.1 ; tell printer latest fw version
M83  ; extruder relative mode
M104 S215 ; set extruder temp
M140 S60 ; set bed temp
M190 S60 ; wait for bed temp
M109 S215 ; wait for extruder temp
G28 W ; home all without mesh bed level
G80 ; mesh bed leveling
G1 Y-3.0 F1000.0 ; go outside print area
G92 E0.0
G1 X60.0 E9.0  F1000.0 ; intro line
M73 Q0 S51
M73 P0 R51
G1 X100.0 E12.5  F1000.0 ; intro line
G92 E0.0
M221 S95
M900 K30; Filament gcode
G21 ; set units to millimeters
G90 ; use absolute coordinates
M83 ; use relative distances for extrusion
;BEFORE_LAYER_CHANGE
G92 E0.0
;0.2


G1 E-0.80000 F2100.00000
G1 Z0.600 F10800.000
;AFTER_LAYER_CHANGE
;0.2
G1 X110.077 Y89.538
G1 Z0.200
G1 E0.80000 F2100.00000
M204 S1000
G1 F1200
G1 X111.298 Y88.647 E0.04739
G1 X112.675 Y88.024 E0.04739
G1 X114.150 Y87.696 E0.04739
G1 X135.007 Y87.647 E0.65394
G1 X136.273 Y87.758 E0.03986
G1 X137.501 Y88.086 E0.03986
G1 X138.655 Y88.620 E0.03986
G1 X139.699 Y89.345 E0.03986
G1 X140.603 Y90.239 E0.03986
G1 X141.340 Y91.275 E0.03986
G1 X141.886 Y92.422 E0.03986
G1 X142.228 Y93.647 E0.03986
G1 X142.353 Y94.959 E0.04132
G1 X142.344 Y115.368 E0.63992
G1 X142.214 Y116.425 E0.03337
G1 X141.930 Y117.457 E0.03358
G1 X141.503 Y118.432 E0.03337
G1 X140.935 Y119.340 E0.03358
G1 X139.838 Y120.538 E0.05094
G1 X138.503 Y121.465 E0.05094
G1 X136.998 Y122.076 E0.05094
G1 X135.389 Y122.343 E0.05115
G1 X114.585 Y122.341 E0.65230
G1 X113.543 Y122.207 E0.03295
G1 X112.524 Y121.924 E0.03316
G1 X111.556 Y121.497 E0.03316
G1 X110.660 Y120.935 E0.03316
G1 X109.462 Y119.838 E0.05094
G1 X108.535 Y118.503 E0.05094
G1 X107.924 Y116.998 E0.05094
G1 X107.657 Y115.389 E0.05115
G1 X107.659 Y94.585 E0.65230
G1 X107.793 Y93.543 E0.03295
G1 X108.076 Y92.524 E0.03316
G1 X108.503 Y91.556 E0.03316
G1 X109.065 Y90.660 E0.03316
G1 X110.037 Y89.582 E0.04551
G1 X110.317 Y89.839 F10800.000
G1 F1200
G1 X110.363 Y89.788 E0.00214
G1 X111.526 Y88.951 E0.04493
G1 X112.835 Y88.368 E0.04493
G1 X114.236 Y88.066 E0.04493
G1 X135.007 Y88.024 E0.65125
G1 X136.214 Y88.130 E0.03801
G1 X137.385 Y88.444 E0.03801
G1 X138.484 Y88.956 E0.03801
G1 X139.477 Y89.650 E0.03801
G1 X140.336 Y90.506 E0.03801
G1 X141.033 Y91.498 E0.03801
G1 X141.548 Y92.595 E0.03801
G1 X141.866 Y93.765 E0.03801
G1 X141.976 Y94.965 E0.03780
G1 X141.967 Y115.346 E0.63901
G1 X141.842 Y116.361 E0.03209
G1 X141.569 Y117.348 E0.03209
G1 X141.152 Y118.290 E0.03230
G1 X140.604 Y119.154 E0.03209
G1 X139.558 Y120.281 E0.04819
G1 X138.291 Y121.151 E0.04819
G1 X136.865 Y121.722 E0.04819
G1 X135.341 Y121.968 E0.04839
G1 X114.615 Y121.965 E0.64985
G1 X113.607 Y121.835 E0.03189
G1 X112.627 Y121.560 E0.03189
G1 X111.705 Y121.149 E0.03168
G1 X110.846 Y120.604 E0.03189
G1 X109.719 Y119.558 E0.04819
G1 X108.849 Y118.291 E0.04819
G1 X108.278 Y116.865 E0.04819
G1 X108.032 Y115.341 E0.04839
G1 X108.035 Y94.615 E0.64985
G1 X108.165 Y93.607 E0.03189
G1 X108.440 Y92.627 E0.03189
G1 X108.851 Y91.705 E0.03168
G1 X109.396 Y90.846 E0.03189
G1 X110.277 Y89.883 E0.04091
G1 F8640
G1 X110.363 Y89.788 E-0.02963
G1 X111.526 Y88.951 E-0.33089
G1 X112.835 Y88.368 E-0.33089
G1 X113.126 Y88.306 E-0.06860
G1 E-0.04000 F2100.00000
G1 Z0.800 F10800.000
G1 X109.773 Y90.930
G1 Z0.200
G1 E0.80000 F2100.00000
G1 F1200
G1 X111.501 Y89.360 E0.07318
G1 X112.728 Y88.775 E0.04262
G1 X114.380 Y88.401 E0.05312
G1 X135.576 Y88.405 E0.66459
G1 X136.925 Y88.653 E0.04300
G1 X138.207 Y89.184 E0.04350
G1 X139.872 Y90.526 E0.06707
G1 X141.010 Y92.194 E0.06331
G1 X141.572 Y94.168 E0.06434
G1 X141.599 Y115.567 E0.67095
G1 X141.187 Y117.390 E0.05862
G1 X140.227 Y119.070 E0.06068
G1 X138.499 Y120.640 E0.07318
G1 X137.272 Y121.225 E0.04261
G1 X135.621 Y121.599 E0.05310
G1 X114.433 Y121.599 E0.66432
G1 X112.610 Y121.187 E0.05860
G1 X110.930 Y120.227 E0.06068
G1 X109.360 Y118.499 E0.07318
G1 X108.775 Y117.272 E0.04261
G1 X108.401 Y115.621 E0.05310
G1 X108.401 Y94.433 E0.66432
G1 X108.813 Y92.610 E0.05860
G1 X109.743 Y90.982 E0.05880
G1 X110.070 Y91.170 F10800.000
G1 F1200
G1 X111.689 Y89.688 E0.06882
G1 X112.833 Y89.138 E0.03980
G1 X114.401 Y88.778 E0.05045
G1 X135.558 Y88.782 E0.66336
G1 X136.836 Y89.019 E0.04074
G1 X138.036 Y89.521 E0.04077
G1 X139.612 Y90.801 E0.06367
G1 X140.680 Y92.380 E0.05976
G1 X141.202 Y94.244 E0.06071
G1 X141.222 Y115.545 E0.66789
G1 X140.826 Y117.278 E0.05573
G1 X139.915 Y118.856 E0.05713
G1 X138.311 Y120.312 E0.06792
G1 X137.167 Y120.862 E0.03980
G1 X135.599 Y121.222 E0.05044
G1 X114.455 Y121.222 E0.66298
G1 X112.722 Y120.826 E0.05572
G1 X111.144 Y119.915 E0.05713
G1 X109.688 Y118.311 E0.06792
G1 X109.138 Y117.167 E0.03980
G1 X108.778 Y115.599 E0.05044
G1 X108.778 Y94.455 E0.66298
G1 X109.174 Y92.722 E0.05572
G1 X110.040 Y91.222 E0.05431
G1 X110.365 Y91.411 F10800.000
G1 F1200
G1 X110.396 Y91.359 E0.00191
G1 X111.878 Y90.015 E0.06273
G1 X112.940 Y89.500 E0.03700
G1 X114.423 Y89.155 E0.04776
G1 X135.541 Y89.159 E0.66212
G1 X136.746 Y89.386 E0.03846
G1 X137.864 Y89.857 E0.03804
G1 X139.352 Y91.074 E0.06026
G1 X140.349 Y92.563 E0.05620
G1 X140.832 Y94.319 E0.05709
G1 X140.845 Y115.524 E0.66486
G1 X140.465 Y117.165 E0.05281
G1 X139.604 Y118.641 E0.05358
G1 X138.122 Y119.984 E0.06273
G1 X137.060 Y120.500 E0.03699
G1 X135.577 Y120.845 E0.04775
G1 X114.476 Y120.845 E0.66161
G1 X112.835 Y120.465 E0.05281
G1 X111.359 Y119.604 E0.05358
G1 X110.016 Y118.122 E0.06273
G1 X109.500 Y117.060 E0.03699
G1 X109.155 Y115.577 E0.04775
G1 X109.155 Y94.476 E0.66161
G1 X109.535 Y92.835 E0.05281
G1 X110.335 Y91.463 E0.04979
G1 X110.659 Y91.654 F10800.000
G1 F1200
G1 X110.706 Y91.575 E0.00288
G1 X112.068 Y90.342 E0.05762
G1 X113.047 Y89.862 E0.03420
G1 X114.445 Y89.532 E0.04504
G1 X135.523 Y89.536 E0.66088
G1 X136.618 Y89.741 E0.03493
G1 X137.692 Y90.194 E0.03653
G1 X139.090 Y91.347 E0.05681
G1 X140.018 Y92.746 E0.05264
G1 X140.461 Y94.393 E0.05348
G1 X140.468 Y115.502 E0.66186
G1 X140.105 Y117.050 E0.04986
G1 X139.294 Y118.425 E0.05003
G1 X137.932 Y119.658 E0.05762
G1 X136.953 Y120.138 E0.03420
G1 X135.555 Y120.468 E0.04502
G1 X114.498 Y120.468 E0.66022
G1 X112.950 Y120.105 E0.04986
G1 X111.575 Y119.294 E0.05003
G1 X110.342 Y117.932 E0.05762
G1 X109.862 Y116.953 E0.03420
G1 X109.532 Y115.555 E0.04502
G1 X109.532 Y94.498 E0.66022
G1 X109.895 Y92.950 E0.04986
G1 X110.628 Y91.706 E0.04527
G1 F8640
G1 X110.706 Y91.575 E-0.03503
G1 X112.068 Y90.342 E-0.42432
G1 X113.047 Y89.862 E-0.25188
G1 X113.253 Y89.814 E-0.04878
G1 E-0.04000 F2100.00000
G1 Z0.800 F10800.000
G1 X110.255 Y93.066
G1 Z0.200
G1 E0.80000 F2100.00000
G1 F1200
G1 X111.015 Y91.793 E0.04646
G1 X112.259 Y90.668 E0.05259
G1 X113.157 Y90.224 E0.03142
G1 X114.468 Y89.909 E0.04228
G1 X135.505 Y89.913 E0.65960
G1 X136.527 Y90.108 E0.03262
G1 X137.518 Y90.530 E0.03377
G1 X138.826 Y91.618 E0.05336
G1 X139.686 Y92.926 E0.04907
G1 X140.091 Y94.465 E0.04988
G1 X140.091 Y115.479 E0.65890
G1 X139.745 Y116.934 E0.04688
G1 X138.985 Y118.207 E0.04646
G1 X137.741 Y119.332 E0.05259
G1 X136.843 Y119.776 E0.03141
G1 X135.533 Y120.091 E0.04227
G1 X114.521 Y120.091 E0.65882
G1 X113.066 Y119.745 E0.04688
G1 X111.793 Y118.985 E0.04646
G1 X110.668 Y117.741 E0.05259
G1 X110.224 Y116.843 E0.03141
G1 X109.909 Y115.533 E0.04227
G1 X109.909 Y94.521 E0.65882
G1 X110.241 Y93.124 E0.04500
G1 X110.608 Y93.213 F10800.000
G1 F1200
G1 X111.322 Y92.012 E0.04380
G1 X112.451 Y90.994 E0.04766
G1 X113.267 Y90.585 E0.02864
G1 X114.491 Y90.286 E0.03948
G1 X135.487 Y90.290 E0.65831
G1 X136.435 Y90.474 E0.03028
G1 X137.343 Y90.865 E0.03101
G1 X138.562 Y91.888 E0.04990
G1 X139.353 Y93.106 E0.04551
G1 X139.713 Y94.489 E0.04481
G1 X139.713 Y115.457 E0.65745
G1 X139.385 Y116.817 E0.04386
G1 X138.678 Y117.988 E0.04290
G1 X137.549 Y119.006 E0.04766
G1 X136.733 Y119.415 E0.02864
G1 X135.510 Y119.713 E0.03947
G1 X114.543 Y119.713 E0.65739
G1 X113.183 Y119.385 E0.04386
G1 X112.012 Y118.678 E0.04290
G1 X110.994 Y117.549 E0.04766
G1 X110.585 Y116.733 E0.02864
G1 X110.287 Y115.510 E0.03947
G1 X110.287 Y94.543 E0.65739
G1 X110.593 Y93.271 E0.04104
G1 X110.959 Y93.361 F10800.000
G1 F1200
G1 X110.974 Y93.302 E0.00188
G1 X111.629 Y92.233 E0.03933
G1 X112.644 Y91.319 E0.04282
G1 X113.380 Y90.945 E0.02588
G1 X114.514 Y90.664 E0.03665
G1 X135.468 Y90.667 E0.65699
G1 X136.341 Y90.840 E0.02791
G1 X137.166 Y91.199 E0.02823
G1 X138.297 Y92.158 E0.04647
G1 X138.996 Y93.232 E0.04018
G1 X139.336 Y94.513 E0.04157
G1 X139.336 Y115.434 E0.65594
G1 X139.026 Y116.698 E0.04080
G1 X138.371 Y117.767 E0.03933
G1 X137.356 Y118.681 E0.04282
G1 X136.620 Y119.055 E0.02587
G1 X135.486 Y119.336 E0.03664
G1 X114.566 Y119.336 E0.65593
G1 X113.302 Y119.026 E0.04080
G1 X112.233 Y118.371 E0.03933
G1 X111.319 Y117.356 E0.04282
G1 X110.945 Y116.620 E0.02587
G1 X110.664 Y115.486 E0.03664
G1 X110.664 Y94.566 E0.65593
G1 X110.945 Y93.419 E0.03704
G1 X111.303 Y93.506 F10800.000
G1 F1200
G1 X111.904 Y92.493 E0.03692
G1 X112.839 Y91.642 E0.03964
G1 X113.494 Y91.305 E0.02310
G1 X114.538 Y91.041 E0.03377
G1 X135.449 Y91.044 E0.65564
G1 X136.246 Y91.205 E0.02549
G1 X136.988 Y91.533 E0.02545
G1 X138.030 Y92.426 E0.04302
G1 X138.663 Y93.410 E0.03669
G1 X138.959 Y94.538 E0.03655
G1 X138.959 Y115.412 E0.65449
G1 X138.689 Y116.528 E0.03602
G1 X138.096 Y117.507 E0.03588
G1 X137.161 Y118.358 E0.03964
G1 X136.506 Y118.695 E0.02309
M73 Q2 S50
G1 X135.462 Y118.959 E0.03376
G1 X114.588 Y118.959 E0.65448
M73 P2 R50
G1 X113.472 Y118.689 E0.03602
G1 X112.493 Y118.096 E0.03588
G1 X111.642 Y117.161 E0.03964
G1 X111.305 Y116.506 E0.02309
G1 X111.041 Y115.462 E0.03376
G1 X111.041 Y94.588 E0.65448
G1 X111.289 Y93.564 E0.03305
G1 X111.648 Y93.650 F10800.000
G1 F1200
G1 X112.180 Y92.751 E0.03275
G1 X113.036 Y91.964 E0.03647
G1 X113.611 Y91.665 E0.02031
G1 X114.562 Y91.418 E0.03083
G1 X135.429 Y91.421 E0.65425
G1 X136.148 Y91.570 E0.02304
G1 X136.808 Y91.865 E0.02266
G1 X137.762 Y92.692 E0.03960
G1 X138.306 Y93.537 E0.03149
G1 X138.582 Y94.563 E0.03331
G1 X138.582 Y115.390 E0.65301
G1 X138.350 Y116.360 E0.03129
G1 X137.820 Y117.249 E0.03243
G1 X136.964 Y118.036 E0.03647
G1 X136.389 Y118.335 E0.02031
G1 X135.438 Y118.582 E0.03082
G1 X114.610 Y118.582 E0.65303
G1 X113.640 Y118.350 E0.03129
G1 X112.751 Y117.820 E0.03243
G1 X111.964 Y116.964 E0.03647
G1 X111.665 Y116.389 E0.02031
G1 X111.418 Y115.438 E0.03082
G1 X111.418 Y94.610 E0.65303
G1 X111.634 Y93.708 E0.02908
G1 X111.990 Y93.805 F10800.000
G1 F1200
G1 X112.457 Y93.008 E0.02898
G1 X113.236 Y92.285 E0.03330
G1 X113.730 Y92.023 E0.01753
G1 X114.588 Y91.795 E0.02784
G1 X135.410 Y91.798 E0.65287
G1 X136.013 Y91.923 E0.01932
G1 X136.628 Y92.197 E0.02110
G1 X137.492 Y92.957 E0.03609
G1 X137.972 Y93.714 E0.02809
G1 X138.205 Y94.587 E0.02835
G1 X138.205 Y115.368 E0.65157
G1 X138.010 Y116.195 E0.02664
G1 X137.543 Y116.992 E0.02898
G1 X136.764 Y117.715 E0.03330
G1 X136.271 Y117.977 E0.01752
G1 X135.413 Y118.205 E0.02783
G1 X114.632 Y118.205 E0.65157
G1 X113.805 Y118.010 E0.02664
G1 X113.008 Y117.543 E0.02898
G1 X112.285 Y116.764 E0.03330
G1 X112.023 Y116.271 E0.01752
G1 X111.795 Y115.413 E0.02783
G1 X111.795 Y94.632 E0.65157
G1 X111.976 Y93.864 E0.02476
G1 X112.331 Y93.968 F10800.000
G1 F1200
G1 X112.737 Y93.263 E0.02551
G1 X113.438 Y92.604 E0.03015
G1 X113.851 Y92.380 E0.01474
G1 X114.613 Y92.172 E0.02477
G1 X135.389 Y92.176 E0.65142
G1 X135.914 Y92.287 E0.01681
G1 X136.445 Y92.528 E0.01829
G1 X137.222 Y93.221 E0.03263
G1 X137.616 Y93.841 E0.02306
G1 X137.828 Y94.613 E0.02510
G1 X137.828 Y115.347 E0.65009
G1 X137.669 Y116.032 E0.02206
G1 X137.263 Y116.737 E0.02551
G1 X136.562 Y117.396 E0.03015
G1 X136.149 Y117.620 E0.01474
G1 X135.387 Y117.828 E0.02477
G1 X114.653 Y117.828 E0.65009
G1 X113.968 Y117.669 E0.02206
G1 X113.263 Y117.263 E0.02551
G1 X112.604 Y116.562 E0.03015
G1 X112.380 Y116.149 E0.01474
G1 X112.172 Y115.387 E0.02477
G1 X112.172 Y94.653 E0.65009
G1 X112.318 Y94.026 E0.02018
G1 X112.674 Y94.128 F10800.000
G1 F1200
G1 X113.018 Y93.515 E0.02203
G1 X113.643 Y92.922 E0.02703
G1 X113.976 Y92.737 E0.01196
G1 X114.640 Y92.549 E0.02163
G1 X135.368 Y92.553 E0.64991
G1 X135.811 Y92.650 E0.01423
G1 X136.259 Y92.858 E0.01548
G1 X136.950 Y93.483 E0.02920
G1 X137.262 Y93.971 E0.01818
G1 X137.451 Y94.640 E0.02179
G1 X137.451 Y115.326 E0.64859
G1 X137.326 Y115.872 E0.01756
G1 X136.982 Y116.485 E0.02203
G1 X136.357 Y117.078 E0.02703
G1 X136.024 Y117.263 E0.01196
G1 X135.360 Y117.451 E0.02162
G1 X114.674 Y117.451 E0.64859
G1 X114.128 Y117.326 E0.01756
G1 X113.515 Y116.982 E0.02203
G1 X112.922 Y116.357 E0.02703
G1 X112.737 Y116.024 E0.01196
G1 X112.549 Y115.360 E0.02162
G1 X112.549 Y94.674 E0.64859
G1 X112.660 Y94.186 E0.01568
G1 X113.301 Y93.766 F10800.000
G1 F1200
G1 X113.851 Y93.237 E0.02393
G1 X114.106 Y93.091 E0.00919
G1 X114.668 Y92.926 E0.01838
G1 X135.346 Y92.930 E0.64833
G1 X135.705 Y93.013 E0.01157
G1 X136.071 Y93.185 E0.01268
G1 X136.676 Y93.743 E0.02580
G1 X136.908 Y94.105 E0.01347
G1 X137.074 Y94.668 E0.01841
G1 X137.074 Y115.306 E0.64708
G1 X136.982 Y115.716 E0.01318
G1 X136.699 Y116.234 E0.01852
G1 X136.149 Y116.763 E0.02393
G1 X135.894 Y116.909 E0.00919
G1 X135.332 Y117.074 E0.01838
G1 X114.694 Y117.074 E0.64708
G1 X114.284 Y116.982 E0.01318
G1 X113.766 Y116.699 E0.01852
G1 X113.237 Y116.149 E0.02393
G1 X113.091 Y115.894 E0.00919
G1 X112.926 Y115.332 E0.01838
G1 X112.926 Y94.694 E0.64708
G1 X113.018 Y94.284 E0.01318
G1 X113.272 Y93.819 E0.01664
G1 X113.587 Y94.014 F10800.000
G1 F1200
G1 X114.064 Y93.548 E0.02089
G1 X114.241 Y93.444 E0.00643
G1 X114.698 Y93.303 E0.01500
G1 X135.324 Y93.307 E0.64672
G1 X135.562 Y93.362 E0.00767
G1 X135.882 Y93.513 E0.01109
G1 X136.401 Y94.001 E0.02233
G1 X136.556 Y94.242 E0.00898
G1 X136.697 Y94.698 E0.01495
G1 X136.697 Y115.286 E0.64554
G1 X136.636 Y115.564 E0.00892
G1 X136.413 Y115.986 E0.01497
G1 X135.936 Y116.452 E0.02089
G1 X135.759 Y116.556 E0.00643
G1 X135.302 Y116.697 E0.01500
G1 X114.714 Y116.697 E0.64554
G1 X114.436 Y116.636 E0.00892
G1 X114.014 Y116.413 E0.01497
G1 X113.548 Y115.936 E0.02089
G1 X113.444 Y115.759 E0.00643
G1 X113.303 Y115.302 E0.01500
G1 X113.303 Y94.714 E0.64554
G1 X113.364 Y94.436 E0.00892
G1 X113.559 Y94.067 E0.01309
G1 X113.712 Y94.582 F10800.000
G1 F1200
G1 X113.875 Y94.259 E0.01134
G1 X114.282 Y93.856 E0.01795
G1 X114.383 Y93.794 E0.00371
G1 X114.729 Y93.680 E0.01144
G1 X135.302 Y93.684 E0.64504
G1 X135.419 Y93.711 E0.00377
G1 X135.692 Y93.840 E0.00947
G1 X136.123 Y94.257 E0.01880
G1 X136.207 Y94.385 E0.00479
G1 X136.320 Y94.729 E0.01136
G1 X136.320 Y115.267 E0.64395
G1 X136.288 Y115.418 E0.00484
G1 X136.125 Y115.741 E0.01134
G1 X135.718 Y116.144 E0.01795
G1 X135.617 Y116.206 E0.00371
G1 X135.271 Y116.320 E0.01144
G1 X114.733 Y116.320 E0.64395
G1 X114.582 Y116.288 E0.00484
G1 X114.259 Y116.125 E0.01134
G1 X113.856 Y115.718 E0.01795
G1 X113.794 Y115.617 E0.00371
G1 X113.680 Y115.271 E0.01144
G1 X113.680 Y94.733 E0.64395
G1 X113.700 Y94.640 E0.00296
G1 X114.064 Y94.718 F10800.000
G1 F1200
G1 X114.167 Y94.500 E0.00757
G1 X114.510 Y94.157 E0.01522
G1 X114.764 Y94.057 E0.00856
G1 X135.250 Y94.057 E0.64230
G1 X135.500 Y94.167 E0.00856
G1 X135.843 Y94.510 E0.01522
G1 X135.943 Y94.764 E0.00856
G1 X135.943 Y115.250 E0.64230
G1 X135.833 Y115.500 E0.00856
G1 X135.490 Y115.843 E0.01522
G1 X135.236 Y115.943 E0.00856
G1 X114.750 Y115.943 E0.64230
G1 X114.500 Y115.833 E0.00856
G1 X114.157 Y115.490 E0.01522
G1 X114.057 Y115.236 E0.00856
G1 X114.057 Y94.778 E0.64144
G1 X114.463 Y94.737 F10800.000
G1 F1200
G1 X114.737 Y94.463 E0.01215
G1 X114.806 Y94.434 E0.00235
