; generated by Slic3r Prusa Edition 1.41.0+win64 on 2019-02-11 at 10:11:31

; 

; external perimeters extrusion width = 0.45mm
; perimeters extrusion width = 0.45mm
; infill extrusion width = 0.45mm
; solid infill extrusion width = 0.45mm
; top infill extrusion width = 0.40mm
; first layer extrusion width = 0.42mm

M201 X1000 Y1000 Z1000 E8000 ; sets maximum accelerations, mm/sec^2
M203 X200 Y200 Z12 E120 ; sets maximum feedrates, mm/sec
M204 P1250 R1250 T1250 ; sets acceleration (P, T) and retract acceleration (R), mm/sec^2
M205 X8.00 Y8.00 Z0.40 E1.50 ; sets the jerk limits, mm/sec
M205 S0 T0 ; sets the minimum extruding and travel feed rate, mm/sec
M107
M107
M115 U3.4.1 ; tell printer latest fw version
M83  ; extruder relative mode
M104 S215 ; set extruder temp
M140 S60 ; set bed temp
M190 S60 ; wait for bed temp
M109 S215 ; wait for extruder temp
G28 W ; home all without mesh bed level
G80 ; mesh bed leveling
G21 ; set units to millimeters

; Send the filament type to the MMU2.0 unit.
; E stands for extruder number, F stands for filament type (0: default; 1:flex; 2: PVA)
M403 E0 F0
M403 E1 F0
M403 E2 F0
M403 E3 F0
M403 E4 F0


;go outside print area
G1 Y-3.0 F1000.0
G1 Z0.4 F1000.0
; select extruder
T0
; initial load
G1 X55.0 E32.0 F1073.0
M73 Q2 S17
M73 P2 R17
G1 X5.0 E32.0 F1800.0
G1 X55.0 E8.0 F2000.0
G1 Z0.3 F1000.0
G92 E0.0
G1 X240.0 E25.0  F2200.0
G1 Y-2.0 F1000.0
G1 X55.0 E25 F1400.0
G1 Z0.20 F1000.0
G1 X5.0 E4.0 F1000.0
G92 E0.0


M221 S95
G90 ; use absolute coordinates
M83 ; use relative distances for extrusion
G92 E0.0
M900 K30; Filament gcode
G21 ; set units to millimeters
G90 ; use absolute coordinates
M83 ; use relative distances for extrusion
;BEFORE_LAYER_CHANGE
G92 E0.0
;0.2


G1 E-0.80000 F2100.00000
G1 Z0.600 F10800.000
;AFTER_LAYER_CHANGE
;0.2
G1 X103.336 Y83.915
G1 Z0.200
G1 E0.80000 F2100.00000
M204 S1000
G1 F1200
G1 X103.980 Y83.812 E0.02044
G1 X146.004 Y83.811 E1.31764
G1 X146.820 Y83.971 E0.02608
G1 X147.518 Y84.424 E0.02608
G1 X147.997 Y85.104 E0.02608
G1 X148.187 Y85.914 E0.02608
G1 X148.187 Y113.069 E0.85145
G1 X148.113 Y113.571 E0.01589
G1 X147.923 Y114.045 E0.01601
G1 X147.631 Y114.459 E0.01589
G1 X147.249 Y114.797 E0.01601
G1 X130.843 Y126.020 E0.62324
G1 X130.035 Y126.188 E0.02586
G1 X119.974 Y126.188 E0.31545
G1 X119.352 Y126.090 E0.01976
G1 X118.780 Y125.817 E0.01987
G1 X102.748 Y114.795 E0.61001
G1 X102.203 Y114.250 E0.02417
G1 X101.916 Y113.669 E0.02032
G1 X101.812 Y113.033 E0.02021
G1 X101.812 Y85.960 E0.84885
G1 X101.883 Y85.447 E0.01623
G1 X102.070 Y84.968 E0.01612
G1 X102.366 Y84.544 E0.01623
G1 X102.751 Y84.203 E0.01612
G1 X103.282 Y83.941 E0.01855
; PURGING FINISHED
G1 F8640
G1 X103.980 Y83.812 E-0.16379
G1 X106.562 Y83.812 E-0.59621
G1 E-0.04000 F2100.00000
G1 Z0.800 F10800.000
G1 X120.587 Y97.587
G1 Z0.200
G1 E0.80000 F2100.00000
G1 F1200
G1 X129.413 Y97.587 E0.27673
G1 X129.413 Y101.413 E0.11996
G1 X120.587 Y101.413 E0.27673
G1 X120.587 Y97.647 E0.11808
G1 X120.210 Y97.210 F10800.000
G1 F1200
G1 X129.790 Y97.210 E0.30037
G1 X129.790 Y101.790 E0.14360
G1 X120.210 Y101.790 E0.30037
G1 X120.210 Y97.270 E0.14172
G1 X120.606 Y97.269 F10800.000
G1 F8640
G1 X123.501 Y97.249 E-0.76000
G1 E-0.04000 F2100.00000
G1 Z0.800 F10800.000
G1 X120.700 Y100.537
G1 Z0.200
G1 E0.80000 F2100.00000
G1 F1200
G1 X121.293 Y101.130 E0.02632
G1 X121.827 Y101.130 E0.01675
G1 X120.870 Y100.173 E0.04247
G1 X120.870 Y99.639 E0.01675
G1 X122.361 Y101.130 E0.06615
G1 X122.894 Y101.130 E0.01675
G1 X120.870 Y99.106 E0.08984
G1 X120.870 Y98.572 E0.01675
G1 X123.428 Y101.130 E0.11352
G1 X123.962 Y101.130 E0.01675
G1 X120.870 Y98.038 E0.13720
G1 X120.870 Y97.870 E0.00529
G1 X121.235 Y97.870 E0.01146
G1 X124.495 Y101.130 E0.14468
G1 X125.029 Y101.130 E0.01675
G1 X121.769 Y97.870 E0.14468
G1 X122.302 Y97.870 E0.01675
G1 X125.563 Y101.130 E0.14468
G1 X126.096 Y101.130 E0.01675
G1 X122.836 Y97.870 E0.14468
G1 X123.370 Y97.870 E0.01675
G1 X126.630 Y101.130 E0.14468
G1 X127.164 Y101.130 E0.01675
G1 X123.903 Y97.870 E0.14468
G1 X124.437 Y97.870 E0.01675
G1 X127.697 Y101.130 E0.14468
G1 X128.231 Y101.130 E0.01675
G1 X124.971 Y97.870 E0.14468
G1 X125.505 Y97.870 E0.01675
G1 X128.765 Y101.130 E0.14468
G1 X129.130 Y101.130 E0.01146
G1 X129.130 Y100.962 E0.00528
G1 X126.038 Y97.870 E0.13721
G1 X126.572 Y97.870 E0.01675
G1 X129.130 Y100.428 E0.11352
G1 X129.130 Y99.894 E0.01675
G1 X127.106 Y97.870 E0.08984
G1 X127.639 Y97.870 E0.01675
G1 X129.130 Y99.361 E0.06616
G1 X129.130 Y98.827 E0.01675
G1 X128.173 Y97.870 E0.04248
G1 X128.707 Y97.870 E0.01675
G1 X129.300 Y98.463 E0.02632
G1 F8640
G1 X128.707 Y97.870 E-0.19371
G1 X128.173 Y97.870 E-0.12323
G1 X129.130 Y98.827 E-0.31257
G1 X129.130 Y99.361 E-0.12323
G1 X129.108 Y99.338 E-0.00727
G1 E-0.04000 F2100.00000
G1 Z0.800 F10800.000
G1 X129.300 Y108.587
G1 Z0.200
G1 E0.80000 F2100.00000
G1 F1200
G1 X129.413 Y108.587 E0.00355
G1 X129.413 Y112.413 E0.11996
G1 X120.587 Y112.413 E0.27673
G1 X120.587 Y108.587 E0.11996
G1 X129.240 Y108.587 E0.27130
G1 X129.790 Y108.210 F10800.000
G1 F1200
G1 X129.790 Y112.790 E0.14360
G1 X120.210 Y112.790 E0.30037
G1 X120.210 Y108.210 E0.14360
G1 X129.730 Y108.210 E0.29849
G1 X129.644 Y108.582 F10800.000
G1 F8640
G1 X129.773 Y111.501 E-0.76000
G1 E-0.04000 F2100.00000
G1 Z0.800 F10800.000
G1 X129.300 Y109.463
G1 Z0.200
G1 E0.80000 F2100.00000
G1 F1200
G1 X128.707 Y108.870 E0.02632
G1 X128.173 Y108.870 E0.01675
G1 X129.130 Y109.827 E0.04248
G1 X129.130 Y110.361 E0.01675
G1 X127.639 Y108.870 E0.06616
G1 X127.106 Y108.870 E0.01675
G1 X129.130 Y110.894 E0.08984
G1 X129.130 Y111.428 E0.01675
G1 X126.572 Y108.870 E0.11352
G1 X126.038 Y108.870 E0.01675
G1 X129.130 Y111.962 E0.13721
G1 X129.130 Y112.130 E0.00528
G1 X128.765 Y112.130 E0.01146
G1 X125.505 Y108.870 E0.14468
G1 X124.971 Y108.870 E0.01675
G1 X128.231 Y112.130 E0.14468
G1 X127.697 Y112.130 E0.01675
G1 X124.437 Y108.870 E0.14468
G1 X123.903 Y108.870 E0.01675
G1 X127.164 Y112.130 E0.14468
G1 X126.630 Y112.130 E0.01675
G1 X123.370 Y108.870 E0.14468
G1 X122.836 Y108.870 E0.01675
G1 X126.096 Y112.130 E0.14468
G1 X125.563 Y112.130 E0.01675
G1 X122.302 Y108.870 E0.14468
G1 X121.769 Y108.870 E0.01675
G1 X125.029 Y112.130 E0.14468
G1 X124.495 Y112.130 E0.01675
G1 X121.235 Y108.870 E0.14468
G1 X120.870 Y108.870 E0.01146
G1 X120.870 Y109.038 E0.00529
G1 X123.962 Y112.130 E0.13720
G1 X123.428 Y112.130 E0.01675
G1 X120.870 Y109.572 E0.11352
G1 X120.870 Y110.106 E0.01675
G1 X122.894 Y112.130 E0.08984
G1 X122.361 Y112.130 E0.01675
G1 X120.870 Y110.639 E0.06615
G1 X120.870 Y111.173 E0.01675
G1 X121.827 Y112.130 E0.04247
G1 X121.293 Y112.130 E0.01675
G1 X120.700 Y111.537 E0.02632
G1 F8640
G1 X121.293 Y112.130 E-0.19367
G1 X121.827 Y112.130 E-0.12323
G1 X120.870 Y111.173 E-0.31253
G1 X120.870 Y110.639 E-0.12323
G1 X120.892 Y110.662 E-0.00735
G1 E-0.04000 F2100.00000
G1 Z0.800 F10800.000
G1 X120.700 Y119.587
G1 Z0.200
G1 E0.80000 F2100.00000
G1 F1200
G1 X129.413 Y119.587 E0.27318
G1 X129.413 Y123.413 E0.11996
G1 X120.587 Y123.413 E0.27673
G1 X120.587 Y119.587 E0.11996
G1 X120.640 Y119.587 E0.00166
G1 X120.210 Y119.210 F10800.000
G1 F1200
G1 X129.790 Y119.210 E0.30037
G1 X129.790 Y123.790 E0.14360
G1 X120.210 Y123.790 E0.30037
G1 X120.210 Y119.270 E0.14172
G1 X120.606 Y119.269 F10800.000
G1 F8640
G1 X123.501 Y119.249 E-0.76000
G1 E-0.04000 F2100.00000
G1 Z0.800 F10800.000
G1 X120.700 Y122.537
G1 Z0.200
G1 E0.80000 F2100.00000
G1 F1200
G1 X121.293 Y123.130 E0.02632
G1 X121.827 Y123.130 E0.01675
G1 X120.870 Y122.173 E0.04247
G1 X120.870 Y121.639 E0.01675
G1 X122.361 Y123.130 E0.06615
G1 X122.894 Y123.130 E0.01675
G1 X120.870 Y121.106 E0.08984
G1 X120.870 Y120.572 E0.01675
G1 X123.428 Y123.130 E0.11352
G1 X123.962 Y123.130 E0.01675
G1 X120.870 Y120.038 E0.13720
G1 X120.870 Y119.870 E0.00529
G1 X121.235 Y119.870 E0.01146
G1 X124.495 Y123.130 E0.14468
G1 X125.029 Y123.130 E0.01675
G1 X121.769 Y119.870 E0.14468
G1 X122.302 Y119.870 E0.01675
G1 X125.563 Y123.130 E0.14468
G1 X126.096 Y123.130 E0.01675
G1 X122.836 Y119.870 E0.14468
G1 X123.370 Y119.870 E0.01675
G1 X126.630 Y123.130 E0.14468
G1 X127.164 Y123.130 E0.01675
G1 X123.903 Y119.870 E0.14468
G1 X124.437 Y119.870 E0.01675
G1 X127.697 Y123.130 E0.14468
G1 X128.231 Y123.130 E0.01675
G1 X124.971 Y119.870 E0.14468
G1 X125.505 Y119.870 E0.01675
G1 X128.765 Y123.130 E0.14468
G1 X129.130 Y123.130 E0.01146
G1 X129.130 Y122.962 E0.00528
G1 X126.038 Y119.870 E0.13721
G1 X126.572 Y119.870 E0.01675
G1 X129.130 Y122.428 E0.11352
G1 X129.130 Y121.894 E0.01675
G1 X127.106 Y119.870 E0.08984
G1 X127.639 Y119.870 E0.01675
G1 X129.130 Y121.361 E0.06616
G1 X129.130 Y120.827 E0.01675
G1 X128.173 Y119.870 E0.04248
G1 X128.707 Y119.870 E0.01675
G1 X129.300 Y120.463 E0.02632
G1 F8640
G1 X128.707 Y119.870 E-0.19371
G1 X128.173 Y119.870 E-0.12323
G1 X129.130 Y120.827 E-0.31257
G1 X129.130 Y121.361 E-0.12323
G1 X129.108 Y121.338 E-0.00727
G1 E-0.04000 F2100.00000
G1 Z0.800 F10800.000
G1 X113.413 Y112.413
G1 Z0.200
G1 E0.80000 F2100.00000
G1 F1200
G1 X104.587 Y112.413 E0.27673
G1 X104.587 Y108.587 E0.11996
G1 X113.413 Y108.587 E0.27673
G1 X113.413 Y112.353 E0.11808
G1 X113.790 Y112.790 F10800.000
G1 F1200
G1 X104.210 Y112.790 E0.30037
G1 X104.210 Y108.210 E0.14360
G1 X113.790 Y108.210 E0.30037
G1 X113.790 Y112.730 E0.14172
G1 X113.394 Y112.731 F10800.000
G1 F8640
G1 X110.499 Y112.751 E-0.76000
G1 E-0.04000 F2100.00000
G1 Z0.800 F10800.000
G1 X113.300 Y109.463
G1 Z0.200
G1 E0.80000 F2100.00000
G1 F1200
G1 X112.707 Y108.870 E0.02632
G1 X112.173 Y108.870 E0.01675
G1 X113.130 Y109.827 E0.04248
G1 X113.130 Y110.361 E0.01675
G1 X111.639 Y108.870 E0.06616
G1 X111.106 Y108.870 E0.01675
G1 X113.130 Y110.894 E0.08984
G1 X113.130 Y111.428 E0.01675
G1 X110.572 Y108.870 E0.11352
G1 X110.038 Y108.870 E0.01675
G1 X113.130 Y111.962 E0.13721
G1 X113.130 Y112.130 E0.00528
G1 X112.765 Y112.130 E0.01146
G1 X109.505 Y108.870 E0.14468
G1 X108.971 Y108.870 E0.01675
G1 X112.231 Y112.130 E0.14468
G1 X111.697 Y112.130 E0.01675
G1 X108.437 Y108.870 E0.14468
G1 X107.903 Y108.870 E0.01675
G1 X111.164 Y112.130 E0.14468
G1 X110.630 Y112.130 E0.01675
G1 X107.370 Y108.870 E0.14468
G1 X106.836 Y108.870 E0.01675
G1 X110.096 Y112.130 E0.14468
G1 X109.563 Y112.130 E0.01675
G1 X106.302 Y108.870 E0.14468
G1 X105.769 Y108.870 E0.01675
G1 X109.029 Y112.130 E0.14468
G1 X108.495 Y112.130 E0.01675
G1 X105.235 Y108.870 E0.14468
M73 Q8 S16
G1 X104.870 Y108.870 E0.01146
G1 X104.870 Y109.038 E0.00529
G1 X107.962 Y112.130 E0.13720
M73 P8 R16
G1 X107.428 Y112.130 E0.01675
G1 X104.870 Y109.572 E0.11352
G1 X104.870 Y110.106 E0.01675
G1 X106.894 Y112.130 E0.08984
G1 X106.361 Y112.130 E0.01675
G1 X104.870 Y110.639 E0.06615
G1 X104.870 Y111.173 E0.01675
G1 X105.827 Y112.130 E0.04247
G1 X105.293 Y112.130 E0.01675
G1 X104.700 Y111.537 E0.02632
G1 F8640
G1 X105.293 Y112.130 E-0.19367
G1 X105.827 Y112.130 E-0.12323
G1 X104.870 Y111.173 E-0.31253
G1 X104.870 Y110.639 E-0.12323
G1 X104.892 Y110.662 E-0.00735
G1 E-0.04000 F2100.00000
G1 Z0.800 F10800.000
G1 X104.700 Y101.413
G1 Z0.200
G1 E0.80000 F2100.00000
G1 F1200
G1 X104.587 Y101.413 E0.00355
G1 X104.587 Y97.587 E0.11996
G1 X113.413 Y97.587 E0.27673
G1 X113.413 Y101.413 E0.11996
G1 X104.760 Y101.413 E0.27130
G1 X104.210 Y101.790 F10800.000
G1 F1200
G1 X104.210 Y97.210 E0.14360
G1 X113.790 Y97.210 E0.30037
G1 X113.790 Y101.790 E0.14360
G1 X104.270 Y101.790 E0.29849
G1 X104.356 Y101.418 F10800.000
G1 F8640
G1 X104.227 Y98.499 E-0.76000
G1 E-0.04000 F2100.00000
G1 Z0.800 F10800.000
G1 X104.700 Y100.537
G1 Z0.200
G1 E0.80000 F2100.00000
G1 F1200
G1 X105.293 Y101.130 E0.02632
G1 X105.827 Y101.130 E0.01675
G1 X104.870 Y100.173 E0.04247
G1 X104.870 Y99.639 E0.01675
G1 X106.361 Y101.130 E0.06615
G1 X106.894 Y101.130 E0.01675
G1 X104.870 Y99.106 E0.08984
G1 X104.870 Y98.572 E0.01675
G1 X107.428 Y101.130 E0.11352
G1 X107.962 Y101.130 E0.01675
G1 X104.870 Y98.038 E0.13720
G1 X104.870 Y97.870 E0.00529
G1 X105.235 Y97.870 E0.01146
G1 X108.495 Y101.130 E0.14468
G1 X109.029 Y101.130 E0.01675
G1 X105.769 Y97.870 E0.14468
G1 X106.302 Y97.870 E0.01675
G1 X109.563 Y101.130 E0.14468
G1 X110.096 Y101.130 E0.01675
G1 X106.836 Y97.870 E0.14468
G1 X107.370 Y97.870 E0.01675
G1 X110.630 Y101.130 E0.14468
G1 X111.164 Y101.130 E0.01675
G1 X107.903 Y97.870 E0.14468
G1 X108.437 Y97.870 E0.01675
G1 X111.697 Y101.130 E0.14468
G1 X112.231 Y101.130 E0.01675
G1 X108.971 Y97.870 E0.14468
G1 X109.505 Y97.870 E0.01675
G1 X112.765 Y101.130 E0.14468
G1 X113.130 Y101.130 E0.01146
G1 X113.130 Y100.962 E0.00528
G1 X110.038 Y97.870 E0.13721
G1 X110.572 Y97.870 E0.01675
G1 X113.130 Y100.428 E0.11352
G1 X113.130 Y99.894 E0.01675
G1 X111.106 Y97.870 E0.08984
G1 X111.639 Y97.870 E0.01675
G1 X113.130 Y99.361 E0.06616
G1 X113.130 Y98.827 E0.01675
G1 X112.173 Y97.870 E0.04248
G1 X112.707 Y97.870 E0.01675
G1 X113.300 Y98.463 E0.02632
G1 F8640
G1 X112.707 Y97.870 E-0.19371
G1 X112.173 Y97.870 E-0.12323
G1 X113.130 Y98.827 E-0.31257
G1 X113.130 Y99.361 E-0.12323
G1 X113.108 Y99.338 E-0.00727
G1 E-0.04000 F2100.00000
G1 Z0.800 F10800.000
G1 X113.300 Y90.413
G1 Z0.200
G1 E0.80000 F2100.00000
G1 F1200
G1 X104.587 Y90.413 E0.27318
G1 X104.587 Y86.587 E0.11996
G1 X113.413 Y86.587 E0.27673
G1 X113.413 Y90.413 E0.11996
G1 X113.360 Y90.413 E0.00167
G1 X113.790 Y90.790 F10800.000
G1 F1200
G1 X104.210 Y90.790 E0.30037
G1 X104.210 Y86.210 E0.14360
G1 X113.790 Y86.210 E0.30037
G1 X113.790 Y90.730 E0.14172
G1 X113.394 Y90.731 F10800.000
G1 F8640
G1 X110.499 Y90.751 E-0.76000
G1 E-0.04000 F2100.00000
G1 Z0.800 F10800.000
G1 X113.300 Y87.463
G1 Z0.200
G1 E0.80000 F2100.00000
G1 F1200
G1 X112.707 Y86.870 E0.02632
G1 X112.173 Y86.870 E0.01675
G1 X113.130 Y87.827 E0.04248
G1 X113.130 Y88.361 E0.01675
G1 X111.639 Y86.870 E0.06616
G1 X111.106 Y86.870 E0.01675
G1 X113.130 Y88.894 E0.08984
G1 X113.130 Y89.428 E0.01675
G1 X110.572 Y86.870 E0.11352
G1 X110.038 Y86.870 E0.01675
G1 X113.130 Y89.962 E0.13721
G1 X113.130 Y90.130 E0.00528
G1 X112.765 Y90.130 E0.01146
G1 X109.505 Y86.870 E0.14468
G1 X108.971 Y86.870 E0.01675
G1 X112.231 Y90.130 E0.14468
G1 X111.697 Y90.130 E0.01675
G1 X108.437 Y86.870 E0.14468
G1 X107.903 Y86.870 E0.01675
G1 X111.164 Y90.130 E0.14468
G1 X110.630 Y90.130 E0.01675
G1 X107.370 Y86.870 E0.14468
G1 X106.836 Y86.870 E0.01675
G1 X110.096 Y90.130 E0.14468
G1 X109.563 Y90.130 E0.01675
G1 X106.302 Y86.870 E0.14468
G1 X105.769 Y86.870 E0.01675
G1 X109.029 Y90.130 E0.14468
G1 X108.495 Y90.130 E0.01675
G1 X105.235 Y86.870 E0.14468
G1 X104.870 Y86.870 E0.01146
G1 X104.870 Y87.038 E0.00529
G1 X107.962 Y90.130 E0.13720
G1 X107.428 Y90.130 E0.01675
G1 X104.870 Y87.572 E0.11352
G1 X104.870 Y88.106 E0.01675
G1 X106.894 Y90.130 E0.08984
G1 X106.361 Y90.130 E0.01675
G1 X104.870 Y88.639 E0.06615
G1 X104.870 Y89.173 E0.01675
G1 X105.827 Y90.130 E0.04247
G1 X105.293 Y90.130 E0.01675
G1 X104.700 Y89.537 E0.02632
G1 F8640
G1 X105.293 Y90.130 E-0.19367
G1 X105.827 Y90.130 E-0.12323
G1 X104.870 Y89.173 E-0.31253
G1 X104.870 Y88.639 E-0.12323
G1 X104.892 Y88.662 E-0.00735
G1 E-0.04000 F2100.00000
G1 Z0.800 F10800.000
G1 X120.587 Y90.413
G1 Z0.200
G1 E0.80000 F2100.00000
G1 F1200
G1 X120.587 Y86.587 E0.11996
G1 X129.413 Y86.587 E0.27673
G1 X129.413 Y90.413 E0.11996
G1 X120.647 Y90.413 E0.27485
G1 X120.210 Y90.790 F10800.000
G1 F1200
G1 X120.210 Y86.210 E0.14360
G1 X129.790 Y86.210 E0.30037
G1 X129.790 Y90.790 E0.14360
G1 X120.270 Y90.790 E0.29849
G1 X120.356 Y90.418 F10800.000
G1 F8640
G1 X120.227 Y87.499 E-0.76000
G1 E-0.04000 F2100.00000
G1 Z0.800 F10800.000
G1 X120.700 Y89.537
G1 Z0.200
G1 E0.80000 F2100.00000
G1 F1200
G1 X121.293 Y90.130 E0.02632
G1 X121.827 Y90.130 E0.01675
G1 X120.870 Y89.173 E0.04247
G1 X120.870 Y88.639 E0.01675
G1 X122.361 Y90.130 E0.06615
G1 X122.894 Y90.130 E0.01675
G1 X120.870 Y88.106 E0.08984
G1 X120.870 Y87.572 E0.01675
G1 X123.428 Y90.130 E0.11352
G1 X123.962 Y90.130 E0.01675
G1 X120.870 Y87.038 E0.13720
G1 X120.870 Y86.870 E0.00529
G1 X121.235 Y86.870 E0.01146
G1 X124.495 Y90.130 E0.14468
G1 X125.029 Y90.130 E0.01675
G1 X121.769 Y86.870 E0.14468
G1 X122.302 Y86.870 E0.01675
G1 X125.563 Y90.130 E0.14468
