; generated by Slic3r Prusa Edition 1.41.0+win64 on 2019-04-02 at 15:19:25

; 

; external perimeters extrusion width = 0.45mm
; perimeters extrusion width = 0.45mm
; infill extrusion width = 0.45mm
; solid infill extrusion width = 0.45mm
; top infill extrusion width = 0.40mm
; first layer extrusion width = 0.42mm

; external perimeters extrusion width = 0.45mm
; perimeters extrusion width = 0.45mm
; infill extrusion width = 0.45mm
; solid infill extrusion width = 0.45mm
; top infill extrusion width = 0.40mm
; first layer extrusion width = 0.42mm

M201 X1000 Y1000 Z1000 E8000 ; sets maximum accelerations, mm/sec^2
M203 X200 Y200 Z12 E120 ; sets maximum feedrates, mm/sec
M204 P1250 R1250 T1250 ; sets acceleration (P, T) and retract acceleration (R), mm/sec^2
M205 X8.00 Y8.00 Z0.40 E1.50 ; sets the jerk limits, mm/sec
M205 S0 T0 ; sets the minimum extruding and travel feed rate, mm/sec
M107
M107
M115 U3.4.1 ; tell printer latest fw version
M83  ; extruder relative mode
M104 S215 ; set extruder temp
M140 S60 ; set bed temp
M190 S60 ; wait for bed temp
M109 S215 ; wait for extruder temp
G28 W ; home all without mesh bed level
G80 ; mesh bed leveling
G21 ; set units to millimeters

; Send the filament type to the MMU2.0 unit.
; E stands for extruder number, F stands for filament type (0: default; 1:flex; 2: PVA)
M403 E0 F0
M403 E1 F0
M403 E2 F0
M403 E3 F0
M403 E4 F0


;go outside print area
G1 Y-3.0 F1000.0
G1 Z0.4 F1000.0
; select extruder
T0
; initial load
G1 X55.0 E32.0 F1073.0
M73 Q0 S53
M73 P0 R52
G1 X5.0 E32.0 F1800.0
G1 X55.0 E8.0 F2000.0
G1 Z0.3 F1000.0
G92 E0.0
G1 X240.0 E25.0  F2200.0
G1 Y-2.0 F1000.0
G1 X55.0 E25 F1400.0
G1 Z0.20 F1000.0
G1 X5.0 E4.0 F1000.0
G92 E0.0


M221 S95
G90 ; use absolute coordinates
M83 ; use relative distances for extrusion
G92 E0.0
M900 K30; Filament gcode
G21 ; set units to millimeters
G90 ; use absolute coordinates
M83 ; use relative distances for extrusion
;BEFORE_LAYER_CHANGE
G92 E0.0
;0.2


G1 E-0.80000 F2100.00000
G1 Z0.600 F10800.000
;AFTER_LAYER_CHANGE
;0.2
G1 X101.548 Y85.717
G1 Z0.200
G1 E0.80000 F2100.00000
M204 S1000
G1 F1200
G1 X102.399 Y85.209 E0.03104
G1 X102.940 Y85.051 E0.01767
G1 X103.513 Y85.001 E0.01805
G1 X146.551 Y85.001 E1.34942
G1 X147.605 Y85.214 E0.03371
G1 X148.132 Y85.484 E0.01858
G1 X148.621 Y85.881 E0.01974
G1 X149.214 Y86.732 E0.03253
G1 X149.411 Y87.279 E0.01824
G1 X149.496 Y87.884 E0.01915
G1 X149.645 Y109.007 E0.66232
G1 X149.645 Y122.066 E0.40946
G1 X149.561 Y122.722 E0.02074
G1 X149.350 Y123.311 E0.01960
G1 X148.991 Y123.880 E0.02108
G1 X148.663 Y124.232 E0.01510
G1 X148.230 Y124.564 E0.01711
G1 X147.719 Y124.817 E0.01789
G1 X146.733 Y125.016 E0.03153
G1 X103.679 Y125.016 E1.34994
G1 X103.031 Y124.955 E0.02042
G1 X102.375 Y124.737 E0.02167
G1 X101.780 Y124.370 E0.02189
G1 X101.325 Y123.921 E0.02005
G1 X100.844 Y123.104 E0.02975
G1 X100.647 Y122.167 E0.03003
G1 X100.500 Y101.112 E0.66017
G1 X100.500 Y87.889 E0.41460
G1 X100.558 Y87.396 E0.01555
G1 X100.768 Y86.750 E0.02132
G1 X101.089 Y86.206 E0.01981
G1 X101.507 Y85.760 E0.01915
; PURGING FINISHED
G1 F8640
G1 X102.399 Y85.209 E-0.24195
G1 X102.940 Y85.051 E-0.13015
G1 X103.513 Y85.001 E-0.13291
G1 X104.617 Y85.001 E-0.25498
G1 E-0.04000 F2100.00000
G1 Z0.800 F10800.000
G1 X103.651 Y88.155
G1 Z0.200
G1 E0.80000 F2100.00000
G1 F1200
G1 X146.344 Y88.155 E1.33861
G1 X146.344 Y100.849 E0.39803
G1 X103.651 Y100.849 E1.33861
G1 X103.651 Y88.215 E0.39615
G1 X103.315 Y87.871 F10800.000
G1 F1200
G1 X103.401 Y87.800 E0.00349
G1 X103.530 Y87.778 E0.00411
G1 X146.565 Y87.789 E1.34934
G1 X146.659 Y87.849 E0.00349
G1 X146.692 Y87.894 E0.00176
G1 X146.721 Y88.015 E0.00390
G1 X146.714 Y101.049 E0.40865
G1 X146.673 Y101.131 E0.00289
G1 X146.608 Y101.195 E0.00285
G1 X146.504 Y101.226 E0.00342
G1 X103.454 Y101.222 E1.34978
G1 X103.401 Y101.204 E0.00176
G1 X103.315 Y101.133 E0.00349
G1 X103.274 Y101.030 E0.00349
G1 X103.274 Y87.974 E0.40936
G1 X103.287 Y87.924 E0.00163
G1 X103.426 Y87.878 F10800.000
G1 F8640
G1 X103.401 Y87.800 E-0.03882
G1 X103.530 Y87.778 E-0.03025
G1 X106.522 Y87.778 E-0.69093
G1 E-0.04000 F2100.00000
G1 Z0.800 F10800.000
G1 X103.764 Y99.973
G1 Z0.200
G1 E0.80000 F2100.00000
G1 F1200
G1 X104.358 Y100.566 E0.02637
G1 X104.892 Y100.566 E0.01677
G1 X103.934 Y99.608 E0.04255
G1 X103.934 Y99.074 E0.01677
G1 X105.426 Y100.566 E0.06627
G1 X105.960 Y100.566 E0.01677
G1 X103.934 Y98.540 E0.08999
G1 X103.934 Y98.006 E0.01677
G1 X106.495 Y100.566 E0.11371
G1 X107.029 Y100.566 E0.01677
G1 X103.934 Y97.472 E0.13742
G1 X103.934 Y96.938 E0.01677
G1 X107.563 Y100.566 E0.16114
G1 X108.097 Y100.566 E0.01677
G1 X103.934 Y96.404 E0.18486
G1 X103.934 Y95.870 E0.01677
G1 X108.631 Y100.566 E0.20858
G1 X109.165 Y100.566 E0.01677
G1 X103.934 Y95.336 E0.23230
G1 X103.934 Y94.802 E0.01677
G1 X109.699 Y100.566 E0.25601
G1 X110.233 Y100.566 E0.01677
G1 X103.934 Y94.267 E0.27973
G1 X103.934 Y93.733 E0.01677
G1 X110.767 Y100.566 E0.30345
G1 X111.301 Y100.566 E0.01677
G1 X103.934 Y93.199 E0.32717
G1 X103.934 Y92.665 E0.01677
G1 X111.835 Y100.566 E0.35089
G1 X112.369 Y100.566 E0.01677
G1 X103.934 Y92.131 E0.37460
G1 X103.934 Y91.597 E0.01677
G1 X112.904 Y100.566 E0.39832
G1 X113.438 Y100.566 E0.01677
G1 X103.934 Y91.063 E0.42204
G1 X103.934 Y90.529 E0.01677
G1 X113.972 Y100.566 E0.44576
G1 X114.506 Y100.566 E0.01677
G1 X103.934 Y89.995 E0.46948
G1 X103.934 Y89.461 E0.01677
G1 X115.040 Y100.566 E0.49319
G1 X115.574 Y100.566 E0.01677
G1 X103.934 Y88.927 E0.51691
G1 X103.934 Y88.437 E0.01536
G1 X103.979 Y88.437 E0.00141
G1 X116.108 Y100.566 E0.53864
G1 X116.642 Y100.566 E0.01677
G1 X104.513 Y88.437 E0.53864
G1 X105.047 Y88.437 E0.01677
G1 X117.176 Y100.566 E0.53864
G1 X117.710 Y100.566 E0.01677
G1 X105.581 Y88.437 E0.53864
G1 X106.115 Y88.437 E0.01677
G1 X118.244 Y100.566 E0.53864
G1 X118.778 Y100.566 E0.01677
G1 X106.649 Y88.437 E0.53864
G1 X107.184 Y88.437 E0.01677
G1 X119.312 Y100.566 E0.53864
G1 X119.847 Y100.566 E0.01677
G1 X107.718 Y88.437 E0.53864
G1 X108.252 Y88.437 E0.01677
G1 X120.381 Y100.566 E0.53864
G1 X120.915 Y100.566 E0.01677
G1 X108.786 Y88.437 E0.53864
M73 Q2 S51
M73 P2 R51
G1 X109.320 Y88.437 E0.01677
G1 X121.449 Y100.566 E0.53864
G1 X121.983 Y100.566 E0.01677
G1 X109.854 Y88.437 E0.53864
G1 X110.388 Y88.437 E0.01677
G1 X122.517 Y100.566 E0.53864
G1 X123.051 Y100.566 E0.01677
G1 X110.922 Y88.437 E0.53864
G1 X111.456 Y88.437 E0.01677
G1 X123.585 Y100.566 E0.53864
G1 X124.119 Y100.566 E0.01677
G1 X111.990 Y88.437 E0.53864
G1 X112.524 Y88.437 E0.01677
G1 X124.653 Y100.566 E0.53864
G1 X125.187 Y100.566 E0.01677
G1 X113.058 Y88.437 E0.53864
G1 X113.592 Y88.437 E0.01677
G1 X125.721 Y100.566 E0.53864
G1 X126.256 Y100.566 E0.01677
G1 X114.127 Y88.437 E0.53864
G1 X114.661 Y88.437 E0.01677
G1 X126.790 Y100.566 E0.53864
G1 X127.324 Y100.566 E0.01677
G1 X115.195 Y88.437 E0.53864
G1 X115.729 Y88.437 E0.01677
G1 X127.858 Y100.566 E0.53864
G1 X128.392 Y100.566 E0.01677
G1 X116.263 Y88.437 E0.53864
G1 X116.797 Y88.437 E0.01677
G1 X128.926 Y100.566 E0.53864
G1 X129.460 Y100.566 E0.01677
G1 X117.331 Y88.437 E0.53864
G1 X117.865 Y88.437 E0.01677
G1 X129.994 Y100.566 E0.53864
G1 X130.528 Y100.566 E0.01677
G1 X118.399 Y88.437 E0.53864
G1 X118.933 Y88.437 E0.01677
G1 X131.062 Y100.566 E0.53864
G1 X131.596 Y100.566 E0.01677
G1 X119.467 Y88.437 E0.53864
G1 X120.001 Y88.437 E0.01677
G1 X132.130 Y100.566 E0.53864
G1 X132.665 Y100.566 E0.01677
G1 X120.536 Y88.437 E0.53864
G1 X121.070 Y88.437 E0.01677
G1 X133.199 Y100.566 E0.53864
G1 X133.733 Y100.566 E0.01677
G1 X121.604 Y88.437 E0.53864
G1 X122.138 Y88.437 E0.01677
G1 X134.267 Y100.566 E0.53864
G1 X134.801 Y100.566 E0.01677
G1 X122.672 Y88.437 E0.53864
G1 X123.206 Y88.437 E0.01677
G1 X135.335 Y100.566 E0.53864
G1 X135.869 Y100.566 E0.01677
G1 X123.740 Y88.437 E0.53864
G1 X124.274 Y88.437 E0.01677
G1 X136.403 Y100.566 E0.53864
G1 X136.937 Y100.566 E0.01677
G1 X124.808 Y88.437 E0.53864
G1 X125.342 Y88.437 E0.01677
G1 X137.471 Y100.566 E0.53864
G1 X138.005 Y100.566 E0.01677
G1 X125.876 Y88.437 E0.53864
G1 X126.410 Y88.437 E0.01677
G1 X138.539 Y100.566 E0.53864
G1 X139.073 Y100.566 E0.01677
G1 X126.944 Y88.437 E0.53864
G1 X127.479 Y88.437 E0.01677
G1 X139.608 Y100.566 E0.53864
G1 X140.142 Y100.566 E0.01677
G1 X128.013 Y88.437 E0.53864
G1 X128.547 Y88.437 E0.01677
G1 X140.676 Y100.566 E0.53864
G1 X141.210 Y100.566 E0.01677
G1 X129.081 Y88.437 E0.53864
G1 X129.615 Y88.437 E0.01677
G1 X141.744 Y100.566 E0.53864
G1 X142.278 Y100.566 E0.01677
G1 X130.149 Y88.437 E0.53864
G1 X130.683 Y88.437 E0.01677
G1 X142.812 Y100.566 E0.53864
G1 X143.346 Y100.566 E0.01677
G1 X131.217 Y88.437 E0.53864
G1 X131.751 Y88.437 E0.01677
G1 X143.880 Y100.566 E0.53864
G1 X144.414 Y100.566 E0.01677
G1 X132.285 Y88.437 E0.53864
G1 X132.819 Y88.437 E0.01677
G1 X144.948 Y100.566 E0.53864
G1 X145.482 Y100.566 E0.01677
G1 X133.353 Y88.437 E0.53864
G1 X133.888 Y88.437 E0.01677
G1 X146.017 Y100.566 E0.53864
G1 X146.061 Y100.566 E0.00141
G1 X146.061 Y100.077 E0.01536
G1 X134.422 Y88.437 E0.51691
G1 X134.956 Y88.437 E0.01677
G1 X146.061 Y99.543 E0.49319
G1 X146.061 Y99.009 E0.01677
G1 X135.490 Y88.437 E0.46948
G1 X136.024 Y88.437 E0.01677
G1 X146.061 Y98.475 E0.44576
G1 X146.061 Y97.941 E0.01677
G1 X136.558 Y88.437 E0.42204
G1 X137.092 Y88.437 E0.01677
G1 X146.061 Y97.407 E0.39832
G1 X146.061 Y96.873 E0.01677
G1 X137.626 Y88.437 E0.37460
G1 X138.160 Y88.437 E0.01677
G1 X146.061 Y96.339 E0.35089
G1 X146.061 Y95.805 E0.01677
G1 X138.694 Y88.437 E0.32717
G1 X139.228 Y88.437 E0.01677
G1 X146.061 Y95.271 E0.30345
G1 X146.061 Y94.736 E0.01677
G1 X139.762 Y88.437 E0.27973
G1 X140.297 Y88.437 E0.01677
G1 X146.061 Y94.202 E0.25601
G1 X146.061 Y93.668 E0.01677
G1 X140.831 Y88.437 E0.23230
G1 X141.365 Y88.437 E0.01677
G1 X146.061 Y93.134 E0.20858
G1 X146.061 Y92.600 E0.01677
G1 X141.899 Y88.437 E0.18486
G1 X142.433 Y88.437 E0.01677
G1 X146.061 Y92.066 E0.16114
G1 X146.061 Y91.532 E0.01677
G1 X142.967 Y88.437 E0.13742
G1 X143.501 Y88.437 E0.01677
G1 X146.061 Y90.998 E0.11371
G1 X146.061 Y90.464 E0.01677
G1 X144.035 Y88.437 E0.08999
G1 X144.569 Y88.437 E0.01677
G1 X146.061 Y89.930 E0.06627
G1 X146.061 Y89.396 E0.01677
G1 X145.103 Y88.437 E0.04255
G1 X145.637 Y88.437 E0.01677
G1 X146.231 Y89.031 E0.02637
G1 F8640
G1 X145.637 Y88.437 E-0.19390
G1 X145.103 Y88.437 E-0.12332
G1 X146.061 Y89.396 E-0.31289
G1 X146.061 Y89.930 E-0.12332
G1 X146.041 Y89.910 E-0.00656
G1 E-0.04000 F2100.00000
G1 Z0.800 F10800.000
G1 X146.491 Y109.168
G1 Z0.200
G1 E0.80000 F2100.00000
G1 F1200
G1 X146.491 Y121.862 E0.39803
G1 X103.798 Y121.862 E1.33861
G1 X103.798 Y109.168 E0.39803
G1 X146.431 Y109.168 E1.33672
G1 X146.762 Y108.826 F10800.000
G1 F1200
G1 X146.838 Y108.907 E0.00349
G1 X146.868 Y109.028 E0.00390
G1 X146.868 Y122.002 E0.40678
G1 X146.819 Y122.144 E0.00471
G1 X146.712 Y122.228 E0.00427
G1 X103.676 Y122.239 E1.34934
M73 Q4 S50
M73 P4 R50
G1 X103.547 Y122.217 E0.00411
G1 X103.462 Y122.146 E0.00349
G1 X103.435 Y122.097 E0.00176
G1 X103.421 Y122.043 E0.00176
G1 X103.421 Y108.987 E0.40936
G1 X103.462 Y108.884 E0.00349
G1 X103.547 Y108.813 E0.00349
G1 X103.601 Y108.795 E0.00176
G1 X146.708 Y108.802 E1.35159
G1 X146.760 Y108.937 F10800.000
G1 F8640
G1 X146.838 Y108.907 E-0.03881
G1 X146.868 Y109.028 E-0.02872
G1 X146.868 Y112.027 E-0.69247
G1 E-0.04000 F2100.00000
G1 Z0.800 F10800.000
G1 X146.378 Y110.044
G1 Z0.200
G1 E0.80000 F2100.00000
G1 F1200
G1 X145.784 Y109.450 E0.02637
G1 X145.250 Y109.450 E0.01677
G1 X146.208 Y110.409 E0.04255
G1 X146.208 Y110.943 E0.01677
G1 X144.716 Y109.450 E0.06627
G1 X144.182 Y109.450 E0.01677
G1 X146.208 Y111.477 E0.08999
G1 X146.208 Y112.011 E0.01677
G1 X143.647 Y109.450 E0.11371
G1 X143.113 Y109.450 E0.01677
G1 X146.208 Y112.545 E0.13742
G1 X146.208 Y113.079 E0.01677
G1 X142.579 Y109.450 E0.16114
G1 X142.045 Y109.450 E0.01677
G1 X146.208 Y113.613 E0.18486
G1 X146.208 Y114.147 E0.01677
G1 X141.511 Y109.450 E0.20858
G1 X140.977 Y109.450 E0.01677
G1 X146.208 Y114.681 E0.23230
G1 X146.208 Y115.215 E0.01677
G1 X140.443 Y109.450 E0.25601
G1 X139.909 Y109.450 E0.01677
G1 X146.208 Y115.749 E0.27973
G1 X146.208 Y116.284 E0.01677
G1 X139.375 Y109.450 E0.30345
G1 X138.841 Y109.450 E0.01677
G1 X146.208 Y116.818 E0.32717
G1 X146.208 Y117.352 E0.01677
G1 X138.307 Y109.450 E0.35089
G1 X137.773 Y109.450 E0.01677
G1 X146.208 Y117.886 E0.37460
G1 X146.208 Y118.420 E0.01677
G1 X137.239 Y109.450 E0.39832
G1 X136.704 Y109.450 E0.01677
G1 X146.208 Y118.954 E0.42204
G1 X146.208 Y119.488 E0.01677
G1 X136.170 Y109.450 E0.44576
G1 X135.636 Y109.450 E0.01677
G1 X146.208 Y120.022 E0.46948
G1 X146.208 Y120.556 E0.01677
G1 X135.102 Y109.450 E0.49319
G1 X134.568 Y109.450 E0.01677
G1 X146.208 Y121.090 E0.51691
G1 X146.208 Y121.579 E0.01536
G1 X146.163 Y121.579 E0.00141
G1 X134.034 Y109.450 E0.53864
G1 X133.500 Y109.450 E0.01677
G1 X145.629 Y121.579 E0.53864
G1 X145.095 Y121.579 E0.01677
G1 X132.966 Y109.450 E0.53864
G1 X132.432 Y109.450 E0.01677
G1 X144.561 Y121.579 E0.53864
G1 X144.027 Y121.579 E0.01677
G1 X131.898 Y109.450 E0.53864
G1 X131.364 Y109.450 E0.01677
G1 X143.493 Y121.579 E0.53864
G1 X142.959 Y121.579 E0.01677
G1 X130.830 Y109.450 E0.53864
G1 X130.295 Y109.450 E0.01677
G1 X142.424 Y121.579 E0.53864
G1 X141.890 Y121.579 E0.01677
G1 X129.761 Y109.450 E0.53864
G1 X129.227 Y109.450 E0.01677
G1 X141.356 Y121.579 E0.53864
G1 X140.822 Y121.579 E0.01677
G1 X128.693 Y109.450 E0.53864
G1 X128.159 Y109.450 E0.01677
G1 X140.288 Y121.579 E0.53864
G1 X139.754 Y121.579 E0.01677
G1 X127.625 Y109.450 E0.53864
G1 X127.091 Y109.450 E0.01677
G1 X139.220 Y121.579 E0.53864
G1 X138.686 Y121.579 E0.01677
G1 X126.557 Y109.450 E0.53864
G1 X126.023 Y109.450 E0.01677
G1 X138.152 Y121.579 E0.53864
G1 X137.618 Y121.579 E0.01677
G1 X125.489 Y109.450 E0.53864
G1 X124.955 Y109.450 E0.01677
G1 X137.084 Y121.579 E0.53864
G1 X136.550 Y121.579 E0.01677
G1 X124.421 Y109.450 E0.53864
G1 X123.886 Y109.450 E0.01677
G1 X136.015 Y121.579 E0.53864
G1 X135.481 Y121.579 E0.01677
G1 X123.352 Y109.450 E0.53864
G1 X122.818 Y109.450 E0.01677
G1 X134.947 Y121.579 E0.53864
G1 X134.413 Y121.579 E0.01677
G1 X122.284 Y109.450 E0.53864
G1 X121.750 Y109.450 E0.01677
G1 X133.879 Y121.579 E0.53864
G1 X133.345 Y121.579 E0.01677
G1 X121.216 Y109.450 E0.53864
G1 X120.682 Y109.450 E0.01677
G1 X132.811 Y121.579 E0.53864
G1 X132.277 Y121.579 E0.01677
G1 X120.148 Y109.450 E0.53864
G1 X119.614 Y109.450 E0.01677
G1 X131.743 Y121.579 E0.53864
G1 X131.209 Y121.579 E0.01677
G1 X119.080 Y109.450 E0.53864
G1 X118.546 Y109.450 E0.01677
G1 X130.675 Y121.579 E0.53864
G1 X130.141 Y121.579 E0.01677
G1 X118.012 Y109.450 E0.53864
G1 X117.478 Y109.450 E0.01677
G1 X129.607 Y121.579 E0.53864
G1 X129.072 Y121.579 E0.01677
G1 X116.943 Y109.450 E0.53864
G1 X116.409 Y109.450 E0.01677
G1 X128.538 Y121.579 E0.53864
G1 X128.004 Y121.579 E0.01677
G1 X115.875 Y109.450 E0.53864
G1 X115.341 Y109.450 E0.01677
G1 X127.470 Y121.579 E0.53864
G1 X126.936 Y121.579 E0.01677
G1 X114.807 Y109.450 E0.53864
G1 X114.273 Y109.450 E0.01677
G1 X126.402 Y121.579 E0.53864
G1 X125.868 Y121.579 E0.01677
G1 X113.739 Y109.450 E0.53864
G1 X113.205 Y109.450 E0.01677
G1 X125.334 Y121.579 E0.53864
G1 X124.800 Y121.579 E0.01677
G1 X112.671 Y109.450 E0.53864
G1 X112.137 Y109.450 E0.01677
G1 X124.266 Y121.579 E0.53864
G1 X123.732 Y121.579 E0.01677
G1 X111.603 Y109.450 E0.53864
G1 X111.069 Y109.450 E0.01677
G1 X123.198 Y121.579 E0.53864
G1 X122.663 Y121.579 E0.01677
G1 X110.534 Y109.450 E0.53864
G1 X110.000 Y109.450 E0.01677
G1 X122.129 Y121.579 E0.53864
G1 X121.595 Y121.579 E0.01677
G1 X109.466 Y109.450 E0.53864
G1 X108.932 Y109.450 E0.01677
G1 X121.061 Y121.579 E0.53864
G1 X120.527 Y121.579 E0.01677
G1 X108.398 Y109.450 E0.53864
G1 X107.864 Y109.450 E0.01677
G1 X119.993 Y121.579 E0.53864
G1 X119.459 Y121.579 E0.01677
G1 X107.330 Y109.450 E0.53864
G1 X106.796 Y109.450 E0.01677
G1 X118.925 Y121.579 E0.53864
M73 Q6 S49
G1 X118.391 Y121.579 E0.01677
M73 P6 R49
G1 X106.262 Y109.450 E0.53864
G1 X105.728 Y109.450 E0.01677
G1 X117.857 Y121.579 E0.53864
G1 X117.323 Y121.579 E0.01677
G1 X105.194 Y109.450 E0.53864
G1 X104.660 Y109.450 E0.01677
