; generated by Slic3r Prusa Edition 1.42.0-beta2+win64 on 2019-09-24 at 21:27:33

; 

; external perimeters extrusion width = 0.45mm
; perimeters extrusion width = 0.45mm
; infill extrusion width = 0.45mm
; solid infill extrusion width = 0.45mm
; top infill extrusion width = 0.40mm
; first layer extrusion width = 0.42mm

M73 P0 R31
M73 Q0 S31
M201 X1000 Y1000 Z1000 E8000 ; sets maximum accelerations, mm/sec^2
M203 X200 Y200 Z12 E120 ; sets maximum feedrates, mm/sec
M204 P1250 R1250 T1250 ; sets acceleration (P, T) and retract acceleration (R), mm/sec^2
M205 X8.00 Y8.00 Z0.40 E1.50 ; sets the jerk limits, mm/sec
M205 S0 T0 ; sets the minimum extruding and travel feed rate, mm/sec
M107
M107
M115 U3.6.0 ; tell printer latest fw version
M83  ; extruder relative mode
M104 S215 ; set extruder temp
M140 S60 ; set bed temp
M190 S60 ; wait for bed temp
M109 S215 ; wait for extruder temp
G28 W ; home all without mesh bed level
G80 ; mesh bed leveling
G21 ; set units to millimeters

; Send the filament type to the MMU2.0 unit.
; E stands for extruder number, F stands for filament type (0: default; 1:flex; 2: PVA)
M403 E0 F0
M403 E1 F0
M403 E2 F0
M403 E3 F0
M403 E4 F0


;go outside print area
G1 Y-3.0 F1000.0
G1 Z0.4 F1000.0
; select extruder
T0
; initial load
G1 X55.0 E32.0 F1073.0
M73 Q1 S30
M73 P1 R30
G1 X5.0 E32.0 F1800.0
G1 X55.0 E8.0 F2000.0
G1 Z0.3 F1000.0
G92 E0.0
G1 X240.0 E25.0  F2200.0
G1 Y-2.0 F1000.0
G1 X55.0 E25 F1400.0
G1 Z0.20 F1000.0
G1 X5.0 E4.0 F1000.0
G92 E0.0


M221 S95
G90 ; use absolute coordinates
M83 ; use relative distances for extrusion
G92 E0.0
M900 K30 ; Filament gcode
G21 ; set units to millimeters
G90 ; use absolute coordinates
M83 ; use relative distances for extrusion
;BEFORE_LAYER_CHANGE
G92 E0.0
;0.2


G1 E-0.80000 F2100.00000
G1 Z0.600 F10800.000
;AFTER_LAYER_CHANGE
;0.2
G1 X116.050 Y97.552
G1 Z0.200
G1 E0.80000 F2100.00000
M204 S1000
G1 F1893
G1 X116.463 Y96.843 E0.02573
G1 X116.837 Y96.467 E0.01663
G1 X117.290 Y96.170 E0.01698
G1 X117.812 Y95.968 E0.01757
G1 X118.272 Y95.889 E0.01464
G1 X131.527 Y95.877 E0.41559
G1 X132.451 Y96.057 E0.02953
G1 X133.296 Y96.593 E0.03137
G1 X133.844 Y97.330 E0.02878
G1 X134.106 Y98.251 E0.03005
G1 X134.118 Y111.591 E0.41826
G1 X133.959 Y112.398 E0.02579
G1 X133.494 Y113.200 E0.02905
G1 X133.079 Y113.590 E0.01787
G1 X132.673 Y113.842 E0.01498
G1 X132.167 Y114.036 E0.01698
G1 X131.563 Y114.123 E0.01912
G1 X118.432 Y114.121 E0.41172
G1 X117.545 Y113.944 E0.02836
G1 X116.819 Y113.518 E0.02641
G1 X116.413 Y113.095 E0.01835
G1 X116.128 Y112.627 E0.01719
G1 X115.939 Y112.077 E0.01822
G1 X115.876 Y111.600 E0.01510
G1 X115.877 Y98.358 E0.41520
G1 X116.037 Y97.611 E0.02395
G1 F8640
G1 X116.463 Y96.843 E-0.20266
G1 X116.837 Y96.467 E-0.12250
G1 X117.290 Y96.170 E-0.12502
G1 X117.812 Y95.968 E-0.12936
G1 X118.272 Y95.889 E-0.10782
G1 X118.587 Y95.888 E-0.07265
G1 E-0.04000 F2100.00000
G1 Z0.800 F10800.000
G1 X118.651 Y98.653
G1 Z0.200
G1 E0.80000 F2100.00000
G1 F1893
G1 X131.344 Y98.663 E0.39798
G1 X131.344 Y111.347 E0.39772
G1 X118.651 Y111.347 E0.39798
G1 X118.651 Y98.713 E0.39614
G1 X118.304 Y98.395 F10800.000
G1 F1470
G1 X118.401 Y98.298 E0.00431
G1 X118.530 Y98.276 E0.00410
G1 X131.538 Y98.286 E0.40787
G1 X131.659 Y98.347 E0.00424
G1 X131.713 Y98.444 E0.00349
G1 X131.721 Y98.513 E0.00217
G1 X131.721 Y111.487 E0.40678
G1 X131.713 Y111.556 E0.00217
G1 X131.664 Y111.646 E0.00321
G1 X131.589 Y111.698 E0.00289
G1 X131.495 Y111.724 E0.00306
G1 X118.530 Y111.724 E0.40650
G1 X118.454 Y111.720 E0.00238
G1 X118.354 Y111.672 E0.00349
G1 X118.288 Y111.582 E0.00349
G1 X118.274 Y111.528 E0.00176
G1 X118.284 Y98.452 E0.41000
G1 X118.441 Y98.395 F10800.000
G1 F8640
G1 X118.401 Y98.298 E-0.04461
G1 X118.530 Y98.276 E-0.03022
G1 X121.497 Y98.278 E-0.68516
G1 E-0.04000 F2100.00000
G1 Z0.800 F10800.000
G1 X119.542 Y111.234
G1 Z0.200
G1 E0.80000 F2100.00000
G1 F1893
G1 X118.934 Y110.626 E0.02747
G1 X118.934 Y110.083 E0.01737
G1 X119.916 Y111.064 E0.04436
G1 X120.459 Y111.064 E0.01737
G1 X118.934 Y109.539 E0.06892
G1 X118.934 Y108.996 E0.01737
G1 X121.003 Y111.064 E0.09348
G1 X121.546 Y111.064 E0.01737
G1 X118.934 Y108.452 E0.11804
G1 X118.934 Y107.909 E0.01737
G1 X122.090 Y111.064 E0.14260
G1 X122.633 Y111.064 E0.01737
G1 X118.934 Y107.365 E0.16717
G1 X118.934 Y106.822 E0.01737
G1 X123.177 Y111.064 E0.19173
G1 X123.720 Y111.064 E0.01737
G1 X118.934 Y106.278 E0.21629
G1 X118.934 Y105.735 E0.01737
G1 X124.264 Y111.064 E0.24085
G1 X124.807 Y111.064 E0.01737
G1 X118.934 Y105.191 E0.26541
G1 X118.934 Y104.648 E0.01737
G1 X125.351 Y111.064 E0.28997
G1 X125.894 Y111.064 E0.01737
G1 X118.934 Y104.104 E0.31453
G1 X118.934 Y103.561 E0.01737
G1 X126.438 Y111.064 E0.33909
G1 X126.981 Y111.064 E0.01737
G1 X118.934 Y103.017 E0.36365
G1 X118.934 Y102.474 E0.01737
G1 X127.525 Y111.064 E0.38822
G1 X128.068 Y111.064 E0.01737
G1 X118.934 Y101.931 E0.41278
G1 X118.934 Y101.387 E0.01737
G1 X128.612 Y111.064 E0.43734
G1 X129.155 Y111.064 E0.01737
G1 X118.934 Y100.844 E0.46190
G1 X118.934 Y100.300 E0.01737
G1 X129.699 Y111.064 E0.48646
G1 X130.242 Y111.064 E0.01737
G1 X118.934 Y99.757 E0.51102
G1 X118.934 Y99.213 E0.01737
G1 X130.786 Y111.064 E0.53558
G1 X131.061 Y111.064 E0.00881
G1 X131.061 Y110.797 E0.00855
G1 X119.201 Y98.936 E0.53601
G1 X119.745 Y98.936 E0.01738
G1 X131.061 Y110.253 E0.51143
G1 X131.061 Y109.710 E0.01737
G1 X120.288 Y98.937 E0.48685
G1 X120.832 Y98.937 E0.01738
G1 X131.061 Y109.166 E0.46227
G1 X131.061 Y108.623 E0.01737
G1 X121.376 Y98.938 E0.43769
G1 X121.920 Y98.938 E0.01738
G1 X131.061 Y108.079 E0.41311
G1 X131.061 Y107.536 E0.01737
G1 X122.464 Y98.939 E0.38853
G1 X123.008 Y98.939 E0.01738
G1 X131.061 Y106.992 E0.36395
G1 X131.061 Y106.449 E0.01737
G1 X123.552 Y98.939 E0.33937
G1 X124.096 Y98.940 E0.01738
G1 X131.061 Y105.905 E0.31479
G1 X131.061 Y105.362 E0.01737
G1 X124.640 Y98.940 E0.29021
G1 X125.184 Y98.941 E0.01738
G1 X131.061 Y104.818 E0.26563
G1 X131.061 Y104.275 E0.01737
G1 X125.728 Y98.941 E0.24105
G1 X126.271 Y98.941 E0.01738
G1 X131.061 Y103.731 E0.21647
G1 X131.061 Y103.188 E0.01737
G1 X126.815 Y98.942 E0.19189
G1 X127.359 Y98.942 E0.01738
G1 X131.061 Y102.644 E0.16731
G1 X131.061 Y102.101 E0.01737
G1 X127.903 Y98.943 E0.14273
G1 X128.447 Y98.943 E0.01738
G1 X131.061 Y101.557 E0.11815
G1 X131.061 Y101.014 E0.01737
G1 X128.991 Y98.944 E0.09357
G1 X129.535 Y98.944 E0.01738
G1 X131.061 Y100.471 E0.06899
G1 X131.061 Y99.927 E0.01737
G1 X130.079 Y98.944 E0.04441
G1 X130.623 Y98.945 E0.01738
G1 X131.231 Y99.553 E0.02749
M106 S255
;BEFORE_LAYER_CHANGE
G92 E0.0
;0.35


G1 F8640
G1 X130.623 Y98.945 E-0.19867
G1 X130.079 Y98.944 E-0.12559
G1 X131.061 Y99.927 E-0.32087
G1 X131.061 Y100.425 E-0.11487
G1 E-0.04000 F2100.00000
G1 Z0.800 F10800.000
;AFTER_LAYER_CHANGE
;0.35
M104 S205 ; set temperature
G1 X131.540 Y98.558
G1 Z0.350
G1 E0.80000 F2100.00000
M204 S800
G1 F1512
G1 X131.540 Y111.442 E0.33569
G1 X131.524 Y111.527 E0.00225
G1 X131.478 Y111.543 E0.00127
G1 X118.577 Y111.543 E0.33615
G1 X118.471 Y111.530 E0.00278
G1 X118.457 Y111.505 E0.00075
G1 X118.457 Y98.495 E0.33898
G1 X118.471 Y98.470 E0.00075
G1 X118.577 Y98.457 E0.00278
G1 X131.478 Y98.457 E0.33615
G1 X131.525 Y98.476 E0.00132
G1 X131.529 Y98.499 E0.00061
M204 S1000
G1 X131.940 Y98.424 F10800.000
M204 S800
G1 F1512
G1 X131.958 Y98.520 E0.00255
G1 X131.958 Y111.480 E0.33766
G1 X131.926 Y111.654 E0.00461
G1 X131.831 Y111.815 E0.00487
G1 X131.743 Y111.888 E0.00300
G1 X131.638 Y111.938 E0.00301
G1 X131.518 Y111.961 E0.00319
G1 X118.552 Y111.961 E0.33783
G1 X118.370 Y111.939 E0.00480
G1 X118.203 Y111.855 E0.00487
G1 X118.124 Y111.770 E0.00301
G1 X118.068 Y111.669 E0.00300
G1 X118.040 Y111.558 E0.00301
G1 X118.040 Y98.442 E0.34173
G1 X118.068 Y98.331 E0.00300
G1 X118.124 Y98.230 E0.00301
G1 X118.203 Y98.145 E0.00300
G1 X118.370 Y98.061 E0.00487
G1 X118.552 Y98.039 E0.00480
G1 X131.518 Y98.039 E0.33783
G1 X131.747 Y98.116 E0.00630
G1 X131.831 Y98.185 E0.00284
G1 X131.899 Y98.278 E0.00301
G1 X131.930 Y98.365 E0.00239
M204 S1000
G1 X131.871 Y98.493 F10800.000
G1 F8640
G1 X131.958 Y98.520 E-0.03645
G1 X131.958 Y101.654 E-0.72355
G1 E-0.04000 F2100.00000
G1 Z0.950 F10800.000
G1 X119.439 Y98.583
G1 Z0.350
G1 E0.80000 F2100.00000
M204 S1250
G1 F1512
G1 X118.771 Y99.251 E0.02496
G1 X118.771 Y99.850 E0.01581
G1 X119.850 Y98.771 E0.04031
G1 X120.449 Y98.771 E0.01581
G1 X118.771 Y100.449 E0.06267
G1 X118.771 Y101.048 E0.01581
G1 X121.048 Y98.771 E0.08504
G1 X121.647 Y98.771 E0.01581
G1 X118.771 Y101.646 E0.10740
G1 X118.771 Y102.245 E0.01581
G1 X122.245 Y98.771 E0.12976
G1 X122.844 Y98.771 E0.01581
G1 X118.771 Y102.844 E0.15213
G1 X118.771 Y103.443 E0.01581
G1 X123.443 Y98.771 E0.17449
G1 X124.042 Y98.771 E0.01581
G1 X118.771 Y104.042 E0.19686
G1 X118.771 Y104.641 E0.01581
G1 X124.641 Y98.771 E0.21922
G1 X125.240 Y98.771 E0.01581
G1 X118.771 Y105.240 E0.24159
G1 X118.771 Y105.838 E0.01581
G1 X125.838 Y98.771 E0.26395
G1 X126.437 Y98.771 E0.01581
G1 X118.771 Y106.437 E0.28631
G1 X118.771 Y107.036 E0.01581
G1 X127.036 Y98.771 E0.30868
G1 X127.635 Y98.771 E0.01581
G1 X118.771 Y107.635 E0.33104
G1 X118.771 Y108.234 E0.01581
G1 X128.234 Y98.771 E0.35341
G1 X128.833 Y98.771 E0.01581
G1 X118.771 Y108.833 E0.37577
G1 X118.771 Y109.431 E0.01581
G1 X129.432 Y98.771 E0.39814
G1 X130.030 Y98.771 E0.01581
G1 X118.771 Y110.030 E0.42050
G1 X118.771 Y110.629 E0.01581
G1 X130.629 Y98.771 E0.44286
G1 X131.227 Y98.771 E0.01578
G1 X118.771 Y111.228 E0.46520
G1 X119.368 Y111.229 E0.01578
G1 X131.227 Y99.371 E0.44287
G1 X131.227 Y99.970 E0.01581
G1 X119.967 Y111.229 E0.42050
G1 X120.566 Y111.229 E0.01581
G1 X131.227 Y100.568 E0.39814
G1 X131.227 Y101.167 E0.01581
G1 X121.165 Y111.229 E0.37577
G1 X121.764 Y111.229 E0.01581
G1 X131.227 Y101.766 E0.35341
G1 X131.227 Y102.365 E0.01581
G1 X122.362 Y111.229 E0.33105
G1 X122.961 Y111.229 E0.01581
G1 X131.227 Y102.964 E0.30868
G1 X131.227 Y103.563 E0.01581
M73 Q4 S29
G1 X123.560 Y111.229 E0.28632
M73 P4 R29
G1 X124.159 Y111.229 E0.01581
G1 X131.227 Y104.162 E0.26395
G1 X131.227 Y104.760 E0.01581
G1 X124.758 Y111.229 E0.24159
G1 X125.357 Y111.229 E0.01581
G1 X131.227 Y105.359 E0.21922
G1 X131.227 Y105.958 E0.01581
G1 X125.955 Y111.229 E0.19686
G1 X126.554 Y111.229 E0.01581
G1 X131.227 Y106.557 E0.17450
G1 X131.227 Y107.156 E0.01581
G1 X127.153 Y111.229 E0.15213
G1 X127.752 Y111.229 E0.01581
G1 X131.227 Y107.755 E0.12977
G1 X131.227 Y108.353 E0.01581
G1 X128.351 Y111.229 E0.10740
G1 X128.950 Y111.229 E0.01581
G1 X131.227 Y108.952 E0.08504
G1 X131.227 Y109.551 E0.01581
G1 X129.549 Y111.229 E0.06267
G1 X130.147 Y111.229 E0.01581
G1 X131.227 Y110.150 E0.04031
G1 X131.227 Y110.749 E0.01581
G1 X130.558 Y111.417 E0.02497
M204 S1000
;BEFORE_LAYER_CHANGE
G92 E0.0
;0.5


G1 F8640
G1 X131.227 Y110.749 E-0.21831
G1 X131.227 Y110.150 E-0.13827
G1 X130.147 Y111.229 E-0.35247
G1 X129.927 Y111.229 E-0.05095
G1 E-0.04000 F2100.00000
G1 Z0.950 F10800.000
;AFTER_LAYER_CHANGE
;0.5
G1 X131.548 Y111.658
G1 Z0.500
G1 E0.80000 F2100.00000
M204 S800
G1 F1567
G1 X118.567 Y111.670 E0.33821
G1 X118.465 Y111.663 E0.00268
G1 X118.390 Y111.628 E0.00216
G1 X118.331 Y111.521 E0.00319
G1 X118.331 Y98.479 E0.33981
G1 X118.390 Y98.372 E0.00319
G1 X118.465 Y98.336 E0.00216
G1 X118.567 Y98.330 E0.00268
G1 X131.487 Y98.330 E0.33662
G1 X131.547 Y98.342 E0.00162
G1 X131.617 Y98.386 E0.00216
G1 X131.657 Y98.459 E0.00216
G1 X131.668 Y98.540 E0.00215
G1 X131.668 Y111.459 E0.33661
G1 X131.642 Y111.580 E0.00322
G1 X131.599 Y111.629 E0.00168
M204 S1000
G1 X131.678 Y112.059 F10800.000
M204 S800
G1 F1567
G1 X131.526 Y112.088 E0.00402
G1 X118.554 Y112.088 E0.33799
G1 X118.386 Y112.077 E0.00439
G1 X118.246 Y112.032 E0.00384
G1 X118.122 Y111.953 E0.00384
G1 X118.021 Y111.845 E0.00384
G1 X117.950 Y111.716 E0.00384
G1 X117.913 Y111.574 E0.00384
G1 X117.913 Y98.426 E0.34256
G1 X117.950 Y98.284 E0.00384
G1 X118.021 Y98.155 E0.00384
G1 X118.122 Y98.047 E0.00384
G1 X118.246 Y97.968 E0.00384
G1 X118.386 Y97.923 E0.00384
G1 X118.554 Y97.912 E0.00439
G1 X131.526 Y97.912 E0.33799
G1 X131.678 Y97.941 E0.00402
G1 X131.811 Y98.004 E0.00384
G1 X131.924 Y98.098 E0.00384
G1 X132.011 Y98.217 E0.00384
G1 X132.065 Y98.354 E0.00384
G1 X132.085 Y98.514 E0.00421
G1 X132.085 Y111.486 E0.33799
G1 X132.065 Y111.646 E0.00421
G1 X132.011 Y111.783 E0.00384
G1 X131.924 Y111.902 E0.00384
G1 X131.811 Y111.996 E0.00384
G1 X131.732 Y112.033 E0.00228
M204 S1000
G1 X131.563 Y111.955 F10800.000
G1 F8640
G1 X131.526 Y112.088 E-0.04920
G1 X128.448 Y112.088 E-0.71080
G1 E-0.04000 F2100.00000
G1 Z1.100 F10800.000
G1 X119.318 Y111.545
G1 Z0.500
G1 E0.80000 F2100.00000
M204 S1250
G1 F1567
G1 X118.644 Y110.871 E0.02505
G1 X118.644 Y110.275 E0.01569
G1 X119.726 Y111.357 E0.04024
G1 X120.322 Y111.357 E0.01569
G1 X118.644 Y109.678 E0.06242
G1 X118.644 Y109.082 E0.01569
G1 X120.919 Y111.357 E0.08461
G1 X121.515 Y111.357 E0.01569
G1 X118.644 Y108.486 E0.10679
G1 X118.644 Y107.889 E0.01569
G1 X122.112 Y111.357 E0.12898
G1 X122.708 Y111.357 E0.01569
G1 X118.644 Y107.293 E0.15116
G1 X118.644 Y106.696 E0.01569
G1 X123.305 Y111.357 E0.17335
G1 X123.901 Y111.357 E0.01569
G1 X118.644 Y106.100 E0.19553
G1 X118.644 Y105.503 E0.01569
G1 X124.498 Y111.357 E0.21772
G1 X125.094 Y111.357 E0.01569
G1 X118.644 Y104.907 E0.23990
G1 X118.644 Y104.310 E0.01569
G1 X125.690 Y111.357 E0.26209
G1 X126.287 Y111.357 E0.01569
G1 X118.644 Y103.714 E0.28427
G1 X118.644 Y103.118 E0.01569
G1 X126.883 Y111.357 E0.30646
G1 X127.480 Y111.357 E0.01569
G1 X118.644 Y102.521 E0.32864
G1 X118.644 Y101.925 E0.01569
G1 X128.076 Y111.357 E0.35083
G1 X128.673 Y111.357 E0.01569
G1 X118.644 Y101.328 E0.37301
G1 X118.644 Y100.732 E0.01569
G1 X129.269 Y111.357 E0.39520
G1 X129.866 Y111.357 E0.01569
G1 X118.644 Y100.135 E0.41738
G1 X118.644 Y99.539 E0.01569
G1 X130.462 Y111.357 E0.43957
G1 X131.058 Y111.357 E0.01569
G1 X118.644 Y98.942 E0.46175
G1 X118.644 Y98.643 E0.00786
G1 X118.942 Y98.644 E0.00783
G1 X131.354 Y111.056 E0.46169
G1 X131.354 Y110.460 E0.01569
G1 X119.539 Y98.644 E0.43949
G1 X120.135 Y98.644 E0.01570
G1 X131.354 Y109.863 E0.41730
G1 X131.354 Y109.267 E0.01569
G1 X120.732 Y98.645 E0.39510
G1 X121.329 Y98.645 E0.01570
G1 X131.354 Y108.670 E0.37290
G1 X131.354 Y108.074 E0.01569
G1 X121.926 Y98.645 E0.35071
G1 X122.522 Y98.645 E0.01570
G1 X131.354 Y107.477 E0.32851
G1 X131.354 Y106.881 E0.01569
G1 X123.119 Y98.646 E0.30631
G1 X123.716 Y98.646 E0.01570
G1 X131.354 Y106.284 E0.28412
G1 X131.354 Y105.688 E0.01569
G1 X124.313 Y98.646 E0.26192
G1 X124.909 Y98.647 E0.01570
G1 X131.354 Y105.092 E0.23972
G1 X131.354 Y104.495 E0.01569
G1 X125.506 Y98.647 E0.21752
G1 X126.103 Y98.647 E0.01570
G1 X131.354 Y103.899 E0.19533
G1 X131.354 Y103.302 E0.01569
G1 X126.700 Y98.648 E0.17313
G1 X127.296 Y98.648 E0.01570
G1 X131.354 Y102.706 E0.15093
G1 X131.354 Y102.109 E0.01569
G1 X127.893 Y98.648 E0.12874
G1 X128.490 Y98.649 E0.01570
G1 X131.354 Y101.513 E0.10654
G1 X131.354 Y100.917 E0.01569
G1 X129.087 Y98.649 E0.08434
G1 X129.683 Y98.649 E0.01570
G1 X131.354 Y100.320 E0.06215
G1 X131.354 Y99.724 E0.01569
G1 X130.280 Y98.650 E0.03995
G1 X130.877 Y98.650 E0.01570
G1 X131.542 Y99.315 E0.02475
M204 S1000
;BEFORE_LAYER_CHANGE
G92 E0.0
;0.65


G1 F8640
G1 X130.877 Y98.650 E-0.21725
G1 X130.280 Y98.650 E-0.13779
G1 X131.354 Y99.724 E-0.35072
G1 X131.354 Y99.958 E-0.05423
G1 E-0.04000 F2100.00000
G1 Z1.100 F10800.000
;AFTER_LAYER_CHANGE
;0.65
G1 X131.720 Y98.377
G1 Z0.650
G1 E0.80000 F2100.00000
M204 S800
G1 F900
G1 X131.757 Y98.541 E0.00437
G1 X131.757 Y111.459 E0.33661
G1 X131.743 Y111.563 E0.00273
G1 X131.682 Y111.675 E0.00331
G1 X131.575 Y111.743 E0.00331
G1 X131.492 Y111.759 E0.00220
G1 X118.588 Y111.759 E0.33623
G1 X118.414 Y111.740 E0.00455
G1 X118.333 Y111.697 E0.00239
G1 X118.259 Y111.594 E0.00331
G1 X118.243 Y111.532 E0.00167
G1 X118.243 Y98.468 E0.34039
G1 X118.259 Y98.406 E0.00167
G1 X118.333 Y98.303 E0.00331
G1 X118.448 Y98.249 E0.00331
G1 X118.573 Y98.241 E0.00326
G1 X131.492 Y98.241 E0.33662
G1 X131.644 Y98.294 E0.00420
G1 X131.685 Y98.328 E0.00138
M204 S1000
G1 X131.989 Y98.037 F10800.000
M204 S800
G1 F900
