; generated by Slic3r Prusa Edition 1.41.0+win64 on 2019-04-01 at 21:24:52

; 

; external perimeters extrusion width = 0.45mm
; perimeters extrusion width = 0.45mm
; infill extrusion width = 0.45mm
; solid infill extrusion width = 0.45mm
; top infill extrusion width = 0.40mm
; first layer extrusion width = 0.42mm

; external perimeters extrusion width = 0.45mm
; perimeters extrusion width = 0.45mm
; infill extrusion width = 0.45mm
; solid infill extrusion width = 0.45mm
; top infill extrusion width = 0.40mm
; first layer extrusion width = 0.42mm

; external perimeters extrusion width = 0.45mm
; perimeters extrusion width = 0.45mm
; infill extrusion width = 0.45mm
; solid infill extrusion width = 0.45mm
; top infill extrusion width = 0.40mm
; first layer extrusion width = 0.42mm

M201 X1000 Y1000 Z1000 E8000 ; sets maximum accelerations, mm/sec^2
M203 X200 Y200 Z12 E120 ; sets maximum feedrates, mm/sec
M204 P1250 R1250 T1250 ; sets acceleration (P, T) and retract acceleration (R), mm/sec^2
M205 X8.00 Y8.00 Z0.40 E1.50 ; sets the jerk limits, mm/sec
M205 S0 T0 ; sets the minimum extruding and travel feed rate, mm/sec
M107
M107
M115 U3.4.1 ; tell printer latest fw version
M83  ; extruder relative mode
M104 S215 ; set extruder temp
M140 S60 ; set bed temp
M190 S60 ; wait for bed temp
M109 S215 ; wait for extruder temp
G28 W ; home all without mesh bed level
G80 ; mesh bed leveling
G21 ; set units to millimeters

; Send the filament type to the MMU2.0 unit.
; E stands for extruder number, F stands for filament type (0: default; 1:flex; 2: PVA)
M403 E0 F0
M403 E1 F0
M403 E2 F0
M403 E3 F0
M403 E4 F0


;go outside print area
G1 Y-3.0 F1000.0
G1 Z0.4 F1000.0
; select extruder
T0
; initial load
G1 X55.0 E32.0 F1073.0
M73 Q1 S42
M73 P1 R41
G1 X5.0 E32.0 F1800.0
G1 X55.0 E8.0 F2000.0
G1 Z0.3 F1000.0
G92 E0.0
G1 X240.0 E25.0  F2200.0
G1 Y-2.0 F1000.0
G1 X55.0 E25 F1400.0
G1 Z0.20 F1000.0
G1 X5.0 E4.0 F1000.0
G92 E0.0


M221 S95
G90 ; use absolute coordinates
M83 ; use relative distances for extrusion
G92 E0.0
M900 K30; Filament gcode
G21 ; set units to millimeters
G90 ; use absolute coordinates
M83 ; use relative distances for extrusion
;BEFORE_LAYER_CHANGE
G92 E0.0
;0.2


G1 E-0.80000 F2100.00000
G1 Z0.600 F10800.000
;AFTER_LAYER_CHANGE
;0.2
G1 X96.738 Y95.599
G1 Z0.200
G1 E0.80000 F2100.00000
M204 S1000
G1 F1200
G1 X97.550 Y95.499 E0.02566
G1 X152.543 Y95.499 E1.72426
G1 X153.600 Y95.713 E0.03382
G1 X154.130 Y95.986 E0.01869
G1 X154.618 Y96.384 E0.01975
G1 X155.212 Y97.243 E0.03275
G1 X155.406 Y97.791 E0.01824
G1 X155.489 Y98.407 E0.01949
G1 X155.446 Y111.992 E0.42593
G1 X155.177 Y112.835 E0.02777
G1 X154.727 Y113.501 E0.02519
G1 X154.101 Y114.033 E0.02575
G1 X153.354 Y114.375 E0.02577
G1 X152.546 Y114.501 E0.02564
G1 X97.482 Y114.500 E1.72649
G1 X96.453 Y114.309 E0.03281
G1 X95.689 Y113.891 E0.02732
G1 X95.058 Y113.242 E0.02837
G1 X94.646 Y112.413 E0.02903
G1 X94.508 Y111.622 E0.02517
G1 X94.524 Y98.128 E0.42309
G1 X94.740 Y97.328 E0.02599
G1 X95.197 Y96.582 E0.02744
G1 X95.808 Y96.027 E0.02586
G1 X96.683 Y95.624 E0.03022
; PURGING FINISHED
G1 F8640
G1 X97.550 Y95.499 E-0.20223
G1 X99.966 Y95.499 E-0.55777
G1 E-0.04000 F2100.00000
G1 Z0.800 F10800.000
G1 X139.643 Y98.653
G1 Z0.200
G1 E0.80000 F2100.00000
G1 F1200
G1 X152.336 Y98.663 E0.39798
G1 X152.336 Y111.347 E0.39772
G1 X139.643 Y111.347 E0.39798
G1 X139.643 Y98.713 E0.39614
G1 X139.296 Y98.395 F10800.000
G1 F1200
G1 X139.393 Y98.298 E0.00431
G1 X139.522 Y98.276 E0.00410
G1 X152.531 Y98.286 E0.40787
G1 X152.651 Y98.347 E0.00424
G1 X152.705 Y98.444 E0.00349
G1 X152.713 Y98.513 E0.00217
G1 X152.713 Y111.487 E0.40678
G1 X152.705 Y111.556 E0.00217
G1 X152.656 Y111.646 E0.00321
G1 X152.581 Y111.698 E0.00289
G1 X152.487 Y111.724 E0.00306
G1 X139.522 Y111.724 E0.40650
G1 X139.446 Y111.720 E0.00238
G1 X139.346 Y111.672 E0.00349
G1 X139.280 Y111.582 E0.00349
G1 X139.266 Y111.528 E0.00176
G1 X139.276 Y98.452 E0.41000
G1 X139.434 Y98.395 F10800.000
G1 F8640
G1 X139.393 Y98.298 E-0.04461
G1 X139.522 Y98.276 E-0.03023
G1 X142.489 Y98.278 E-0.68516
G1 E-0.04000 F2100.00000
G1 Z0.800 F10800.000
G1 X140.534 Y111.234
G1 Z0.200
G1 E0.80000 F2100.00000
G1 F1200
G1 X139.926 Y110.626 E0.02747
G1 X139.926 Y110.083 E0.01737
G1 X140.908 Y111.064 E0.04436
G1 X141.451 Y111.064 E0.01737
G1 X139.926 Y109.539 E0.06892
G1 X139.926 Y108.996 E0.01737
G1 X141.995 Y111.064 E0.09348
G1 X142.538 Y111.064 E0.01737
G1 X139.926 Y108.452 E0.11804
G1 X139.926 Y107.909 E0.01737
G1 X143.082 Y111.064 E0.14260
G1 X143.625 Y111.064 E0.01737
G1 X139.926 Y107.365 E0.16717
G1 X139.926 Y106.822 E0.01737
G1 X144.169 Y111.064 E0.19173
G1 X144.712 Y111.064 E0.01737
G1 X139.926 Y106.278 E0.21629
G1 X139.926 Y105.735 E0.01737
G1 X145.256 Y111.064 E0.24085
G1 X145.799 Y111.064 E0.01737
G1 X139.926 Y105.191 E0.26541
G1 X139.926 Y104.648 E0.01737
G1 X146.343 Y111.064 E0.28997
G1 X146.886 Y111.064 E0.01737
G1 X139.926 Y104.104 E0.31453
G1 X139.926 Y103.561 E0.01737
G1 X147.430 Y111.064 E0.33909
G1 X147.973 Y111.064 E0.01737
G1 X139.926 Y103.017 E0.36366
G1 X139.926 Y102.474 E0.01737
G1 X148.517 Y111.064 E0.38822
G1 X149.060 Y111.064 E0.01737
G1 X139.926 Y101.931 E0.41278
G1 X139.926 Y101.387 E0.01737
G1 X149.604 Y111.064 E0.43734
G1 X150.147 Y111.064 E0.01737
G1 X139.926 Y100.844 E0.46190
G1 X139.926 Y100.300 E0.01737
G1 X150.691 Y111.064 E0.48646
G1 X151.234 Y111.064 E0.01737
G1 X139.926 Y99.757 E0.51102
G1 X139.926 Y99.213 E0.01737
G1 X151.778 Y111.064 E0.53558
G1 X152.054 Y111.064 E0.00882
G1 X152.054 Y110.797 E0.00855
G1 X140.193 Y98.936 E0.53601
G1 X140.737 Y98.936 E0.01738
G1 X152.054 Y110.253 E0.51143
G1 X152.054 Y109.710 E0.01737
G1 X141.281 Y98.937 E0.48685
G1 X141.824 Y98.937 E0.01738
G1 X152.054 Y109.166 E0.46227
G1 X152.054 Y108.623 E0.01737
G1 X142.368 Y98.938 E0.43769
G1 X142.912 Y98.938 E0.01738
G1 X152.054 Y108.079 E0.41311
G1 X152.054 Y107.536 E0.01737
G1 X143.456 Y98.939 E0.38853
G1 X144.000 Y98.939 E0.01738
G1 X152.054 Y106.992 E0.36395
G1 X152.054 Y106.449 E0.01737
G1 X144.544 Y98.939 E0.33937
G1 X145.088 Y98.940 E0.01738
G1 X152.054 Y105.905 E0.31479
G1 X152.054 Y105.362 E0.01737
G1 X145.632 Y98.940 E0.29021
G1 X146.176 Y98.941 E0.01738
G1 X152.054 Y104.818 E0.26563
G1 X152.054 Y104.275 E0.01737
G1 X146.720 Y98.941 E0.24105
G1 X147.264 Y98.941 E0.01738
G1 X152.054 Y103.731 E0.21647
G1 X152.054 Y103.188 E0.01737
G1 X147.807 Y98.942 E0.19189
G1 X148.351 Y98.942 E0.01738
G1 X152.054 Y102.644 E0.16731
G1 X152.054 Y102.101 E0.01737
G1 X148.895 Y98.943 E0.14273
G1 X149.439 Y98.943 E0.01738
G1 X152.054 Y101.557 E0.11815
G1 X152.054 Y101.014 E0.01737
G1 X149.983 Y98.944 E0.09357
G1 X150.527 Y98.944 E0.01738
G1 X152.054 Y100.471 E0.06899
G1 X152.054 Y99.927 E0.01737
G1 X151.071 Y98.944 E0.04441
G1 X151.615 Y98.945 E0.01738
G1 X152.223 Y99.553 E0.02749
G1 F8640
G1 X151.615 Y98.945 E-0.19867
G1 X151.071 Y98.944 E-0.12559
G1 X152.054 Y99.927 E-0.32087
G1 X152.054 Y100.424 E-0.11487
G1 E-0.04000 F2100.00000
G1 Z0.800 F10800.000
G1 X131.344 Y98.663
G1 Z0.200
G1 E0.80000 F2100.00000
G1 F1200
G1 X131.344 Y111.347 E0.39772
G1 X118.651 Y111.347 E0.39798
G1 X118.651 Y98.653 E0.39803
G1 X131.284 Y98.663 E0.39609
G1 X131.623 Y98.317 F10800.000
G1 F1200
G1 X131.692 Y98.392 E0.00321
G1 X131.721 Y98.513 E0.00390
G1 X131.721 Y111.487 E0.40678
G1 X131.713 Y111.556 E0.00217
G1 X131.664 Y111.646 E0.00321
G1 X131.589 Y111.698 E0.00289
G1 X131.495 Y111.724 E0.00306
G1 X118.530 Y111.724 E0.40650
M73 Q3 S41
M73 P3 R40
G1 X118.454 Y111.720 E0.00238
G1 X118.354 Y111.672 E0.00349
G1 X118.288 Y111.582 E0.00349
G1 X118.274 Y111.528 E0.00176
G1 X118.274 Y98.481 E0.40908
G1 X118.304 Y98.395 E0.00285
G1 X118.361 Y98.323 E0.00289
G1 X118.454 Y98.280 E0.00320
G1 X118.530 Y98.276 E0.00238
G1 X131.567 Y98.296 E0.40876
G1 X131.620 Y98.419 F10800.000
G1 F8640
G1 X131.692 Y98.392 E-0.03650
G1 X131.721 Y98.513 E-0.02872
G1 X131.721 Y101.522 E-0.69479
G1 E-0.04000 F2100.00000
G1 Z0.800 F10800.000
G1 X131.231 Y99.553
G1 Z0.200
G1 E0.80000 F2100.00000
G1 F1200
G1 X130.623 Y98.945 E0.02749
G1 X130.079 Y98.944 E0.01738
G1 X131.061 Y99.927 E0.04441
G1 X131.061 Y100.471 E0.01737
G1 X129.535 Y98.944 E0.06899
G1 X128.991 Y98.944 E0.01738
G1 X131.061 Y101.014 E0.09357
G1 X131.061 Y101.557 E0.01737
G1 X128.447 Y98.943 E0.11815
G1 X127.903 Y98.943 E0.01738
G1 X131.061 Y102.101 E0.14273
G1 X131.061 Y102.644 E0.01737
G1 X127.359 Y98.942 E0.16731
G1 X126.815 Y98.942 E0.01738
G1 X131.061 Y103.188 E0.19189
G1 X131.061 Y103.731 E0.01737
G1 X126.271 Y98.941 E0.21647
G1 X125.728 Y98.941 E0.01738
G1 X131.061 Y104.275 E0.24105
G1 X131.061 Y104.818 E0.01737
G1 X125.184 Y98.941 E0.26563
G1 X124.640 Y98.940 E0.01738
G1 X131.061 Y105.362 E0.29021
G1 X131.061 Y105.905 E0.01737
G1 X124.096 Y98.940 E0.31479
G1 X123.552 Y98.939 E0.01738
G1 X131.061 Y106.449 E0.33937
G1 X131.061 Y106.992 E0.01737
G1 X123.008 Y98.939 E0.36395
G1 X122.464 Y98.939 E0.01738
G1 X131.061 Y107.536 E0.38853
G1 X131.061 Y108.079 E0.01737
G1 X121.920 Y98.938 E0.41311
G1 X121.376 Y98.938 E0.01738
G1 X131.061 Y108.623 E0.43769
G1 X131.061 Y109.166 E0.01737
G1 X120.832 Y98.937 E0.46227
G1 X120.288 Y98.937 E0.01738
G1 X131.061 Y109.710 E0.48685
G1 X131.061 Y110.253 E0.01737
G1 X119.745 Y98.936 E0.51143
G1 X119.201 Y98.936 E0.01738
G1 X131.061 Y110.797 E0.53601
G1 X131.061 Y111.064 E0.00855
G1 X130.786 Y111.064 E0.00881
G1 X118.934 Y99.213 E0.53558
G1 X118.934 Y99.757 E0.01737
G1 X130.242 Y111.064 E0.51102
G1 X129.699 Y111.064 E0.01737
G1 X118.934 Y100.300 E0.48646
G1 X118.934 Y100.844 E0.01737
G1 X129.155 Y111.064 E0.46190
G1 X128.612 Y111.064 E0.01737
G1 X118.934 Y101.387 E0.43734
G1 X118.934 Y101.930 E0.01737
G1 X128.068 Y111.064 E0.41278
G1 X127.525 Y111.064 E0.01737
G1 X118.934 Y102.474 E0.38822
G1 X118.934 Y103.017 E0.01737
G1 X126.981 Y111.064 E0.36366
G1 X126.438 Y111.064 E0.01737
G1 X118.934 Y103.561 E0.33910
G1 X118.934 Y104.104 E0.01737
G1 X125.894 Y111.064 E0.31453
G1 X125.351 Y111.064 E0.01737
G1 X118.934 Y104.648 E0.28997
G1 X118.934 Y105.191 E0.01737
G1 X124.807 Y111.064 E0.26541
G1 X124.264 Y111.064 E0.01737
G1 X118.934 Y105.735 E0.24085
G1 X118.934 Y106.278 E0.01737
G1 X123.720 Y111.064 E0.21629
G1 X123.177 Y111.064 E0.01737
G1 X118.934 Y106.822 E0.19173
G1 X118.934 Y107.365 E0.01737
G1 X122.633 Y111.064 E0.16717
G1 X122.090 Y111.064 E0.01737
G1 X118.934 Y107.909 E0.14261
G1 X118.934 Y108.452 E0.01737
G1 X121.546 Y111.064 E0.11805
G1 X121.003 Y111.064 E0.01737
G1 X118.934 Y108.996 E0.09348
G1 X118.934 Y109.539 E0.01737
G1 X120.459 Y111.064 E0.06892
G1 X119.916 Y111.064 E0.01737
G1 X118.934 Y110.083 E0.04436
G1 X118.934 Y110.626 E0.01737
G1 X119.542 Y111.234 E0.02747
G1 F8640
G1 X118.934 Y110.626 E-0.19849
G1 X118.934 Y110.083 E-0.12549
G1 X119.916 Y111.064 E-0.32055
G1 X120.416 Y111.064 E-0.11547
G1 E-0.04000 F2100.00000
G1 Z0.800 F10800.000
G1 X110.352 Y111.234
G1 Z0.200
G1 E0.80000 F2100.00000
G1 F1200
G1 X110.352 Y111.347 E0.00355
G1 X97.659 Y111.347 E0.39798
G1 X97.659 Y98.653 E0.39803
G1 X110.352 Y98.663 E0.39798
G1 X110.352 Y111.174 E0.39229
G1 X110.700 Y111.608 F10800.000
G1 F1200
G1 X110.597 Y111.698 E0.00431
G1 X110.503 Y111.724 E0.00306
G1 X97.538 Y111.724 E0.40650
G1 X97.462 Y111.720 E0.00238
G1 X97.361 Y111.672 E0.00349
G1 X97.296 Y111.582 E0.00349
G1 X97.282 Y111.528 E0.00176
G1 X97.282 Y98.481 E0.40908
G1 X97.312 Y98.395 E0.00285
G1 X97.369 Y98.323 E0.00289
G1 X97.462 Y98.280 E0.00320
G1 X97.538 Y98.276 E0.00238
G1 X110.546 Y98.286 E0.40787
G1 X110.667 Y98.347 E0.00424
G1 X110.720 Y98.444 E0.00349
G1 X110.729 Y98.513 E0.00217
G1 X110.721 Y111.552 E0.40881
G1 X110.563 Y111.602 F10800.000
G1 F8640
G1 X110.597 Y111.698 E-0.04440
G1 X110.503 Y111.724 E-0.02251
G1 X107.501 Y111.724 E-0.69309
G1 E-0.04000 F2100.00000
G1 Z0.800 F10800.000
G1 X110.239 Y99.553
G1 Z0.200
G1 E0.80000 F2100.00000
G1 F1200
G1 X109.631 Y98.945 E0.02749
G1 X109.087 Y98.944 E0.01738
G1 X110.069 Y99.927 E0.04441
G1 X110.069 Y100.471 E0.01737
G1 X108.543 Y98.944 E0.06899
G1 X107.999 Y98.944 E0.01738
G1 X110.069 Y101.014 E0.09357
G1 X110.069 Y101.557 E0.01737
G1 X107.455 Y98.943 E0.11815
G1 X106.911 Y98.943 E0.01738
G1 X110.069 Y102.101 E0.14273
G1 X110.069 Y102.644 E0.01737
G1 X106.367 Y98.942 E0.16731
G1 X105.823 Y98.942 E0.01738
G1 X110.069 Y103.188 E0.19189
G1 X110.069 Y103.731 E0.01737
G1 X105.279 Y98.941 E0.21647
G1 X104.735 Y98.941 E0.01738
G1 X110.069 Y104.275 E0.24105
G1 X110.069 Y104.818 E0.01737
G1 X104.191 Y98.941 E0.26563
G1 X103.648 Y98.940 E0.01738
G1 X110.069 Y105.362 E0.29021
G1 X110.069 Y105.905 E0.01737
G1 X103.104 Y98.940 E0.31479
G1 X102.560 Y98.939 E0.01738
G1 X110.069 Y106.449 E0.33937
G1 X110.069 Y106.992 E0.01737
G1 X102.016 Y98.939 E0.36395
G1 X101.472 Y98.939 E0.01738
G1 X110.069 Y107.536 E0.38853
G1 X110.069 Y108.079 E0.01737
G1 X100.928 Y98.938 E0.41311
G1 X100.384 Y98.938 E0.01738
G1 X110.069 Y108.623 E0.43769
G1 X110.069 Y109.166 E0.01737
G1 X99.840 Y98.937 E0.46227
G1 X99.296 Y98.937 E0.01738
G1 X110.069 Y109.710 E0.48685
G1 X110.069 Y110.253 E0.01737
G1 X98.752 Y98.936 E0.51143
G1 X98.208 Y98.936 E0.01738
G1 X110.069 Y110.797 E0.53601
G1 X110.069 Y111.064 E0.00855
G1 X109.793 Y111.064 E0.00881
G1 X97.942 Y99.213 E0.53558
G1 X97.942 Y99.757 E0.01737
G1 X109.250 Y111.064 E0.51102
G1 X108.706 Y111.064 E0.01737
G1 X97.942 Y100.300 E0.48646
G1 X97.942 Y100.844 E0.01737
G1 X108.163 Y111.064 E0.46190
G1 X107.620 Y111.064 E0.01737
G1 X97.942 Y101.387 E0.43734
G1 X97.942 Y101.930 E0.01737
G1 X107.076 Y111.064 E0.41278
G1 X106.533 Y111.064 E0.01737
G1 X97.942 Y102.474 E0.38822
G1 X97.942 Y103.017 E0.01737
G1 X105.989 Y111.064 E0.36366
G1 X105.446 Y111.064 E0.01737
G1 X97.942 Y103.561 E0.33910
G1 X97.942 Y104.104 E0.01737
G1 X104.902 Y111.064 E0.31453
G1 X104.359 Y111.064 E0.01737
G1 X97.942 Y104.648 E0.28997
G1 X97.942 Y105.191 E0.01737
G1 X103.815 Y111.064 E0.26541
G1 X103.272 Y111.064 E0.01737
G1 X97.942 Y105.735 E0.24085
G1 X97.942 Y106.278 E0.01737
G1 X102.728 Y111.064 E0.21629
G1 X102.185 Y111.064 E0.01737
G1 X97.942 Y106.822 E0.19173
G1 X97.942 Y107.365 E0.01737
G1 X101.641 Y111.064 E0.16717
G1 X101.098 Y111.064 E0.01737
G1 X97.942 Y107.909 E0.14261
G1 X97.942 Y108.452 E0.01737
G1 X100.554 Y111.064 E0.11805
G1 X100.011 Y111.064 E0.01737
G1 X97.942 Y108.996 E0.09348
G1 X97.942 Y109.539 E0.01737
G1 X99.467 Y111.064 E0.06892
G1 X98.924 Y111.064 E0.01737
G1 X97.942 Y110.083 E0.04436
G1 X97.942 Y110.626 E0.01737
G1 X98.550 Y111.234 E0.02747
M106 S255
;BEFORE_LAYER_CHANGE
G92 E0.0
;0.35


G1 F8640
G1 X97.942 Y110.626 E-0.19849
G1 X97.942 Y110.083 E-0.12549
G1 X98.924 Y111.064 E-0.32055
G1 X99.424 Y111.064 E-0.11547
G1 E-0.04000 F2100.00000
G1 Z0.800 F10800.000
;AFTER_LAYER_CHANGE
;0.35
M104 S205 ; set temperature
G1 X96.453 Y114.309
G1 Z0.350
G1 E0.80000 F2100.00000
G1 F3000
G1 X95.689 Y113.891 E0.02108
G1 X95.058 Y113.242 E0.02188
G1 X94.646 Y112.413 E0.02239
G1 X94.508 Y111.622 E0.01941
G1 X94.524 Y98.128 E0.32635
G1 X94.740 Y97.328 E0.02004
G1 X95.197 Y96.582 E0.02117
G1 X95.808 Y96.027 E0.01995
G1 X96.738 Y95.599 E0.02476
G1 X97.550 Y95.499 E0.01979
G1 X152.543 Y95.499 E1.33000
G1 X153.600 Y95.713 E0.02609
G1 X154.130 Y95.986 E0.01442
G1 X154.618 Y96.384 E0.01523
G1 X155.212 Y97.243 E0.02526
G1 X155.406 Y97.791 E0.01407
G1 X155.489 Y98.407 E0.01503
G1 X155.446 Y111.992 E0.32853
G1 X155.177 Y112.835 E0.02142
G1 X154.727 Y113.501 E0.01943
G1 X154.101 Y114.033 E0.01986
G1 X153.354 Y114.375 E0.01988
G1 X152.546 Y114.501 E0.01978
G1 X97.482 Y114.500 E1.33172
G1 X96.512 Y114.320 E0.02386
; PURGING FINISHED
G1 F8640
G1 X95.689 Y113.891 E-0.21443
G1 X95.058 Y113.242 E-0.20890
G1 X94.646 Y112.413 E-0.21381
G1 X94.554 Y111.889 E-0.12285
G1 E-0.04000 F2100.00000
G1 Z0.950 F10800.000
G1 X139.569 Y111.543
G1 Z0.350
G1 E0.80000 F2100.00000
M204 S800
G1 F2700
G1 X139.464 Y111.530 E0.00277
G1 X139.449 Y111.505 E0.00076
G1 X139.449 Y98.495 E0.33898
G1 X139.463 Y98.470 E0.00075
G1 X139.569 Y98.457 E0.00278
G1 X152.470 Y98.457 E0.33615
G1 X152.517 Y98.476 E0.00132
G1 X152.532 Y98.558 E0.00217
G1 X152.532 Y111.442 E0.33569
G1 X152.517 Y111.527 E0.00225
G1 X152.471 Y111.543 E0.00127
