; generated by Slic3r Prusa Edition 1.42.0-beta2+win64 on 2019-05-29 at 06:55:40

; 

; external perimeters extrusion width = 0.45mm
; perimeters extrusion width = 0.45mm
; infill extrusion width = 0.45mm
; solid infill extrusion width = 0.45mm
; top infill extrusion width = 0.40mm
; support material extrusion width = 0.35mm
; first layer extrusion width = 0.42mm

M73 P0 R204
M73 Q0 S206
M201 X1000 Y1000 Z1000 E8000 ; sets maximum accelerations, mm/sec^2
M203 X200 Y200 Z12 E120 ; sets maximum feedrates, mm/sec
M204 P1250 R1250 T1250 ; sets acceleration (P, T) and retract acceleration (R), mm/sec^2
M205 X8.00 Y8.00 Z0.40 E1.50 ; sets the jerk limits, mm/sec
M205 S0 T0 ; sets the minimum extruding and travel feed rate, mm/sec
M107
M107
M115 U3.6.0 ; tell printer latest fw version
M83  ; extruder relative mode
M104 S215 ; set extruder temp
M140 S60 ; set bed temp
M190 S60 ; wait for bed temp
M109 S215 ; wait for extruder temp
G28 W ; home all without mesh bed level
G80 ; mesh bed leveling
G21 ; set units to millimeters

; Send the filament type to the MMU2.0 unit.
; E stands for extruder number, F stands for filament type (0: default; 1:flex; 2: PVA)
M403 E0 F0
M403 E1 F0
M403 E2 F0
M403 E3 F0
M403 E4 F0


;go outside print area
G1 Y-3.0 F1000.0
G1 Z0.4 F1000.0
; select extruder
T1
; initial load
G1 X55.0 E29.0 F1073.0
M73 Q0 S205
M73 P0 R203
G1 X5.0 E29.0 F1800.0
G1 X55.0 E8.0 F2000.0
G1 Z0.3 F1000.0
G92 E0.0
G1 X240.0 E25.0  F2200.0
G1 Y-2.0 F1000.0
G1 X55.0 E25 F1400.0
G1 Z0.20 F1000.0
G1 X5.0 E4.0 F1000.0
G92 E0.0


M221 S95
G90 ; use absolute coordinates
M83 ; use relative distances for extrusion
G92 E0.0
M900 K30 ; Filament gcode
G21 ; set units to millimeters
G90 ; use absolute coordinates
M83 ; use relative distances for extrusion
T1
M900 K30 ; Filament gcode
;BEFORE_LAYER_CHANGE
G92 E0.0
;0.2


G1 E-0.80000 F2100.00000
G1 Z0.600 F10800.000
;AFTER_LAYER_CHANGE
;0.2
G1 X79.323 Y89.822
G1 Z0.200
G1 E0.80000 F2100.00000
M204 S1000
G1 F2520
G1 X169.981 Y89.779 E2.84253
G1 X171.092 Y89.809 E0.03484
G1 X171.859 Y90.090 E0.02563
G1 X179.524 Y94.805 E0.28214
G1 X180.057 Y95.331 E0.02349
G1 X180.382 Y96.006 E0.02349
G1 X180.465 Y96.594 E0.01862
G1 X180.461 Y119.070 E0.70471
G1 X180.318 Y119.728 E0.02112
G1 X179.981 Y120.311 E0.02112
G1 X179.486 Y120.763 E0.02100
G1 X178.874 Y121.044 E0.02112
G1 X178.283 Y121.127 E0.01873
G1 X135.985 Y121.126 E1.32620
G1 X91.119 Y118.629 E1.40894
G1 X90.631 Y118.522 E0.01567
G1 X70.383 Y111.534 E0.67159
G1 X69.904 Y111.271 E0.01714
G1 X69.506 Y110.901 E0.01703
G1 X69.211 Y110.440 E0.01714
G1 X69.040 Y109.925 E0.01703
G1 X68.998 Y101.026 E0.27903
G1 X69.064 Y100.534 E0.01555
G1 X69.238 Y100.073 E0.01544
G1 X69.582 Y99.581 E0.01885
G1 X78.189 Y90.434 E0.39378
G1 X78.710 Y90.042 E0.02044
G1 X79.266 Y89.842 E0.01855
G1 F8640
G1 X82.558 Y89.840 E-0.76000
G1 E-0.04000 F2100.00000
G1 Z0.800 F10800.000
G1 X71.186 Y101.070
G1 Z0.200
G1 E0.80000 F2100.00000
G1 F2520
G1 X71.186 Y109.498 E0.26426
G1 X71.940 Y109.498 E0.02365
G1 X71.940 Y101.239 E0.25894
G1 X72.694 Y101.239 E0.02365
G1 X72.694 Y109.498 E0.25894
G1 X73.449 Y109.498 E0.02365
G1 X73.449 Y101.239 E0.25894
G1 X74.203 Y101.239 E0.02365
G1 X74.203 Y109.498 E0.25894
G1 X74.957 Y109.498 E0.02365
G1 X74.957 Y101.239 E0.25894
G1 X75.711 Y101.239 E0.02365
G1 X75.711 Y109.498 E0.25894
G1 X76.465 Y109.498 E0.02365
G1 X76.465 Y101.239 E0.25894
G1 X77.219 Y101.239 E0.02365
G1 X77.219 Y109.498 E0.25894
G1 X77.974 Y109.498 E0.02365
G1 X77.974 Y94.286 E0.47696
G1 X78.728 Y94.286 E0.02365
G1 X78.728 Y109.498 E0.47696
G1 X79.482 Y109.498 E0.02365
G1 X79.482 Y94.286 E0.47696
G1 X79.750 Y94.286 E0.00839
G1 X79.750 Y91.968 E0.07267
G1 X80.236 Y91.968 E0.01525
G1 X80.236 Y109.498 E0.54963
G1 X80.990 Y109.498 E0.02365
G1 X80.990 Y91.968 E0.54963
G1 X81.744 Y91.968 E0.02365
G1 X81.744 Y109.498 E0.54963
G1 X82.499 Y109.498 E0.02365
G1 X82.499 Y91.968 E0.54963
G1 X83.253 Y91.968 E0.02365
G1 X83.253 Y109.498 E0.54963
G1 X84.007 Y109.498 E0.02365
G1 X84.007 Y91.968 E0.54963
G1 X84.761 Y91.968 E0.02365
G1 X84.761 Y109.498 E0.54963
G1 X85.515 Y109.498 E0.02365
G1 X85.515 Y91.968 E0.54963
G1 X86.269 Y91.968 E0.02365
G1 X86.269 Y109.498 E0.54963
G1 X87.023 Y109.498 E0.02365
G1 X87.023 Y91.968 E0.54963
G1 X87.778 Y91.968 E0.02365
G1 X87.778 Y109.498 E0.54963
G1 X88.532 Y109.498 E0.02365
G1 X88.532 Y94.286 E0.47696
G1 X89.286 Y94.286 E0.02365
G1 X89.286 Y109.498 E0.47696
G1 X90.040 Y109.498 E0.02365
G1 X90.040 Y94.286 E0.47696
G1 X90.794 Y94.286 E0.02365
G1 X90.794 Y109.498 E0.47696
G1 X91.339 Y109.498 E0.01707
G1 X91.339 Y116.451 E0.21802
G1 X91.548 Y116.451 E0.00658
G1 X91.548 Y94.286 E0.69498
G1 X92.303 Y94.286 E0.02365
G1 X92.303 Y116.451 E0.69498
G1 X93.057 Y116.451 E0.02365
G1 X93.057 Y96.604 E0.62230
G1 X93.811 Y96.604 E0.02365
G1 X93.811 Y116.451 E0.62230
G1 X94.565 Y116.451 E0.02365
G1 X94.565 Y96.604 E0.62230
G1 X95.319 Y96.604 E0.02365
G1 X95.319 Y116.621 E0.62762
G1 F8640
G1 X95.319 Y113.329 E-0.76000
G1 E-0.04000 F2100.00000
G1 Z0.800 F10800.000
G1 X99.339 Y113.624
G1 Z0.200
G1 E0.80000 F2100.00000
G1 F2520
G1 X99.339 Y106.527 E0.18120
G1 X98.821 Y106.527 E0.01322
G1 X98.821 Y111.163 E0.11837
G1 X98.303 Y111.163 E0.01322
G1 X98.303 Y106.527 E0.11837
G1 X97.786 Y106.527 E0.01322
G1 X97.786 Y111.163 E0.11837
G1 X97.268 Y111.163 E0.01322
G1 X97.268 Y106.527 E0.11837
G1 X96.750 Y106.527 E0.01322
G1 X96.750 Y111.306 E0.12202
G1 F8640
G1 X96.750 Y108.015 E-0.76000
G1 E-0.04000 F2100.00000
G1 Z0.800 F10800.000
G1 X100.598 Y112.100
G1 Z0.200
G1 E0.80000 F2100.00000
G1 F2520
G1 X100.598 Y109.801 E0.07208
G1 X100.779 Y109.828 E0.00571
G1 X100.708 Y110.556 E0.02294
G1 X100.928 Y110.511 E0.00704
G1 X101.063 Y111.167 E0.02102
G1 X101.318 Y111.333 E0.00955
G1 X101.353 Y111.450 E0.00381
G1 X101.353 Y111.924 E0.01485
G1 F8640
G1 X101.353 Y111.450 E-0.10937
G1 X101.318 Y111.333 E-0.02803
G1 X101.063 Y111.167 E-0.07034
G1 X100.928 Y110.511 E-0.15479
G1 X100.708 Y110.556 E-0.05185
G1 X100.779 Y109.828 E-0.16893
G1 X100.598 Y109.801 E-0.04206
G1 X100.598 Y110.385 E-0.13462
G1 E-0.04000 F2100.00000
G1 Z0.800 F10800.000
G1 X101.353 Y110.802
G1 Z0.200
G1 E0.80000 F2100.00000
G1 F2520
G1 X101.353 Y110.012 E0.02475
G1 F8640
G1 X101.353 Y110.802 E-0.18230
G1 E-0.61770 F2100.00000
G1 Z0.800 F10800.000
G1 X101.928 Y113.624
G1 Z0.200
G1 E0.80000 F2100.00000
G1 F2520
G1 X101.928 Y110.917 E0.06912
G1 X101.899 Y110.991 E0.00204
G1 X101.414 Y110.981 E0.01241
G1 X101.615 Y111.112 E0.00615
G1 X101.733 Y111.512 E0.01063
G1 X101.495 Y112.040 E0.01481
G1 X101.410 Y112.107 E0.00276
G1 X101.410 Y113.481 E0.03507
G1 X100.893 Y113.481 E0.01322
G1 X100.893 Y112.285 E0.03052
G1 X100.635 Y112.335 E0.00669
G1 X100.375 Y112.168 E0.00790
G1 X100.375 Y113.481 E0.03351
G1 X99.857 Y113.481 E0.01322
G1 X99.857 Y110.483 E0.07654
G1 X99.652 Y109.849 E0.01701
G1 X99.857 Y109.607 E0.00810
G1 X99.857 Y106.527 E0.07863
G1 X100.375 Y106.527 E0.01322
G1 X100.375 Y109.418 E0.07381
G1 X100.893 Y109.492 E0.01336
G1 X100.893 Y106.527 E0.07570
G1 X101.262 Y106.527 E0.00944
G1 X101.262 Y108.845 E0.05918
G1 X101.410 Y108.845 E0.00378
G1 X101.410 Y109.736 E0.02275
G1 X101.453 Y109.701 E0.00141
G1 X101.928 Y109.981 E0.01407
G1 X101.928 Y108.845 E0.02899
G1 X102.446 Y108.845 E0.01322
G1 X102.446 Y113.481 E0.11837
G1 X102.964 Y113.481 E0.01322
G1 X102.964 Y108.845 E0.11837
G1 X103.482 Y108.845 E0.01322
G1 X103.482 Y113.624 E0.12202
G1 F8640
G1 X103.482 Y110.332 E-0.76000
G1 E-0.04000 F2100.00000
G1 Z0.800 F10800.000
G1 X103.615 Y96.434
G1 Z0.200
G1 E0.80000 F2100.00000
G1 F2520
G1 X103.615 Y108.498 E0.37825
G1 X102.861 Y108.498 E0.02365
G1 X102.861 Y96.604 E0.37293
G1 X102.107 Y96.604 E0.02365
G1 X102.107 Y108.498 E0.37293
G1 X101.610 Y108.498 E0.01558
G1 X101.610 Y106.180 E0.07267
G1 X101.353 Y106.180 E0.00807
G1 X101.353 Y96.604 E0.30025
G1 X100.598 Y96.604 E0.02365
G1 X100.598 Y106.180 E0.30025
G1 X99.844 Y106.180 E0.02365
G1 X99.844 Y96.604 E0.30025
G1 X99.090 Y96.604 E0.02365
G1 X99.090 Y106.180 E0.30025
G1 X98.336 Y106.180 E0.02365
G1 X98.336 Y96.604 E0.30025
G1 X97.582 Y96.604 E0.02365
G1 X97.582 Y106.180 E0.30026
G1 X96.828 Y106.180 E0.02365
G1 X96.828 Y96.604 E0.30026
G1 X96.073 Y96.604 E0.02365
G1 X96.073 Y116.451 E0.62230
G1 X96.828 Y116.451 E0.02365
G1 X96.828 Y111.511 E0.15491
G1 X97.582 Y111.511 E0.02365
G1 X97.582 Y116.451 E0.15491
G1 X98.336 Y116.451 E0.02365
G1 X98.336 Y111.511 E0.15491
G1 X98.597 Y111.511 E0.00819
G1 X98.597 Y113.828 E0.07267
G1 X99.090 Y113.828 E0.01546
G1 X99.090 Y116.451 E0.08223
G1 X99.844 Y116.451 E0.02365
G1 X99.844 Y113.828 E0.08223
G1 X100.598 Y113.828 E0.02365
G1 X100.598 Y116.451 E0.08223
G1 X101.353 Y116.451 E0.02365
G1 X101.353 Y113.828 E0.08223
G1 X102.107 Y113.828 E0.02365
G1 X102.107 Y116.451 E0.08224
G1 X102.861 Y116.451 E0.02365
G1 X102.861 Y113.828 E0.08224
G1 X103.615 Y113.828 E0.02365
G1 X103.615 Y116.451 E0.08224
G1 X104.369 Y116.451 E0.02365
G1 X104.369 Y96.604 E0.62230
G1 X105.123 Y96.604 E0.02365
G1 X105.123 Y116.451 E0.62230
G1 X105.877 Y116.451 E0.02365
G1 X105.877 Y96.604 E0.62230
G1 X106.550 Y96.604 E0.02110
G1 X106.550 Y98.921 E0.07267
G1 X106.632 Y98.921 E0.00255
G1 X106.632 Y114.133 E0.47696
G1 X107.386 Y114.133 E0.02365
G1 X107.386 Y98.921 E0.47696
G1 X108.140 Y98.921 E0.02365
G1 X108.140 Y114.133 E0.47696
G1 X108.894 Y114.133 E0.02365
G1 X108.894 Y98.921 E0.47696
G1 X109.648 Y98.921 E0.02365
G1 X109.648 Y114.133 E0.47696
G1 X110.402 Y114.133 E0.02365
G1 X110.402 Y94.286 E0.62230
G1 X111.157 Y94.286 E0.02365
G1 X111.157 Y114.133 E0.62230
G1 X111.186 Y114.133 E0.00092
G1 X111.186 Y111.815 E0.07267
G1 X111.911 Y111.815 E0.02272
G1 X111.911 Y94.286 E0.54963
G1 X112.665 Y94.286 E0.02365
G1 X112.665 Y111.815 E0.54963
G1 X113.419 Y111.815 E0.02365
G1 X113.419 Y94.286 E0.54963
G1 X114.173 Y94.286 E0.02365
G1 X114.173 Y111.815 E0.54963
G1 X114.517 Y111.815 E0.01077
G1 X114.517 Y116.451 E0.14535
G1 X114.927 Y116.451 E0.01288
G1 X114.927 Y94.286 E0.69498
M73 Q0 S204
G1 X115.682 Y94.286 E0.02365
G1 X115.682 Y116.451 E0.69498
M73 P0 R202
G1 X116.436 Y116.451 E0.02365
G1 X116.436 Y94.286 E0.69498
G1 X117.190 Y94.286 E0.02365
G1 X117.190 Y116.451 E0.69498
G1 X117.944 Y116.451 E0.02365
G1 X117.944 Y94.286 E0.69498
G1 X118.139 Y94.286 E0.00613
G1 X118.139 Y96.604 E0.07267
G1 X118.698 Y96.604 E0.01752
G1 X118.698 Y116.451 E0.62230
G1 X119.452 Y116.451 E0.02365
G1 X119.452 Y96.604 E0.62230
G1 X120.206 Y96.604 E0.02365
G1 X120.206 Y116.451 E0.62230
G1 X120.961 Y116.451 E0.02365
G1 X120.961 Y96.604 E0.62230
G1 X121.470 Y96.604 E0.01597
G1 X121.470 Y91.968 E0.14535
G1 X121.715 Y91.968 E0.00767
G1 X121.715 Y116.451 E0.76765
G1 X122.469 Y116.451 E0.02365
G1 X122.469 Y91.968 E0.76765
G1 X123.223 Y91.968 E0.02365
G1 X123.223 Y116.451 E0.76765
G1 X123.977 Y116.451 E0.02365
G1 X123.977 Y91.968 E0.76765
G1 X124.731 Y91.968 E0.02365
G1 X124.731 Y116.451 E0.76765
G1 X125.486 Y116.451 E0.02365
G1 X125.486 Y91.968 E0.76765
G1 X126.240 Y91.968 E0.02365
G1 X126.240 Y116.621 E0.77297
G1 F8640
G1 X126.240 Y113.329 E-0.76000
G1 E-0.04000 F2100.00000
G1 Z0.800 F10800.000
G1 X136.044 Y118.939
G1 Z0.200
G1 E0.80000 F2100.00000
G1 F2520
G1 X136.044 Y99.921 E0.59627
G1 X135.290 Y99.921 E0.02365
G1 X135.290 Y118.769 E0.59095
G1 X134.536 Y118.769 E0.02365
G1 X134.536 Y99.921 E0.59095
G1 X134.059 Y99.921 E0.01493
G1 X134.059 Y102.239 E0.07267
G1 X133.781 Y102.239 E0.00871
G1 X133.781 Y118.769 E0.51828
G1 X133.059 Y118.769 E0.02264
G1 X133.059 Y116.451 E0.07267
G1 X133.027 Y116.451 E0.00100
G1 X133.027 Y102.239 E0.44560
G1 X132.273 Y102.239 E0.02365
G1 X132.273 Y116.451 E0.44560
G1 X131.519 Y116.451 E0.02365
G1 X131.519 Y102.239 E0.44560
G1 X130.765 Y102.239 E0.02365
G1 X130.765 Y116.451 E0.44560
G1 X130.011 Y116.451 E0.02365
G1 X130.011 Y102.239 E0.44560
G1 X129.256 Y102.239 E0.02365
G1 X129.256 Y116.451 E0.44560
G1 X128.502 Y116.451 E0.02365
G1 X128.502 Y99.921 E0.51827
G1 X127.748 Y99.921 E0.02365
G1 X127.748 Y116.451 E0.51827
G1 X126.994 Y116.451 E0.02365
G1 X126.994 Y99.921 E0.51827
G1 X126.411 Y99.921 E0.01829
G1 X126.411 Y94.591 E0.16714
G1 X126.994 Y94.591 E0.01829
G1 X126.994 Y91.968 E0.08224
G1 X127.748 Y91.968 E0.02365
G1 X127.748 Y94.591 E0.08224
G1 X128.502 Y94.591 E0.02365
G1 X128.502 Y91.968 E0.08223
G1 X129.256 Y91.968 E0.02365
G1 X129.256 Y94.591 E0.08223
G1 X130.011 Y94.591 E0.02365
G1 X130.011 Y91.968 E0.08223
G1 X130.765 Y91.968 E0.02365
G1 X130.765 Y94.591 E0.08223
G1 X131.519 Y94.591 E0.02365
G1 X131.519 Y91.968 E0.08223
G1 X132.273 Y91.968 E0.02365
G1 X132.273 Y94.591 E0.08223
G1 X133.027 Y94.591 E0.02365
G1 X133.027 Y91.968 E0.08223
G1 X133.781 Y91.968 E0.02365
G1 X133.781 Y94.591 E0.08223
G1 X134.536 Y94.591 E0.02365
G1 X134.536 Y91.968 E0.08223
G1 X135.290 Y91.968 E0.02365
G1 X135.290 Y94.591 E0.08223
G1 X136.044 Y94.591 E0.02365
G1 X136.044 Y91.968 E0.08223
G1 X136.798 Y91.968 E0.02365
G1 X136.798 Y118.769 E0.84032
G1 X137.552 Y118.769 E0.02365
G1 X137.552 Y91.968 E0.84032
G1 X138.306 Y91.968 E0.02365
G1 X138.306 Y118.939 E0.84564
G1 F8640
G1 X138.306 Y115.647 E-0.76000
G1 E-0.04000 F2100.00000
G1 Z0.800 F10800.000
G1 X135.586 Y99.717
G1 Z0.200
G1 E0.80000 F2100.00000
G1 F2520
G1 X135.586 Y94.938 E0.12202
G1 X135.068 Y94.938 E0.01322
G1 X135.068 Y99.574 E0.11837
G1 X134.550 Y99.574 E0.01322
G1 X134.550 Y97.964 E0.04110
G1 X134.032 Y98.296 E0.01571
G1 X134.032 Y99.574 E0.03262
G1 X133.712 Y99.574 E0.00819
G1 X133.712 Y101.892 E0.05918
G1 X133.514 Y101.892 E0.00504
G1 X133.514 Y98.403 E0.08907
G1 X132.997 Y98.488 E0.01340
G1 X132.997 Y101.892 E0.08692
G1 X132.479 Y101.892 E0.01322
G1 X132.479 Y99.569 E0.05931
G1 X131.961 Y99.784 E0.01432
G1 X131.961 Y101.892 E0.05382
G1 X131.443 Y101.892 E0.01322
G1 X131.443 Y99.895 E0.05097
G1 X130.925 Y99.882 E0.01323
G1 X130.925 Y101.892 E0.05132
G1 X130.408 Y101.892 E0.01322
G1 X130.408 Y99.868 E0.05167
G1 X130.117 Y99.860 E0.00743
G1 X129.890 Y99.793 E0.00604
G1 X129.890 Y101.892 E0.05360
G1 X129.372 Y101.892 E0.01322
G1 X129.372 Y99.602 E0.05847
G1 X129.179 Y99.525 E0.00530
G1 X128.854 Y99.329 E0.00969
G1 X128.854 Y99.574 E0.00626
G1 X128.336 Y99.574 E0.01322
G1 X128.336 Y98.959 E0.01570
G1 X128.305 Y98.921 E0.00126
G1 X127.819 Y97.562 E0.03686
G1 X127.819 Y99.574 E0.05137
G1 X127.301 Y99.574 E0.01322
G1 X127.301 Y94.938 E0.11837
G1 X127.819 Y94.938 E0.01322
G1 X127.819 Y95.693 E0.01927
G1 X127.987 Y95.644 E0.00447
G1 X128.275 Y95.653 E0.00736
G1 X128.124 Y95.390 E0.00774
G1 X128.336 Y95.268 E0.00627
G1 X128.336 Y94.938 E0.00841
G1 X128.854 Y94.938 E0.01322
G1 X128.854 Y95.142 E0.00521
G1 F8640
G1 X128.854 Y94.938 E-0.04712
G1 X128.336 Y94.938 E-0.11956
G1 X128.336 Y95.268 E-0.07604
G1 X128.124 Y95.390 E-0.05667
G1 X128.275 Y95.653 E-0.07002
G1 X127.987 Y95.644 E-0.06652
G1 X127.819 Y95.693 E-0.04041
G1 X127.819 Y94.938 E-0.17427
G1 X127.345 Y94.938 E-0.10939
G1 E-0.04000 F2100.00000
G1 Z0.800 F10800.000
G1 X126.783 Y94.795
G1 Z0.200
G1 E0.80000 F2100.00000
G1 F2520
G1 X126.783 Y99.717 E0.12567
G1 F8640
G1 X126.783 Y96.426 E-0.76000
G1 E-0.04000 F2100.00000
G1 Z0.800 F10800.000
G1 X128.502 Y98.881
G1 Z0.200
G1 E0.80000 F2100.00000
G1 F2520
G1 X128.502 Y96.007 E0.09010
G1 X128.899 Y96.041 E0.01247
G1 X128.598 Y95.518 E0.01892
G1 X128.903 Y95.343 E0.01104
G1 X129.256 Y95.257 E0.01140
G1 X129.256 Y99.166 E0.12258
G1 X129.363 Y99.228 E0.00387
G1 X130.011 Y99.467 E0.02164
G1 X130.011 Y95.082 E0.13747
G1 X130.473 Y94.976 E0.01488
G1 X130.765 Y95.000 E0.00918
G1 X130.765 Y99.530 E0.14203
G1 X131.519 Y99.550 E0.02365
G1 X131.519 Y96.198 E0.10509
G1 X131.957 Y96.315 E0.01420
G1 X132.107 Y96.195 E0.00603
G1 X132.089 Y95.861 E0.01049
G1 X132.273 Y95.851 E0.00578
G1 X132.273 Y99.462 E0.11322
G1 F8640
G1 X132.273 Y96.170 E-0.76000
G1 E-0.04000 F2100.00000
G1 Z0.800 F10800.000
G1 X133.027 Y98.303
G1 Z0.200
G1 E0.80000 F2100.00000
G1 F2520
G1 X133.027 Y95.812 E0.07808
G1 X133.781 Y95.978 E0.02421
G1 X133.781 Y96.157 E0.00561
G1 X133.541 Y96.262 E0.00822
G1 X133.487 Y96.504 E0.00777
G1 X133.608 Y96.935 E0.01406
G1 X133.781 Y96.974 E0.00556
G1 X133.781 Y98.180 E0.03781
G1 F8640
G1 X133.781 Y96.974 E-0.27845
