; generated by Slic3r Prusa Edition 1.41.0+win64 on 2019-02-11 at 08:53:09

; 

; external perimeters extrusion width = 0.45mm
; perimeters extrusion width = 0.45mm
; infill extrusion width = 0.45mm
; solid infill extrusion width = 0.45mm
; top infill extrusion width = 0.40mm
; first layer extrusion width = 0.42mm

M201 X1000 Y1000 Z1000 E8000 ; sets maximum accelerations, mm/sec^2
M203 X200 Y200 Z12 E120 ; sets maximum feedrates, mm/sec
M204 P1250 R1250 T1250 ; sets acceleration (P, T) and retract acceleration (R), mm/sec^2
M205 X8.00 Y8.00 Z0.40 E1.50 ; sets the jerk limits, mm/sec
M205 S0 T0 ; sets the minimum extruding and travel feed rate, mm/sec
M107
M107
M115 U3.4.1 ; tell printer latest fw version
M83  ; extruder relative mode
M104 S215 ; set extruder temp
M140 S60 ; set bed temp
M190 S60 ; wait for bed temp
M109 S215 ; wait for extruder temp
G28 W ; home all without mesh bed level
G80 ; mesh bed leveling
G21 ; set units to millimeters

; Send the filament type to the MMU2.0 unit.
; E stands for extruder number, F stands for filament type (0: default; 1:flex; 2: PVA)
M403 E0 F0
M403 E1 F0
M403 E2 F0
M403 E3 F0
M403 E4 F0


;go outside print area
G1 Y-3.0 F1000.0
G1 Z0.4 F1000.0
; select extruder
T1
; initial load
G1 X55.0 E32.0 F1073.0
M73 Q0 S147
M73 P0 R147
G1 X5.0 E32.0 F1800.0
G1 X55.0 E8.0 F2000.0
G1 Z0.3 F1000.0
G92 E0.0
G1 X240.0 E25.0  F2200.0
G1 Y-2.0 F1000.0
G1 X55.0 E25 F1400.0
G1 Z0.20 F1000.0
G1 X5.0 E4.0 F1000.0
G92 E0.0


M221 S95
G90 ; use absolute coordinates
M83 ; use relative distances for extrusion
G92 E0.0
M900 K30; Filament gcode
G21 ; set units to millimeters
G90 ; use absolute coordinates
M83 ; use relative distances for extrusion
T1
M900 K30; Filament gcode
;BEFORE_LAYER_CHANGE
G92 E0.0
;0.2


G1 E-0.80000 F2100.00000
G1 Z0.600 F10800.000
;AFTER_LAYER_CHANGE
;0.2
G1 X99.127 Y77.993
G1 Z0.200
G1 E0.80000 F2100.00000
M204 S1000
G1 F1200
G1 X99.972 Y77.812 E0.02709
G1 X149.904 Y77.811 E1.56557
G1 X150.723 Y77.972 E0.02620
G1 X151.426 Y78.431 E0.02631
G1 X151.903 Y79.117 E0.02620
G1 X152.088 Y79.936 E0.02631
G1 X152.088 Y129.926 E1.56740
G1 X151.926 Y130.727 E0.02563
G1 X151.482 Y131.413 E0.02563
G1 X150.763 Y131.911 E0.02743
G1 X149.902 Y132.089 E0.02754
G1 X99.974 Y132.088 E1.56545
G1 X99.173 Y131.926 E0.02563
G1 X98.487 Y131.482 E0.02563
G1 X97.989 Y130.763 E0.02743
G1 X97.811 Y129.902 E0.02754
G1 X97.812 Y79.974 E1.56545
G1 X97.974 Y79.173 E0.02563
G1 X98.418 Y78.487 E0.02563
G1 X99.078 Y78.027 E0.02521
; PURGING FINISHED
G1 F8640
G1 X99.972 Y77.812 E-0.21237
G1 X102.344 Y77.812 E-0.54763
G1 E-0.04000 F2100.00000
G1 Z0.800 F10800.000
G1 X100.587 Y80.587
G1 Z0.200
G1 E0.80000 F2100.00000
G1 F1200
G1 X149.313 Y80.587 E1.52776
G1 X149.313 Y129.313 E1.52776
G1 X100.587 Y129.313 E1.52776
G1 X100.587 Y80.647 E1.52588
G1 X100.210 Y80.210 F10800.000
G1 F1200
G1 X149.690 Y80.210 E1.55141
G1 X149.690 Y129.690 E1.55141
G1 X100.210 Y129.690 E1.55141
G1 X100.210 Y80.270 E1.54953
G1 X100.596 Y80.314 F10800.000
G1 F8640
G1 X103.501 Y80.266 E-0.76000
G1 E-0.04000 F2100.00000
G1 Z0.800 F10800.000
G1 X101.463 Y129.200
G1 Z0.200
G1 E0.80000 F2100.00000
G1 F1200
G1 X100.870 Y128.607 E0.02629
G1 X100.870 Y128.074 E0.01673
G1 X101.826 Y129.030 E0.04242
G1 X102.360 Y129.030 E0.01673
G1 X100.870 Y127.540 E0.06608
G1 X100.870 Y127.007 E0.01673
G1 X102.893 Y129.030 E0.08973
G1 X103.426 Y129.030 E0.01673
G1 X100.870 Y126.474 E0.11339
G1 X100.870 Y125.940 E0.01673
G1 X103.960 Y129.030 E0.13704
G1 X104.493 Y129.030 E0.01673
G1 X100.870 Y125.407 E0.16070
G1 X100.870 Y124.873 E0.01673
G1 X105.027 Y129.030 E0.18435
G1 X105.560 Y129.030 E0.01673
G1 X100.870 Y124.340 E0.20801
G1 X100.870 Y123.807 E0.01673
G1 X106.093 Y129.030 E0.23166
G1 X106.627 Y129.030 E0.01673
G1 X100.870 Y123.273 E0.25532
G1 X100.870 Y122.740 E0.01673
G1 X107.160 Y129.030 E0.27898
G1 X107.694 Y129.030 E0.01673
G1 X100.870 Y122.206 E0.30263
G1 X100.870 Y121.673 E0.01673
G1 X108.227 Y129.030 E0.32629
G1 X108.760 Y129.030 E0.01673
G1 X100.870 Y121.140 E0.34994
G1 X100.870 Y120.606 E0.01673
G1 X109.294 Y129.030 E0.37360
G1 X109.827 Y129.030 E0.01673
G1 X100.870 Y120.073 E0.39725
G1 X100.870 Y119.540 E0.01673
G1 X110.360 Y129.030 E0.42091
G1 X110.894 Y129.030 E0.01673
G1 X100.870 Y119.006 E0.44456
M73 Q0 S146
G1 X100.870 Y118.473 E0.01673
G1 X111.427 Y129.030 E0.46822
M73 P0 R146
G1 X111.961 Y129.030 E0.01673
G1 X100.870 Y117.939 E0.49187
G1 X100.870 Y117.406 E0.01673
G1 X112.494 Y129.030 E0.51553
G1 X113.027 Y129.030 E0.01673
G1 X100.870 Y116.873 E0.53919
G1 X100.870 Y116.339 E0.01673
G1 X113.561 Y129.030 E0.56284
G1 X114.094 Y129.030 E0.01673
G1 X100.870 Y115.806 E0.58650
G1 X100.870 Y115.273 E0.01673
G1 X114.627 Y129.030 E0.61015
G1 X115.161 Y129.030 E0.01673
G1 X100.870 Y114.739 E0.63381
G1 X100.870 Y114.206 E0.01673
G1 X115.694 Y129.030 E0.65746
G1 X116.228 Y129.030 E0.01673
G1 X100.870 Y113.672 E0.68112
G1 X100.870 Y113.139 E0.01673
G1 X116.761 Y129.030 E0.70477
G1 X117.294 Y129.030 E0.01673
G1 X100.870 Y112.606 E0.72843
G1 X100.870 Y112.072 E0.01673
G1 X117.828 Y129.030 E0.75208
G1 X118.361 Y129.030 E0.01673
G1 X100.870 Y111.539 E0.77574
G1 X100.870 Y111.006 E0.01673
G1 X118.894 Y129.030 E0.79940
G1 X119.428 Y129.030 E0.01673
G1 X100.870 Y110.472 E0.82305
G1 X100.870 Y109.939 E0.01673
G1 X119.961 Y129.030 E0.84671
G1 X120.495 Y129.030 E0.01673
G1 X100.870 Y109.405 E0.87036
G1 X100.870 Y108.872 E0.01673
G1 X121.028 Y129.030 E0.89402
G1 X121.561 Y129.030 E0.01673
G1 X100.870 Y108.339 E0.91767
G1 X100.870 Y107.805 E0.01673
G1 X122.095 Y129.030 E0.94133
G1 X122.628 Y129.030 E0.01673
G1 X100.870 Y107.272 E0.96498
G1 X100.870 Y106.739 E0.01673
G1 X123.161 Y129.030 E0.98864
G1 X123.695 Y129.030 E0.01673
G1 X100.870 Y106.205 E1.01230
G1 X100.870 Y105.672 E0.01673
G1 X124.228 Y129.030 E1.03595
G1 X124.762 Y129.030 E0.01673
G1 X100.870 Y105.138 E1.05961
G1 X100.870 Y104.605 E0.01673
G1 X125.295 Y129.030 E1.08326
G1 X125.828 Y129.030 E0.01673
G1 X100.870 Y104.072 E1.10692
G1 X100.870 Y103.538 E0.01673
G1 X126.362 Y129.030 E1.13057
G1 X126.895 Y129.030 E0.01673
G1 X100.870 Y103.005 E1.15423
G1 X100.870 Y102.472 E0.01673
G1 X127.428 Y129.030 E1.17788
G1 X127.962 Y129.030 E0.01673
G1 X100.870 Y101.938 E1.20154
G1 X100.870 Y101.405 E0.01673
G1 X128.495 Y129.030 E1.22519
G1 X129.029 Y129.030 E0.01673
G1 X100.870 Y100.871 E1.24885
G1 X100.870 Y100.338 E0.01673
G1 X129.562 Y129.030 E1.27251
G1 X130.095 Y129.030 E0.01673
G1 X100.870 Y99.805 E1.29616
G1 X100.870 Y99.271 E0.01673
G1 X130.629 Y129.030 E1.31982
G1 X131.162 Y129.030 E0.01673
G1 X100.870 Y98.738 E1.34347
G1 X100.870 Y98.205 E0.01673
G1 X131.695 Y129.030 E1.36713
G1 X132.229 Y129.030 E0.01673
G1 X100.870 Y97.671 E1.39078
M73 Q1 S145
G1 X100.870 Y97.138 E0.01673
M73 P1 R145
G1 X132.762 Y129.030 E1.41444
G1 X133.296 Y129.030 E0.01673
G1 X100.870 Y96.604 E1.43809
G1 X100.870 Y96.071 E0.01673
G1 X133.829 Y129.030 E1.46175
G1 X134.362 Y129.030 E0.01673
G1 X100.870 Y95.538 E1.48540
G1 X100.870 Y95.004 E0.01673
G1 X134.896 Y129.030 E1.50906
G1 X135.429 Y129.030 E0.01673
G1 X100.870 Y94.471 E1.53272
G1 X100.870 Y93.938 E0.01673
G1 X135.962 Y129.030 E1.55637
G1 X136.496 Y129.030 E0.01673
G1 X100.870 Y93.404 E1.58003
G1 X100.870 Y92.871 E0.01673
G1 X137.029 Y129.030 E1.60368
G1 X137.563 Y129.030 E0.01673
G1 X100.870 Y92.337 E1.62734
G1 X100.870 Y91.804 E0.01673
G1 X138.096 Y129.030 E1.65099
G1 X138.629 Y129.030 E0.01673
G1 X100.870 Y91.271 E1.67465
G1 X100.870 Y90.737 E0.01673
G1 X139.163 Y129.030 E1.69830
G1 X139.696 Y129.030 E0.01673
G1 X100.870 Y90.204 E1.72196
G1 X100.870 Y89.671 E0.01673
G1 X140.229 Y129.030 E1.74561
G1 X140.763 Y129.030 E0.01673
G1 X100.870 Y89.137 E1.76927
G1 X100.870 Y88.604 E0.01673
G1 X141.296 Y129.030 E1.79293
G1 X141.830 Y129.030 E0.01673
G1 X100.870 Y88.070 E1.81658
G1 X100.870 Y87.537 E0.01673
G1 X142.363 Y129.030 E1.84024
G1 X142.896 Y129.030 E0.01673
G1 X100.870 Y87.004 E1.86389
G1 X100.870 Y86.470 E0.01673
G1 X143.430 Y129.030 E1.88755
G1 X143.963 Y129.030 E0.01673
G1 X100.870 Y85.937 E1.91120
G1 X100.870 Y85.404 E0.01673
G1 X144.496 Y129.030 E1.93486
M73 Q2 S144
M73 P2 R144
G1 X145.030 Y129.030 E0.01673
G1 X100.870 Y84.870 E1.95851
G1 X100.870 Y84.337 E0.01673
G1 X145.563 Y129.030 E1.98217
G1 X146.097 Y129.030 E0.01673
G1 X100.870 Y83.803 E2.00582
G1 X100.870 Y83.270 E0.01673
G1 X146.630 Y129.030 E2.02948
G1 X147.163 Y129.030 E0.01673
G1 X100.870 Y82.737 E2.05314
G1 X100.870 Y82.203 E0.01673
G1 X147.697 Y129.030 E2.07679
G1 X148.230 Y129.030 E0.01673
G1 X100.870 Y81.670 E2.10045
G1 X100.870 Y81.137 E0.01673
G1 X148.763 Y129.030 E2.12410
G1 X149.030 Y129.030 E0.00836
G1 X149.030 Y128.763 E0.00836
G1 X101.137 Y80.870 E2.12410
G1 X101.670 Y80.870 E0.01673
G1 X149.030 Y128.230 E2.10044
G1 X149.030 Y127.697 E0.01673
G1 X102.203 Y80.870 E2.07679
G1 X102.737 Y80.870 E0.01673
G1 X149.030 Y127.163 E2.05313
G1 X149.030 Y126.630 E0.01673
G1 X103.270 Y80.870 E2.02948
G1 X103.803 Y80.870 E0.01673
G1 X149.030 Y126.097 E2.00582
G1 X149.030 Y125.563 E0.01673
G1 X104.337 Y80.870 E1.98217
G1 X104.870 Y80.870 E0.01673
G1 X149.030 Y125.030 E1.95851
G1 X149.030 Y124.496 E0.01673
G1 X105.404 Y80.870 E1.93486
G1 X105.937 Y80.870 E0.01673
G1 X149.030 Y123.963 E1.91120
G1 X149.030 Y123.430 E0.01673
G1 X106.470 Y80.870 E1.88754
M73 Q3 S143
M73 P3 R143
G1 X107.004 Y80.870 E0.01673
G1 X149.030 Y122.896 E1.86389
G1 X149.030 Y122.363 E0.01673
G1 X107.537 Y80.870 E1.84023
G1 X108.070 Y80.870 E0.01673
G1 X149.030 Y121.830 E1.81658
G1 X149.030 Y121.296 E0.01673
G1 X108.604 Y80.870 E1.79292
G1 X109.137 Y80.870 E0.01673
G1 X149.030 Y120.763 E1.76927
G1 X149.030 Y120.229 E0.01673
G1 X109.671 Y80.870 E1.74561
G1 X110.204 Y80.870 E0.01673
G1 X149.030 Y119.696 E1.72196
G1 X149.030 Y119.163 E0.01673
G1 X110.737 Y80.870 E1.69830
G1 X111.271 Y80.870 E0.01673
G1 X149.030 Y118.629 E1.67465
G1 X149.030 Y118.096 E0.01673
G1 X111.804 Y80.870 E1.65099
G1 X112.337 Y80.870 E0.01673
G1 X149.030 Y117.563 E1.62733
G1 X149.030 Y117.029 E0.01673
G1 X112.871 Y80.870 E1.60368
G1 X113.404 Y80.870 E0.01673
G1 X149.030 Y116.496 E1.58002
G1 X149.030 Y115.962 E0.01673
G1 X113.938 Y80.870 E1.55637
G1 X114.471 Y80.870 E0.01673
G1 X149.030 Y115.429 E1.53271
G1 X149.030 Y114.896 E0.01673
G1 X115.004 Y80.870 E1.50906
G1 X115.538 Y80.870 E0.01673
G1 X149.030 Y114.362 E1.48540
G1 X149.030 Y113.829 E0.01673
G1 X116.071 Y80.870 E1.46175
G1 X116.604 Y80.870 E0.01673
G1 X149.030 Y113.296 E1.43809
G1 X149.030 Y112.762 E0.01673
G1 X117.138 Y80.870 E1.41444
G1 X117.671 Y80.870 E0.01673
G1 X149.030 Y112.229 E1.39078
G1 X149.030 Y111.695 E0.01673
G1 X118.205 Y80.870 E1.36712
G1 X118.738 Y80.870 E0.01673
G1 X149.030 Y111.162 E1.34347
G1 X149.030 Y110.629 E0.01673
G1 X119.271 Y80.870 E1.31981
M73 Q3 S142
M73 P3 R142
G1 X119.805 Y80.870 E0.01673
G1 X149.030 Y110.095 E1.29616
G1 X149.030 Y109.562 E0.01673
G1 X120.338 Y80.870 E1.27250
G1 X120.872 Y80.870 E0.01673
G1 X149.030 Y109.028 E1.24885
G1 X149.030 Y108.495 E0.01673
G1 X121.405 Y80.870 E1.22519
G1 X121.938 Y80.870 E0.01673
G1 X149.030 Y107.962 E1.20154
G1 X149.030 Y107.428 E0.01673
G1 X122.472 Y80.870 E1.17788
G1 X123.005 Y80.870 E0.01673
G1 X149.030 Y106.895 E1.15423
G1 X149.030 Y106.362 E0.01673
G1 X123.538 Y80.870 E1.13057
G1 X124.072 Y80.870 E0.01673
G1 X149.030 Y105.828 E1.10691
G1 X149.030 Y105.295 E0.01673
G1 X124.605 Y80.870 E1.08326
G1 X125.139 Y80.870 E0.01673
G1 X149.030 Y104.761 E1.05960
G1 X149.030 Y104.228 E0.01673
G1 X125.672 Y80.870 E1.03595
G1 X126.205 Y80.870 E0.01673
G1 X149.030 Y103.695 E1.01229
G1 X149.030 Y103.161 E0.01673
G1 X126.739 Y80.870 E0.98864
G1 X127.272 Y80.870 E0.01673
G1 X149.030 Y102.628 E0.96498
G1 X149.030 Y102.095 E0.01673
G1 X127.805 Y80.870 E0.94133
G1 X128.339 Y80.870 E0.01673
G1 X149.030 Y101.561 E0.91767
G1 X149.030 Y101.028 E0.01673
G1 X128.872 Y80.870 E0.89401
G1 X129.406 Y80.870 E0.01673
G1 X149.030 Y100.494 E0.87036
G1 X149.030 Y99.961 E0.01673
G1 X129.939 Y80.870 E0.84670
G1 X130.472 Y80.870 E0.01673
G1 X149.030 Y99.428 E0.82305
G1 X149.030 Y98.894 E0.01673
G1 X131.006 Y80.870 E0.79939
G1 X131.539 Y80.870 E0.01673
G1 X149.030 Y98.361 E0.77574
G1 X149.030 Y97.828 E0.01673
G1 X132.072 Y80.870 E0.75208
G1 X132.606 Y80.870 E0.01673
G1 X149.030 Y97.294 E0.72843
G1 X149.030 Y96.761 E0.01673
G1 X133.139 Y80.870 E0.70477
G1 X133.673 Y80.870 E0.01673
G1 X149.030 Y96.227 E0.68112
G1 X149.030 Y95.694 E0.01673
G1 X134.206 Y80.870 E0.65746
G1 X134.739 Y80.870 E0.01673
G1 X149.030 Y95.161 E0.63380
G1 X149.030 Y94.627 E0.01673
G1 X135.273 Y80.870 E0.61015
G1 X135.806 Y80.870 E0.01673
G1 X149.030 Y94.094 E0.58649
G1 X149.030 Y93.561 E0.01673
G1 X136.339 Y80.870 E0.56284
G1 X136.873 Y80.870 E0.01673
G1 X149.030 Y93.027 E0.53918
G1 X149.030 Y92.494 E0.01673
G1 X137.406 Y80.870 E0.51553
G1 X137.940 Y80.870 E0.01673
G1 X149.030 Y91.960 E0.49187
G1 X149.030 Y91.427 E0.01673
G1 X138.473 Y80.870 E0.46822
G1 X139.006 Y80.870 E0.01673
G1 X149.030 Y90.894 E0.44456
G1 X149.030 Y90.360 E0.01673
G1 X139.540 Y80.870 E0.42091
G1 X140.073 Y80.870 E0.01673
G1 X149.030 Y89.827 E0.39725
G1 X149.030 Y89.294 E0.01673
G1 X140.606 Y80.870 E0.37359
G1 X141.140 Y80.870 E0.01673
G1 X149.030 Y88.760 E0.34994
G1 X149.030 Y88.227 E0.01673
G1 X141.673 Y80.870 E0.32628
G1 X142.207 Y80.870 E0.01673
G1 X149.030 Y87.693 E0.30263
G1 X149.030 Y87.160 E0.01673
G1 X142.740 Y80.870 E0.27897
G1 X143.273 Y80.870 E0.01673
G1 X149.030 Y86.627 E0.25532
G1 X149.030 Y86.093 E0.01673
G1 X143.807 Y80.870 E0.23166
G1 X144.340 Y80.870 E0.01673
G1 X149.030 Y85.560 E0.20801
G1 X149.030 Y85.027 E0.01673
G1 X144.873 Y80.870 E0.18435
G1 X145.407 Y80.870 E0.01673
G1 X149.030 Y84.493 E0.16070
G1 X149.030 Y83.960 E0.01673
G1 X145.940 Y80.870 E0.13704
G1 X146.474 Y80.870 E0.01673
G1 X149.030 Y83.426 E0.11338
G1 X149.030 Y82.893 E0.01673
G1 X147.007 Y80.870 E0.08973
G1 X147.540 Y80.870 E0.01673
G1 X149.030 Y82.360 E0.06607
G1 X149.030 Y81.826 E0.01673
G1 X148.074 Y80.870 E0.04242
G1 X148.607 Y80.870 E0.01673
G1 X149.200 Y81.463 E0.02629
M106 S255
;BEFORE_LAYER_CHANGE
G92 E0.0
;0.35


G1 F8640
G1 X148.607 Y80.870 E-0.19356
G1 X148.074 Y80.870 E-0.12316
G1 X149.030 Y81.826 E-0.31232
G1 X149.030 Y82.360 E-0.12316
G1 X149.006 Y82.336 E-0.00781
G1 E-0.04000 F2100.00000
G1 Z0.800 F10800.000
;AFTER_LAYER_CHANGE
;0.35
M104 S205 ; set temperature
G1 X151.903 Y79.117
G1 Z0.350
G1 E0.80000 F2100.00000
M73 Q4 S141
M73 P4 R141
G1 F3000
G1 X152.088 Y79.936 E0.02029
G1 X152.088 Y129.926 E1.20900
G1 X151.926 Y130.727 E0.01977
G1 X151.482 Y131.413 E0.01977
G1 X150.763 Y131.911 E0.02116
G1 X149.902 Y132.089 E0.02125
G1 X99.974 Y132.088 E1.20750
G1 X99.173 Y131.926 E0.01977
G1 X98.487 Y131.482 E0.01977
G1 X97.989 Y130.763 E0.02116
G1 X97.811 Y129.902 E0.02125
G1 X97.812 Y79.974 E1.20750
G1 X97.974 Y79.173 E0.01977
G1 X98.418 Y78.487 E0.01977
G1 X99.127 Y77.993 E0.02090
G1 X99.972 Y77.812 E0.02090
G1 X149.904 Y77.811 E1.20759
G1 X150.723 Y77.972 E0.02021
G1 X151.426 Y78.431 E0.02029
G1 X151.868 Y79.068 E0.01875
; PURGING FINISHED
G1 F8640
G1 X152.088 Y79.936 E-0.20664
G1 X152.088 Y82.332 E-0.55336
G1 E-0.04000 F2100.00000
G1 Z0.950 F10800.000
G1 X149.082 Y80.643
G1 Z0.350
G1 E0.80000 F2100.00000
M204 S800
G1 F2700
G1 X149.082 Y129.082 E1.26213
G1 X100.643 Y129.082 E1.26213
G1 X100.643 Y80.643 E1.26213
G1 X149.022 Y80.643 E1.26056
M204 S1000
G1 X149.500 Y80.225 F10800.000
M204 S800
G1 F2100
G1 X149.500 Y129.500 E1.28390
G1 X100.225 Y129.500 E1.28390
G1 X100.225 Y80.225 E1.28390
G1 X149.440 Y80.225 E1.28233
M204 S1000
G1 X149.396 Y80.611 F10800.000
G1 F8640
G1 X149.444 Y83.516 E-0.76000
G1 E-0.04000 F2100.00000
G1 Z0.950 F10800.000
G1 X101.614 Y80.768
G1 Z0.350
G1 E0.80000 F2100.00000
M204 S1250
G1 F12000
G1 X100.956 Y81.426 E0.02428
G1 X100.956 Y82.018 E0.01544
G1 X102.018 Y80.956 E0.03918
G1 X102.610 Y80.956 E0.01544
G1 X100.956 Y82.610 E0.06102
G1 X100.956 Y83.201 E0.01544
G1 X103.201 Y80.956 E0.08286
G1 X103.793 Y80.956 E0.01544
G1 X100.956 Y83.793 E0.10470
G1 X100.956 Y84.385 E0.01544
G1 X104.385 Y80.956 E0.12654
G1 X104.977 Y80.956 E0.01544
G1 X100.956 Y84.977 E0.14838
G1 X100.956 Y85.569 E0.01544
