; generated by Slic3r Prusa Edition 1.42.0-beta2+win64 on 2019-04-23 at 21:13:20

; 

; external perimeters extrusion width = 0.45mm
; perimeters extrusion width = 0.45mm
; infill extrusion width = 0.45mm
; solid infill extrusion width = 0.45mm
; top infill extrusion width = 0.40mm
; first layer extrusion width = 0.42mm

; external perimeters extrusion width = 0.45mm
; perimeters extrusion width = 0.45mm
; infill extrusion width = 0.45mm
; solid infill extrusion width = 0.45mm
; top infill extrusion width = 0.40mm
; first layer extrusion width = 0.42mm

M73 P0 R284
M73 Q0 S286
M201 X1000 Y1000 Z1000 E8000 ; sets maximum accelerations, mm/sec^2
M203 X200 Y200 Z12 E120 ; sets maximum feedrates, mm/sec
M204 P1250 R1250 T1250 ; sets acceleration (P, T) and retract acceleration (R), mm/sec^2
M205 X8.00 Y8.00 Z0.40 E1.50 ; sets the jerk limits, mm/sec
M205 S0 T0 ; sets the minimum extruding and travel feed rate, mm/sec
M107
M107
M115 U3.6.0 ; tell printer latest fw version
M83  ; extruder relative mode
M104 S215 ; set extruder temp
M140 S60 ; set bed temp
M190 S60 ; wait for bed temp
M109 S215 ; wait for extruder temp
G28 W ; home all without mesh bed level
G80 ; mesh bed leveling
G21 ; set units to millimeters

; Send the filament type to the MMU2.0 unit.
; E stands for extruder number, F stands for filament type (0: default; 1:flex; 2: PVA)
M403 E0 F0
M403 E1 F0
M403 E2 F1
M403 E3 F0
M403 E4 F0


;go outside print area
G1 Y-3.0 F1000.0
G1 Z0.4 F1000.0
; select extruder
T1
; initial load
G1 X55.0 E29.0 F1073.0
M73 Q0 S286
M73 P0 R283
G1 X5.0 E29.0 F1800.0
G1 X55.0 E8.0 F2000.0
G1 Z0.3 F1000.0
G92 E0.0
G1 X240.0 E25.0  F2200.0
G1 Y-2.0 F1000.0
G1 X55.0 E25 F1400.0
G1 Z0.20 F1000.0
G1 X5.0 E4.0 F1000.0
G92 E0.0


M221 S95
G90 ; use absolute coordinates
M83 ; use relative distances for extrusion
G92 E0.0
G21 ; set units to millimeters
G90 ; use absolute coordinates
M83 ; use relative distances for extrusion
T1
M900 K30 ; Filament gcode
G1 Z0.200 F10800.000
;BEFORE_LAYER_CHANGE
G92 E0.0
;0.2


G1 E-0.80000 F2100.00000
G1 Z0.800 F10800.000
G1 Z0.200
;AFTER_LAYER_CHANGE
;0.2
M900 K0
G1 E-2.20000 F2100.00000
G1 Z0.800 F10800.000
G1 X98.000 Y175.000
G1 Z0.200
G1 E3.00000 F2100.00000
;-------------------------------------
; CP WIPE TOWER FIRST LAYER BRIM START
G1 X98.000 Y185.060 E0.5735 F2400
G1 X95.457 Y185.517  F7000
G1 Y174.543 E0.4588 F2100
G1 X34.543 E2.5466
G1 Y185.517 E0.4588
G1 X95.457 E2.5466
G1 X95.914 Y185.974  F7000
G1 Y174.086 E0.4970 F2100
G1 X34.086 E2.5849
G1 Y185.974 E0.4970
G1 X95.914 E2.5849
G1 X96.371 Y186.431  F7000
G1 Y173.629 E0.5352 F2100
G1 X33.629 E2.6231
G1 Y186.431 E0.5352
G1 X96.371 E2.6231
G1 X96.828 Y186.888  F7000
G1 Y173.172 E0.5735 F2100
G1 X33.172 E2.6613
G1 Y186.888 E0.5735
G1 X96.828 E2.6613
G1 X95.000 Y185.060  F7000
G1 X35.000
G1 X95.000
; CP WIPE TOWER FIRST LAYER BRIM END
;-----------------------------------
G1 X94.500 Y175.500  F7200
;--------------------
; CP EMPTY GRID START
; layer #1
G1 X95.000
G1 Y175.000
G1 Y185.060 E0.3823 F1450
G1 X35.000 E2.2804
G1 Y175.000 E0.3823
G1 X95.000 E2.2804
G1 X94.500
G1 Y175.500
G1 Y184.560 E0.3443
G1 X35.500 E2.2424
G1 Y175.500 E0.3443
G1 X94.500 E2.2424
G1 Y184.560
G1 X94.000 Y184.025  E0.0278
G1 X36.000 E2.2044
G1 Y183.490 E0.0203
G1 X94.000 E2.2044
G1 Y182.955 E0.0203
G1 X36.000 E2.2044
M73 Q0 S285
G1 Y182.420 E0.0203
G1 X94.000 E2.2044
M73 P0 R282
G1 Y181.885 E0.0203
G1 X36.000 E2.2044
G1 Y181.350 E0.0203
G1 X94.000 E2.2044
G1 Y180.815 E0.0203
G1 X36.000 E2.2044
G1 Y180.280 E0.0203
G1 X94.000 E2.2044
G1 Y179.745 E0.0203
G1 X36.000 E2.2044
G1 Y179.210 E0.0203
G1 X94.000 E2.2044
G1 Y178.675 E0.0203
G1 X36.000 E2.2044
G1 Y178.140 E0.0203
G1 X94.000 E2.2044
G1 Y177.605 E0.0203
G1 X36.000 E2.2044
G1 Y177.070 E0.0203
G1 X94.000 E2.2044
G1 Y176.535 E0.0203
G1 X36.000 E2.2044
G1 Y176.000 E0.0203
G1 X94.000 E2.2044
G1 X36.000
; CP EMPTY GRID END
;------------------







M900 K30 ; Filament gcode
G1 F8640
G1 X32.709 Y176.000 E-0.76000
G1 E-0.04000 F2100.00000
G1 Z0.800 F10800.000
G1 X20.900 Y164.128
G1 Z0.200
G1 E0.80000 F2100.00000
M204 S1000
G1 F2520
G1 X20.420 Y162.841 E0.04306
G1 X20.121 Y161.501 E0.04306
G1 X20.008 Y160.132 E0.04306
G1 X20.011 Y49.750 E3.46094
G1 X20.116 Y48.529 E0.03842
G1 X20.371 Y47.331 E0.03842
G1 X20.770 Y46.172 E0.03842
G1 X21.308 Y45.071 E0.03842
G1 X21.976 Y44.044 E0.03842
G1 X22.765 Y43.107 E0.03842
G1 X23.669 Y42.268 E0.03866
G1 X24.663 Y41.552 E0.03842
G1 X25.886 Y40.893 E0.04355
G1 X27.189 Y40.411 E0.04355
G1 X28.546 Y40.114 E0.04355
G1 X29.923 Y40.008 E0.04331
G1 X220.008 Y40.007 E5.95998
G1 X221.909 Y40.192 E0.05990
G1 X223.734 Y40.731 E0.05966
G1 X225.423 Y41.607 E0.05966
G1 X226.921 Y42.792 E0.05990
G1 X228.166 Y44.241 E0.05990
G1 X229.110 Y45.894 E0.05966
G1 X229.725 Y47.702 E0.05990
G1 X229.984 Y49.587 E0.05966
G1 X229.985 Y160.390 E3.47416
G1 X229.866 Y161.586 E0.03769
G1 X229.602 Y162.767 E0.03793
G1 X229.197 Y163.907 E0.03793
G1 X228.658 Y164.990 E0.03793
G1 X227.991 Y165.999 E0.03793
G1 X227.208 Y166.921 E0.03793
G1 X226.318 Y167.741 E0.03793
G1 X225.337 Y168.448 E0.03793
G1 X224.114 Y169.107 E0.04355
G1 X222.811 Y169.589 E0.04355
G1 X221.454 Y169.886 E0.04355
G1 X220.077 Y169.992 E0.04331
G1 X29.844 Y169.991 E5.96463
G1 X28.614 Y169.896 E0.03866
G1 X27.398 Y169.648 E0.03891
G1 X26.230 Y169.254 E0.03866
G1 X25.112 Y168.715 E0.03891
G1 X24.069 Y168.042 E0.03891
G1 X23.118 Y167.245 E0.03891
G1 X22.278 Y166.343 E0.03866
G1 X21.552 Y165.337 E0.03891
G1 X20.928 Y164.181 E0.04118
G1 F8640
G1 X20.420 Y162.841 E-0.33085
G1 X20.121 Y161.501 E-0.31712
G1 X20.081 Y161.017 E-0.11202
G1 E-0.04000 F2100.00000
G1 Z0.800 F10800.000
G1 X21.858 Y165.224
G1 Z0.200
G1 E0.80000 F2100.00000
G1 F2520
G1 X20.384 Y160.950 E0.14177
G1 X20.384 Y49.215 E3.50335
G1 X20.865 Y46.919 E0.07358
G1 X21.707 Y45.053 E0.06417
G1 X23.307 Y43.090 E0.07943
G1 X24.776 Y41.858 E0.06009
G1 X29.050 Y40.384 E0.14177
G1 X220.710 Y40.388 E6.00934
G1 X222.688 Y40.733 E0.06297
G1 X224.542 Y41.470 E0.06256
G1 X226.925 Y43.304 E0.09427
G1 X228.783 Y46.005 E0.10281
G1 X229.616 Y49.173 E0.10270
G1 X229.616 Y160.785 E3.49950
M73 Q0 S284
G1 X229.135 Y163.081 E0.07358
G1 X228.293 Y164.947 E0.06417
G1 X226.693 Y166.910 E0.07943
G1 X225.224 Y168.142 E0.06009
G1 X220.950 Y169.616 E0.14177
G1 X29.215 Y169.616 E6.01169
M73 P0 R281
G1 X26.919 Y169.135 E0.07358
G1 X25.053 Y168.293 E0.06417
G1 X23.090 Y166.693 E0.07943
G1 X21.897 Y165.270 E0.05821
G1 X22.186 Y165.029 F10800.000
G1 F2520
G1 X20.762 Y160.918 E0.13639
G1 X20.762 Y49.235 E3.50175
G1 X21.229 Y47.017 E0.07108
G1 X22.040 Y45.232 E0.06146
G1 X23.587 Y43.343 E0.07657
G1 X24.991 Y42.170 E0.05735
G1 X29.082 Y40.762 E0.13565
G1 X220.693 Y40.765 E6.00785
G1 X222.567 Y41.090 E0.05962
G1 X224.378 Y41.811 E0.06111
G1 X226.671 Y43.584 E0.09088
G1 X228.427 Y46.133 E0.09706
G1 X229.238 Y49.198 E0.09939
G1 X229.238 Y160.765 E3.49811
G1 X228.771 Y162.983 E0.07108
G1 X227.960 Y164.768 E0.06146
G1 X226.413 Y166.657 E0.07657
G1 X225.009 Y167.830 E0.05735
G1 X220.918 Y169.238 E0.13565
G1 X29.235 Y169.238 E6.01009
G1 X27.017 Y168.771 E0.07108
G1 X25.232 Y167.960 E0.06146
G1 X23.343 Y166.413 E0.07657
G1 X22.224 Y165.075 E0.05467
G1 X22.514 Y164.833 F10800.000
G1 F2520
G1 X22.481 Y164.794 E0.00159
G1 X21.139 Y160.887 E0.12954
G1 X21.139 Y49.255 E3.50014
G1 X21.594 Y47.116 E0.06858
G1 X22.372 Y45.411 E0.05876
G1 X23.867 Y43.596 E0.07372
G1 X25.206 Y42.481 E0.05462
G1 X29.113 Y41.139 E0.12955
G1 X220.677 Y41.142 E6.00636
G1 X222.482 Y41.458 E0.05746
G1 X224.213 Y42.151 E0.05844
G1 X226.416 Y43.863 E0.08749
G1 X228.097 Y46.319 E0.09332
G1 X228.861 Y49.222 E0.09411
G1 X228.861 Y160.745 E3.49673
G1 X228.406 Y162.884 E0.06858
G1 X227.628 Y164.589 E0.05876
G1 X226.133 Y166.404 E0.07372
G1 X224.794 Y167.519 E0.05462
G1 X220.887 Y168.861 E0.12954
G1 X29.255 Y168.861 E6.00849
G1 X27.116 Y168.406 E0.06858
G1 X25.411 Y167.627 E0.05876
G1 X23.596 Y166.133 E0.07372
G1 X22.552 Y164.880 E0.05115
G1 X22.842 Y164.639 F10800.000
G1 F2520
G1 X22.794 Y164.580 E0.00239
G1 X21.516 Y160.856 E0.12345
G1 X21.516 Y49.275 E3.49853
G1 X21.958 Y47.216 E0.06605
G1 X22.705 Y45.592 E0.05604
G1 X24.146 Y43.850 E0.07087
G1 X25.420 Y42.794 E0.05190
G1 X29.144 Y41.516 E0.12346
G1 X220.660 Y41.519 E6.00486
G1 X222.397 Y41.826 E0.05529
G1 X224.047 Y42.491 E0.05577
G1 X226.160 Y44.142 E0.08410
G1 X227.767 Y46.504 E0.08958
G1 X228.484 Y49.246 E0.08885
G1 X228.484 Y160.725 E3.49534
G1 X228.042 Y162.784 E0.06605
G1 X227.295 Y164.408 E0.05604
G1 X225.854 Y166.150 E0.07087
G1 X224.580 Y167.206 E0.05190
G1 X220.856 Y168.484 E0.12345
G1 X29.275 Y168.484 E6.00688
G1 X27.216 Y168.042 E0.06605
G1 X25.592 Y167.295 E0.05604
G1 X23.850 Y165.854 E0.07087
G1 X22.881 Y164.685 E0.04763
G1 X23.171 Y164.445 F10800.000
G1 F2520
G1 X23.106 Y164.366 E0.00320
G1 X21.893 Y160.825 E0.11738
G1 X21.893 Y49.296 E3.49692
G1 X22.322 Y47.316 E0.06350
G1 X23.036 Y45.773 E0.05333
G1 X24.424 Y44.106 E0.06802
G1 X25.634 Y43.106 E0.04919
G1 X29.175 Y41.893 E0.11738
G1 X220.644 Y41.896 E6.00335
G1 X222.311 Y42.194 E0.05311
G1 X223.880 Y42.830 E0.05309
G1 X225.904 Y44.421 E0.08072
M73 Q1 S283
G1 X227.411 Y46.632 E0.08390
G1 X228.107 Y49.270 E0.08556
G1 X228.107 Y160.704 E3.49393
G1 X227.678 Y162.684 E0.06350
G1 X226.964 Y164.227 E0.05333
G1 X225.576 Y165.894 E0.06802
G1 X224.366 Y166.894 E0.04919
G1 X220.825 Y168.107 E0.11738
G1 X29.296 Y168.107 E6.00526
M73 P1 R280
G1 X27.316 Y167.678 E0.06350
G1 X25.773 Y166.964 E0.05333
G1 X24.106 Y165.576 E0.06802
G1 X23.209 Y164.491 E0.04411
G1 X23.419 Y164.153 F10800.000
G1 F2520
G1 X22.270 Y160.794 E0.11132
G1 X22.270 Y49.316 E3.49530
G1 X22.686 Y47.418 E0.06094
G1 X23.367 Y45.955 E0.05060
G1 X24.702 Y44.361 E0.06517
G1 X25.847 Y43.419 E0.04650
G1 X29.206 Y42.270 E0.11133
G1 X220.627 Y42.274 E6.00185
G1 X222.224 Y42.561 E0.05091
G1 X223.713 Y43.169 E0.05041
G1 X225.647 Y44.698 E0.07732
G1 X227.081 Y46.816 E0.08019
G1 X227.730 Y49.294 E0.08033
G1 X227.730 Y160.684 E3.49254
G1 X227.314 Y162.582 E0.06094
G1 X226.633 Y164.045 E0.05060
G1 X225.298 Y165.639 E0.06517
G1 X224.153 Y166.581 E0.04650
G1 X220.794 Y167.730 E0.11132
G1 X29.316 Y167.730 E6.00365
G1 X27.418 Y167.314 E0.06094
G1 X25.955 Y166.633 E0.05060
G1 X24.361 Y165.298 E0.06517
G1 X23.457 Y164.200 E0.04462
G1 X23.748 Y163.961 F10800.000
G1 F2520
G1 X22.647 Y160.763 E0.10605
G1 X22.647 Y49.337 E3.49368
G1 X23.049 Y47.520 E0.05835
G1 X23.698 Y46.138 E0.04787
G1 X24.979 Y44.618 E0.06232
G1 X26.059 Y43.732 E0.04382
G1 X29.237 Y42.647 E0.10529
G1 X220.610 Y42.651 E6.00035
G1 X222.100 Y42.918 E0.04748
G1 X223.545 Y43.508 E0.04893
G1 X225.390 Y44.975 E0.07391
G1 X226.724 Y46.944 E0.07457
G1 X227.353 Y49.319 E0.07704
G1 X227.353 Y160.663 E3.49111
G1 X226.951 Y162.480 E0.05835
G1 X226.302 Y163.862 E0.04787
G1 X225.021 Y165.382 E0.06232
G1 X223.941 Y166.268 E0.04382
G1 X220.763 Y167.353 E0.10529
G1 X29.337 Y167.353 E6.00202
G1 X27.520 Y166.951 E0.05835
G1 X26.138 Y166.302 E0.04787
G1 X24.618 Y165.021 E0.06232
G1 X23.786 Y164.007 E0.04112
G1 X24.078 Y163.769 F10800.000
G1 F2520
G1 X24.046 Y163.729 E0.00163
G1 X23.024 Y160.732 E0.09927
G1 X23.024 Y49.358 E3.49205
G1 X23.413 Y47.623 E0.05574
G1 X24.028 Y46.322 E0.04514
G1 X25.255 Y44.875 E0.05947
G1 X26.271 Y44.046 E0.04115
G1 X29.268 Y43.024 E0.09927
G1 X220.593 Y43.028 E5.99884
G1 X222.013 Y43.285 E0.04526
G1 X223.377 Y43.846 E0.04622
G1 X225.132 Y45.251 E0.07050
G1 X226.394 Y47.127 E0.07090
G1 X226.976 Y49.343 E0.07183
G1 X226.976 Y160.642 E3.48970
G1 X226.587 Y162.377 E0.05574
G1 X225.972 Y163.678 E0.04514
G1 X224.745 Y165.125 E0.05947
G1 X223.729 Y165.954 E0.04115
G1 X220.732 Y166.976 E0.09927
G1 X29.358 Y166.976 E6.00039
G1 X27.623 Y166.587 E0.05574
G1 X26.322 Y165.972 E0.04514
G1 X24.875 Y164.745 E0.05947
G1 X24.116 Y163.815 E0.03764
G1 X24.409 Y163.578 F10800.000
G1 F2520
G1 X24.359 Y163.517 E0.00246
G1 X23.401 Y160.701 E0.09327
G1 X23.401 Y49.379 E3.49041
G1 X23.775 Y47.728 E0.05310
G1 X24.357 Y46.507 E0.04240
G1 X25.530 Y45.134 E0.05662
G1 X26.483 Y44.359 E0.03850
G1 X29.299 Y43.401 E0.09327
G1 X220.575 Y43.405 E5.99733
M73 Q1 S282
G1 X221.925 Y43.653 E0.04302
G1 X223.207 Y44.184 E0.04350
G1 X224.872 Y45.526 E0.06707
G1 X226.062 Y47.310 E0.06724
G1 X226.599 Y49.367 E0.06666
G1 X226.599 Y160.621 E3.48828
G1 X226.225 Y162.272 E0.05310
G1 X225.643 Y163.493 E0.04240
G1 X224.470 Y164.866 E0.05662
G1 X223.517 Y165.641 E0.03850
G1 X220.701 Y166.599 E0.09327
G1 X29.379 Y166.599 E5.99875
M73 P1 R279
G1 X27.728 Y166.225 E0.05310
G1 X26.507 Y165.643 E0.04240
G1 X25.134 Y164.470 E0.05662
G1 X24.447 Y163.624 E0.03416
G1 X24.674 Y163.306 F10800.000
G1 F2520
G1 X23.778 Y160.670 E0.08730
G1 X23.778 Y49.401 E3.48876
G1 X24.138 Y47.833 E0.05044
G1 X24.686 Y46.693 E0.03966
G1 X25.804 Y45.393 E0.05377
G1 X26.694 Y44.674 E0.03586
G1 X29.330 Y43.778 E0.08730
G1 X220.558 Y43.782 E5.99581
G1 X221.836 Y44.019 E0.04076
G1 X223.036 Y44.521 E0.04078
G1 X224.612 Y45.801 E0.06367
G1 X225.706 Y47.437 E0.06170
G1 X226.222 Y49.392 E0.06340
G1 X226.222 Y160.599 E3.48683
G1 X225.862 Y162.167 E0.05044
G1 X225.314 Y163.307 E0.03966
G1 X224.196 Y164.607 E0.05377
G1 X223.306 Y165.326 E0.03586
G1 X220.670 Y166.222 E0.08730
G1 X29.401 Y166.222 E5.99711
G1 X27.833 Y165.862 E0.05044
G1 X26.693 Y165.314 E0.03966
G1 X25.393 Y164.196 E0.05377
G1 X24.711 Y163.353 E0.03398
G1 X25.005 Y163.117 F10800.000
G1 F2520
G1 X24.155 Y160.639 E0.08213
G1 X24.155 Y49.423 E3.48711
G1 X24.500 Y47.940 E0.04775
G1 X25.014 Y46.881 E0.03691
G1 X26.078 Y45.653 E0.05093
G1 X26.904 Y44.988 E0.03324
G1 X29.361 Y44.155 E0.08134
G1 X220.540 Y44.159 E5.99429
G1 X221.746 Y44.386 E0.03847
G1 X222.864 Y44.857 E0.03804
G1 X224.351 Y46.074 E0.06025
G1 X225.374 Y47.619 E0.05808
G1 X225.845 Y49.416 E0.05825
G1 X225.845 Y160.577 E3.48539
G1 X225.500 Y162.060 E0.04775
G1 X224.986 Y163.119 E0.03691
G1 X223.922 Y164.347 E0.05093
G1 X223.096 Y165.012 E0.03324
G1 X220.639 Y165.845 E0.08134
G1 X29.423 Y165.845 E5.99546
G1 X27.940 Y165.500 E0.04775
G1 X26.881 Y164.986 E0.03691
G1 X25.653 Y163.922 E0.05093
G1 X25.043 Y163.163 E0.03053
G1 X25.337 Y162.928 F10800.000
G1 F2520
G1 X25.304 Y162.886 E0.00168
G1 X24.532 Y160.608 E0.07541
G1 X24.532 Y49.445 E3.48545
G1 X24.862 Y48.047 E0.04502
G1 X25.342 Y47.069 E0.03415
G1 X26.350 Y45.914 E0.04809
G1 X27.114 Y45.304 E0.03064
G1 X29.392 Y44.532 E0.07541
G1 X220.523 Y44.536 E5.99277
G1 X221.618 Y44.741 E0.03494
G1 X222.692 Y45.194 E0.03654
G1 X224.090 Y46.347 E0.05681
G1 X225.018 Y47.745 E0.05263
G1 X225.468 Y49.441 E0.05499
G1 X225.468 Y160.555 E3.48392
G1 X225.138 Y161.953 E0.04502
G1 X224.658 Y162.931 E0.03415
G1 X223.650 Y164.086 E0.04809
G1 X222.886 Y164.696 E0.03064
G1 X220.608 Y165.468 E0.07541
G1 X29.445 Y165.468 E5.99380
G1 X28.047 Y165.138 E0.04502
G1 X27.069 Y164.658 E0.03415
G1 X25.914 Y163.650 E0.04809
G1 X25.374 Y162.975 E0.02709
G1 X25.669 Y162.741 F10800.000
G1 F2520
G1 X25.619 Y162.678 E0.00252
G1 X24.909 Y160.578 E0.06951
G1 X24.909 Y49.467 E3.48378
G1 X25.224 Y48.157 E0.04227
G1 X25.668 Y47.259 E0.03139
G1 X26.622 Y46.176 E0.04525
G1 X27.322 Y45.619 E0.02806
G1 X29.423 Y44.909 E0.06951
G1 X220.505 Y44.913 E5.99124
M73 Q1 S281
G1 X221.527 Y45.108 E0.03263
G1 X222.518 Y45.530 E0.03378
G1 X223.826 Y46.618 E0.05336
G1 X224.686 Y47.926 E0.04907
G1 X225.091 Y49.465 E0.04988
G1 X225.091 Y160.533 E3.48246
G1 X224.776 Y161.843 E0.04227
G1 X224.332 Y162.741 E0.03139
G1 X223.378 Y163.824 E0.04525
G1 X222.678 Y164.381 E0.02806
G1 X220.578 Y165.091 E0.06951
G1 X29.467 Y165.091 E5.99212
M73 P1 R278
G1 X28.157 Y164.776 E0.04227
G1 X27.259 Y164.332 E0.03139
G1 X26.176 Y163.378 E0.04525
G1 X25.707 Y162.788 E0.02366
G1 X25.935 Y162.470 F10800.000
G1 F2520
G1 X25.287 Y160.547 E0.06363
G1 X25.287 Y49.490 E3.48210
G1 X25.585 Y48.267 E0.03947
G1 X25.994 Y47.451 E0.02862
G1 X26.892 Y46.439 E0.04242
G1 X27.530 Y45.935 E0.02550
G1 X29.453 Y45.287 E0.06363
G1 X220.486 Y45.290 E5.98971
G1 X221.435 Y45.474 E0.03029
G1 X222.343 Y45.865 E0.03101
G1 X223.562 Y46.888 E0.04990
G1 X224.353 Y48.106 E0.04551
G1 X224.713 Y49.489 E0.04481
G1 X224.713 Y160.510 E3.48099
G1 X224.415 Y161.733 E0.03947
