; generated by Slic3r Prusa Edition 1.41.0+win64 on 2018-11-09 at 08:08:17

; 

; external perimeters extrusion width = 0.45mm
; perimeters extrusion width = 0.45mm
; infill extrusion width = 0.45mm
; solid infill extrusion width = 0.45mm
; top infill extrusion width = 0.40mm
; support material extrusion width = 0.35mm
; first layer extrusion width = 0.42mm

M201 X1000 Y1000 Z1000 E5000 ; sets maximum accelerations, mm/sec^2
M203 X200 Y200 Z12 E120 ; sets maximum feedrates, mm/sec
M204 P1250 R1250 T1250 ; sets acceleration (P, T) and retract acceleration (R), mm/sec^2
M205 X8.00 Y8.00 Z0.40 E1.50 ; sets the jerk limits, mm/sec
M205 S0 T0 ; sets the minimum extruding and travel feed rate, mm/sec
M107
M115 U3.4.1 ; tell printer latest fw version
M83  ; extruder relative mode
M104 S215 ; set extruder temp
M140 S60 ; set bed temp
M190 S60 ; wait for bed temp
M109 S215 ; wait for extruder temp
G28 W ; home all without mesh bed level
G80 ; mesh bed leveling
G1 Y-3.0 F1000.0 ; go outside print area
G92 E0.0
G1 X60.0 E9.0  F1000.0 ; intro line
M73 Q0 S70
M73 P0 R70
G1 X100.0 E12.5  F1000.0 ; intro line
G92 E0.0
M221 S95
M900 K30; Filament gcode
G21 ; set units to millimeters
G90 ; use absolute coordinates
M83 ; use relative distances for extrusion
;BEFORE_LAYER_CHANGE
G92 E0.0
;0.2


G1 E-0.80000 F2100.00000
G1 Z0.600 F10800.000
;AFTER_LAYER_CHANGE
;0.2
G1 X81.207 Y84.266
G1 Z0.200
G1 E0.80000 F2100.00000
M204 S1000
G1 F1200
G1 X81.912 Y83.804 E0.02642
G1 X82.743 Y83.642 E0.02653
G1 X168.786 Y86.419 E2.69923
G1 X169.255 Y86.487 E0.01487
G1 X169.699 Y86.653 E0.01487
G1 X170.183 Y86.986 E0.01839
G1 X170.562 Y87.438 E0.01851
G1 X170.806 Y87.971 E0.01839
G1 X170.900 Y88.554 E0.01851
G1 X170.900 Y127.177 E1.21099
G1 X170.839 Y127.680 E0.01589
G1 X170.664 Y128.156 E0.01589
G1 X170.326 Y128.644 E0.01862
G1 X169.866 Y129.026 E0.01873
G1 X169.323 Y129.267 E0.01862
G1 X168.732 Y129.355 E0.01873
G1 X84.235 Y129.355 E2.64935
G1 X82.384 Y129.156 E0.05836
G1 X81.751 Y128.950 E0.02089
G1 X81.267 Y128.618 E0.01839
G1 X80.889 Y128.169 E0.01839
G1 X80.644 Y127.636 E0.01839
G1 X80.550 Y127.057 E0.01839
G1 X80.549 Y85.783 E1.29411
G1 X80.730 Y84.960 E0.02642
G1 X81.173 Y84.315 E0.02454
; PURGING FINISHED
G1 F8640
G1 X81.912 Y83.804 E-0.20746
G1 X82.743 Y83.642 E-0.19539
G1 X84.289 Y83.692 E-0.35715
G1 E-0.04000 F2100.00000
G1 Z0.800 F10800.000
G1 X82.738 Y85.830
G1 Z0.200
G1 E0.80000 F2100.00000
G1 F1200
G1 X82.738 Y126.996 E1.29073
G1 X83.492 Y126.996 E0.02365
G1 X83.492 Y86.825 E1.25956
G1 X84.246 Y87.579 E0.03344
G1 X84.246 Y127.166 E1.24123
G1 F8640
G1 X84.246 Y123.875 E-0.76000
G1 E-0.04000 F2100.00000
G1 Z0.800 F10800.000
G1 X90.279 Y89.776
G1 Z0.200
G1 E0.80000 F2100.00000
G1 F1200
G1 X90.279 Y89.404 E0.01167
G1 X89.525 Y89.404 E0.02365
G1 X89.525 Y89.607 E0.00635
G1 X88.771 Y89.607 E0.02365
G1 X88.771 Y89.404 E0.00635
G1 X88.017 Y89.404 E0.02365
G1 X88.017 Y89.607 E0.00635
G1 X87.262 Y89.607 E0.02365
G1 X87.262 Y89.404 E0.00635
G1 X86.508 Y89.404 E0.02365
G1 X86.508 Y89.607 E0.00635
G1 X85.754 Y89.607 E0.02365
G1 X85.754 Y89.087 E0.01629
G1 X85.000 Y88.333 E0.03344
G1 X85.000 Y89.607 E0.03994
G1 X84.829 Y89.607 E0.00537
G1 X84.586 Y89.849 E0.01074
G1 X84.586 Y90.592 E0.02328
G1 X84.829 Y90.834 E0.01074
G1 X85.000 Y90.834 E0.00537
G1 X85.000 Y126.996 E1.13385
G1 X85.754 Y126.996 E0.02365
G1 X85.754 Y90.834 E1.13385
G1 X86.508 Y90.834 E0.02365
G1 X86.508 Y126.996 E1.13385
G1 X87.262 Y126.996 E0.02365
G1 X87.262 Y90.834 E1.13385
G1 X88.017 Y90.834 E0.02365
G1 X88.017 Y126.996 E1.13385
G1 X88.771 Y126.996 E0.02365
G1 X88.771 Y90.834 E1.13385
G1 X89.525 Y90.834 E0.02365
G1 X89.525 Y126.996 E1.13385
G1 X90.279 Y126.996 E0.02365
G1 X90.279 Y90.834 E1.13385
G1 X90.288 Y116.420 E0.80225
G1 X91.033 Y116.420 E0.02336
G1 X91.033 Y126.996 E0.33161
G1 X91.787 Y126.996 E0.02365
G1 X91.787 Y116.420 E0.33161
G1 X92.542 Y116.420 E0.02365
G1 X92.542 Y126.996 E0.33161
G1 X93.296 Y126.996 E0.02365
G1 X93.296 Y116.420 E0.33161
G1 X94.050 Y116.420 E0.02365
G1 X94.050 Y126.996 E0.33161
G1 X94.804 Y126.996 E0.02365
G1 X94.804 Y116.420 E0.33161
G1 X95.558 Y116.420 E0.02365
G1 X95.558 Y126.996 E0.33161
G1 X96.312 Y126.996 E0.02365
G1 X96.312 Y116.420 E0.33161
G1 X97.067 Y116.420 E0.02365
G1 X97.067 Y126.996 E0.33161
G1 X97.821 Y126.996 E0.02365
G1 X97.821 Y116.420 E0.33161
G1 X98.575 Y116.420 E0.02365
G1 X98.575 Y126.996 E0.33161
G1 X99.329 Y126.996 E0.02365
G1 X99.329 Y116.420 E0.33161
G1 X100.083 Y116.420 E0.02365
G1 X100.083 Y126.996 E0.33161
G1 X100.837 Y126.996 E0.02365
G1 X100.837 Y116.420 E0.33161
G1 X101.591 Y116.420 E0.02365
G1 X101.591 Y126.996 E0.33161
G1 X102.346 Y126.996 E0.02365
G1 X102.346 Y116.420 E0.33161
G1 X103.100 Y116.420 E0.02365
G1 X103.100 Y126.996 E0.33161
G1 X103.854 Y126.996 E0.02365
G1 X103.854 Y116.420 E0.33161
G1 X104.608 Y116.420 E0.02365
G1 X104.608 Y126.996 E0.33161
G1 X105.362 Y126.996 E0.02365
G1 X105.362 Y116.420 E0.33161
G1 X106.116 Y116.420 E0.02365
G1 X106.116 Y126.996 E0.33161
G1 X106.871 Y126.996 E0.02365
G1 X106.871 Y116.420 E0.33161
G1 X107.625 Y116.420 E0.02365
G1 X107.625 Y126.996 E0.33161
G1 X108.379 Y126.996 E0.02365
G1 X108.379 Y116.420 E0.33161
G1 X109.133 Y116.420 E0.02365
G1 X109.133 Y126.996 E0.33161
G1 X109.887 Y126.996 E0.02365
G1 X109.887 Y116.420 E0.33161
G1 X110.641 Y116.420 E0.02365
G1 X110.641 Y126.996 E0.33161
G1 X111.396 Y126.996 E0.02365
G1 X111.396 Y116.420 E0.33161
G1 X112.150 Y116.420 E0.02365
G1 X112.150 Y126.996 E0.33161
G1 X112.904 Y126.996 E0.02365
G1 X112.904 Y116.420 E0.33161
G1 X113.658 Y116.420 E0.02365
G1 X113.658 Y126.996 E0.33161
G1 X114.412 Y126.996 E0.02365
G1 X114.412 Y116.420 E0.33161
G1 X115.166 Y116.420 E0.02365
G1 X115.166 Y126.996 E0.33161
M73 Q1 S69
G1 X115.921 Y126.996 E0.02365
G1 X115.921 Y116.420 E0.33161
M73 P1 R69
G1 X116.675 Y116.420 E0.02365
G1 X116.675 Y126.996 E0.33161
G1 X117.429 Y126.996 E0.02365
G1 X117.429 Y116.420 E0.33161
G1 X118.183 Y116.420 E0.02365
G1 X118.183 Y126.996 E0.33161
G1 X118.937 Y126.996 E0.02365
G1 X118.937 Y116.420 E0.33161
G1 X119.691 Y116.420 E0.02365
G1 X119.691 Y126.996 E0.33161
G1 X120.445 Y126.996 E0.02365
G1 X120.445 Y116.420 E0.33161
G1 X121.200 Y116.420 E0.02365
G1 X121.200 Y126.996 E0.33161
G1 X121.954 Y126.996 E0.02365
G1 X121.954 Y116.420 E0.33161
G1 X122.708 Y116.420 E0.02365
G1 X122.708 Y126.996 E0.33161
G1 X123.462 Y126.996 E0.02365
G1 X123.462 Y116.420 E0.33161
G1 X124.216 Y116.420 E0.02365
G1 X124.216 Y126.996 E0.33161
G1 X124.970 Y126.996 E0.02365
G1 X124.970 Y116.420 E0.33161
G1 X125.725 Y116.420 E0.02365
G1 X125.725 Y126.996 E0.33161
G1 X126.479 Y126.996 E0.02365
G1 X126.479 Y116.420 E0.33161
G1 X127.233 Y116.420 E0.02365
G1 X127.233 Y126.996 E0.33161
G1 X127.987 Y126.996 E0.02365
G1 X127.987 Y116.420 E0.33161
G1 X128.741 Y116.420 E0.02365
G1 X128.741 Y126.996 E0.33161
G1 X129.495 Y126.996 E0.02365
G1 X129.495 Y116.420 E0.33161
G1 X130.250 Y116.420 E0.02365
G1 X130.250 Y126.996 E0.33161
G1 X131.004 Y126.996 E0.02365
G1 X131.004 Y116.420 E0.33161
G1 X131.758 Y116.420 E0.02365
G1 X131.758 Y126.996 E0.33161
G1 X132.512 Y126.996 E0.02365
G1 X132.512 Y116.420 E0.33161
G1 X133.266 Y116.420 E0.02365
G1 X133.266 Y126.996 E0.33161
G1 X134.020 Y126.996 E0.02365
G1 X134.020 Y116.420 E0.33161
G1 X134.774 Y116.420 E0.02365
G1 X134.774 Y126.996 E0.33161
G1 X135.529 Y126.996 E0.02365
G1 X135.529 Y116.420 E0.33161
G1 X136.283 Y116.420 E0.02365
G1 X136.283 Y126.996 E0.33161
G1 X137.037 Y126.996 E0.02365
G1 X137.037 Y116.420 E0.33161
G1 X137.791 Y116.420 E0.02365
G1 X137.791 Y126.996 E0.33161
G1 X138.545 Y126.996 E0.02365
G1 X138.545 Y116.420 E0.33161
G1 X139.299 Y116.420 E0.02365
G1 X139.299 Y126.996 E0.33161
G1 X140.054 Y126.996 E0.02365
G1 X140.054 Y116.420 E0.33161
G1 X140.808 Y116.420 E0.02365
G1 X140.808 Y126.996 E0.33161
G1 X141.562 Y126.996 E0.02365
G1 X141.562 Y116.420 E0.33161
G1 X142.316 Y116.420 E0.02365
G1 X142.316 Y126.996 E0.33161
G1 X143.070 Y126.996 E0.02365
G1 X143.070 Y116.420 E0.33161
G1 X143.824 Y116.420 E0.02365
G1 X143.824 Y126.996 E0.33161
G1 X144.579 Y126.996 E0.02365
G1 X144.579 Y116.420 E0.33161
G1 X145.333 Y116.420 E0.02365
G1 X145.333 Y126.996 E0.33161
G1 X146.087 Y126.996 E0.02365
G1 X146.087 Y116.420 E0.33161
G1 X146.841 Y116.420 E0.02365
G1 X146.841 Y126.996 E0.33161
G1 X147.595 Y126.996 E0.02365
G1 X147.595 Y116.420 E0.33161
G1 X148.349 Y116.420 E0.02365
G1 X148.349 Y126.996 E0.33161
G1 X149.104 Y126.996 E0.02365
G1 X149.104 Y116.420 E0.33161
G1 X149.858 Y116.420 E0.02365
G1 X149.858 Y126.996 E0.33161
G1 X150.612 Y126.996 E0.02365
G1 X150.612 Y116.420 E0.33161
G1 X151.366 Y116.420 E0.02365
G1 X151.366 Y126.996 E0.33161
G1 X152.120 Y126.996 E0.02365
G1 X152.120 Y116.420 E0.33161
G1 X152.874 Y116.420 E0.02365
G1 X152.874 Y126.996 E0.33161
G1 X153.628 Y126.996 E0.02365
G1 X153.628 Y116.420 E0.33161
G1 X154.383 Y116.420 E0.02365
G1 X154.383 Y126.996 E0.33161
G1 X155.137 Y126.996 E0.02365
G1 X155.137 Y116.420 E0.33161
G1 X155.891 Y116.420 E0.02365
G1 X155.891 Y126.996 E0.33161
G1 X156.645 Y126.996 E0.02365
G1 X156.645 Y116.420 E0.33161
G1 X157.399 Y116.420 E0.02365
G1 X157.399 Y126.996 E0.33161
G1 X158.153 Y126.996 E0.02365
G1 X158.153 Y116.420 E0.33161
G1 X158.517 Y116.420 E0.01141
G1 X158.517 Y90.834 E0.80225
G1 X158.908 Y90.834 E0.01223
G1 X158.908 Y126.996 E1.13385
G1 X159.662 Y126.996 E0.02365
G1 X159.662 Y90.834 E1.13385
G1 X160.416 Y90.834 E0.02365
G1 X160.416 Y126.996 E1.13385
G1 X161.170 Y126.996 E0.02365
G1 X161.170 Y90.834 E1.13385
G1 X161.924 Y90.834 E0.02365
G1 X161.924 Y126.996 E1.13385
G1 X162.678 Y126.996 E0.02365
G1 X162.678 Y90.834 E1.13385
G1 X163.433 Y90.834 E0.02365
G1 X163.433 Y126.996 E1.13385
G1 X164.187 Y126.996 E0.02365
G1 X164.187 Y90.834 E1.13385
G1 X164.941 Y90.834 E0.02365
G1 X164.941 Y127.166 E1.13917
G1 X168.712 Y127.166 F10800.000
G1 F1200
G1 X168.712 Y88.606 E1.20901
G1 X167.957 Y88.606 E0.02365
G1 X167.957 Y126.996 E1.20369
G1 X167.203 Y126.996 E0.02365
G1 X167.203 Y88.606 E1.20369
G1 X166.449 Y88.606 E0.02365
G1 X166.449 Y126.996 E1.20369
G1 X165.695 Y126.996 E0.02365
G1 X165.695 Y88.606 E1.20369
M73 Q2 S68
M73 P2 R68
G1 X164.941 Y88.606 E0.02365
G1 X164.941 Y89.607 E0.03136
G1 X164.187 Y89.607 E0.02365
G1 X164.187 Y88.606 E0.03136
G1 X163.433 Y88.606 E0.02365
G1 X163.433 Y89.607 E0.03136
G1 X162.678 Y89.607 E0.02365
G1 X162.678 Y88.606 E0.03136
G1 X162.414 Y88.606 E0.00830
G1 X162.414 Y89.404 E0.02501
G1 X161.924 Y89.404 E0.01535
G1 X161.924 Y89.607 E0.00635
G1 X161.170 Y89.607 E0.02365
G1 X161.170 Y89.404 E0.00635
G1 X160.416 Y89.404 E0.02365
G1 X160.416 Y89.607 E0.00635
G1 X159.662 Y89.607 E0.02365
G1 X159.662 Y89.404 E0.00635
G1 X158.908 Y89.404 E0.02365
G1 X158.908 Y89.776 E0.01167
M106 S255
;BEFORE_LAYER_CHANGE
G92 E0.0
;0.35


G1 F8640
G1 X158.908 Y89.404 E-0.08592
G1 X159.662 Y89.404 E-0.17414
G1 X159.662 Y89.607 E-0.04674
G1 X160.416 Y89.607 E-0.17414
G1 X160.416 Y89.404 E-0.04674
G1 X161.170 Y89.404 E-0.17414
G1 X161.170 Y89.607 E-0.04674
G1 X161.220 Y89.607 E-0.01143
G1 E-0.04000 F2100.00000
G1 Z0.800 F10800.000
;AFTER_LAYER_CHANGE
;0.35
G1 X81.912 Y83.804
G1 Z0.350
G1 E0.80000 F2100.00000
G1 F1762
G1 X82.743 Y83.642 E0.02047
G1 X168.786 Y86.419 E2.08203
G1 X169.255 Y86.487 E0.01147
G1 X169.699 Y86.653 E0.01147
G1 X170.183 Y86.986 E0.01419
G1 X170.562 Y87.438 E0.01428
G1 X170.806 Y87.971 E0.01419
G1 X170.900 Y88.554 E0.01428
G1 X170.900 Y127.177 E0.93409
G1 X170.839 Y127.680 E0.01226
G1 X170.664 Y128.156 E0.01226
G1 X170.326 Y128.644 E0.01436
G1 X169.866 Y129.026 E0.01445
G1 X169.323 Y129.267 E0.01436
G1 X168.732 Y129.355 E0.01445
G1 X84.235 Y129.355 E2.04356
G1 X82.384 Y129.156 E0.04501
G1 X81.751 Y128.950 E0.01611
G1 X81.267 Y128.618 E0.01419
G1 X80.889 Y128.169 E0.01419
G1 X80.644 Y127.636 E0.01419
G1 X80.550 Y127.057 E0.01419
G1 X80.549 Y85.783 E0.99820
G1 X80.730 Y84.960 E0.02038
G1 X81.207 Y84.266 E0.02038
G1 X81.862 Y83.837 E0.01893
; PURGING FINISHED
G1 F8640
G1 X82.743 Y83.642 E-0.20828
G1 X85.131 Y83.719 E-0.55172
G1 E-0.04000 F2100.00000
G1 Z0.950 F10800.000
G1 X85.225 Y90.198
G1 Z0.350
G1 E0.80000 F2100.00000
M204 S800
G1 F1762
G1 X164.775 Y90.198 E2.07274
G1 X164.775 Y90.620 E0.01099
G1 F1800
G1 X164.775 Y90.848 E0.00953
G1 X85.225 Y90.848 E3.32487
G1 X85.225 Y90.620 E0.00953
G1 F1762
G1 X85.225 Y90.258 E0.00943
M204 S1000
G1 X85.258 Y90.597 F10800.000
G1 X85.434 Y90.523
G1 F1762
G1 X164.566 Y90.523 E1.14582
;BEFORE_LAYER_CHANGE
G92 E0.0
;0.443939


G1 F8640
G1 X161.275 Y90.523 E-0.76000
G1 E-0.04000 F2100.00000
G1 Z0.950 F10800.000
;AFTER_LAYER_CHANGE
;0.443939
; PURGING FINISHED
G1 X166.266 Y91.577
G1 Z0.444
G1 E0.80000 F2100.00000
G1 F1615
G1 X165.384 Y91.577 E0.02664
G1 X165.384 Y92.150 E0.01729
G1 X165.159 Y92.375 E0.00960
G1 X161.488 Y92.375 E0.11083
G1 X161.488 Y93.895 E0.04589
G1 X166.123 Y93.895 E0.13994
G1 X166.123 Y96.212 E0.06997
G1 X161.488 Y96.212 E0.13994
G1 X161.488 Y98.530 E0.06997
G1 X166.123 Y98.530 E0.13994
G1 X166.123 Y100.848 E0.06997
G1 X161.488 Y100.848 E0.13994
G1 X161.488 Y103.166 E0.06997
G1 X166.123 Y103.166 E0.13994
G1 X166.123 Y105.484 E0.06997
G1 X161.488 Y105.484 E0.13994
G1 X161.488 Y107.801 E0.06997
G1 X166.123 Y107.801 E0.13994
G1 X166.123 Y110.119 E0.06997
G1 X161.488 Y110.119 E0.13994
G1 X161.488 Y112.437 E0.06997
G1 X166.123 Y112.437 E0.13994
G1 X166.123 Y114.755 E0.06997
G1 X161.488 Y114.755 E0.13994
G1 X161.488 Y117.073 E0.06997
G1 X166.123 Y117.073 E0.13994
G1 X166.123 Y119.391 E0.06997
G1 X85.000 Y119.391 E2.44888
G1 X85.000 Y117.073 E0.06997
G1 X87.318 Y117.073 E0.06997
G1 X87.318 Y114.755 E0.06997
G1 X85.000 Y114.755 E0.06997
G1 X85.000 Y112.437 E0.06997
G1 X87.318 Y112.437 E0.06997
G1 X87.318 Y110.119 E0.06997
G1 X85.000 Y110.119 E0.06997
G1 X85.000 Y107.801 E0.06997
G1 X87.318 Y107.801 E0.06997
G1 X87.318 Y105.484 E0.06997
G1 X85.000 Y105.484 E0.06997
G1 X85.000 Y103.166 E0.06997
G1 X87.318 Y103.166 E0.06997
G1 X87.318 Y100.848 E0.06997
G1 X85.000 Y100.848 E0.06997
G1 X85.000 Y98.530 E0.06997
G1 X87.318 Y98.530 E0.06997
G1 X87.318 Y96.212 E0.06997
G1 X85.000 Y96.212 E0.06997
G1 X85.000 Y93.895 E0.06997
G1 X87.461 Y93.895 E0.07429
G1 F8640
G1 X85.000 Y93.895 E-0.56822
G1 X85.000 Y94.725 E-0.19178
G1 E-0.04000 F2100.00000
G1 Z1.044 F10800.000
G1 X166.266 Y121.708
G1 Z0.444
G1 E0.80000 F2100.00000
G1 F1615
G1 X85.000 Y121.708 E2.45320
G1 X85.000 Y124.026 E0.06997
G1 X166.266 Y124.026 E2.45320
;BEFORE_LAYER_CHANGE
G92 E0.0
;0.5


G1 F8640
G1 X162.975 Y124.026 E-0.76000
G1 E-0.04000 F2100.00000
G1 Z1.044 F10800.000
;AFTER_LAYER_CHANGE
;0.5
G1 X170.326 Y128.644
G1 Z0.500
G1 E0.80000 F2100.00000
G1 F1945
G1 X169.866 Y129.026 E0.01445
G1 X169.323 Y129.267 E0.01436
G1 X168.732 Y129.355 E0.01445
G1 X84.235 Y129.355 E2.04356
G1 X82.384 Y129.156 E0.04501
G1 X81.751 Y128.950 E0.01611
G1 X81.267 Y128.618 E0.01419
G1 X80.889 Y128.169 E0.01419
G1 X80.644 Y127.636 E0.01419
G1 X80.550 Y127.057 E0.01419
G1 X80.549 Y85.783 E0.99820
G1 X80.730 Y84.960 E0.02038
G1 X81.207 Y84.266 E0.02038
G1 X81.912 Y83.804 E0.02038
G1 X82.743 Y83.642 E0.02047
G1 X168.786 Y86.419 E2.08203
G1 X169.255 Y86.487 E0.01147
G1 X169.699 Y86.653 E0.01147
G1 X170.183 Y86.986 E0.01419
G1 X170.562 Y87.438 E0.01428
G1 X170.806 Y87.971 E0.01419
G1 X170.900 Y88.554 E0.01428
G1 X170.900 Y127.177 E0.93409
G1 X170.839 Y127.680 E0.01226
G1 X170.664 Y128.156 E0.01226
G1 X170.360 Y128.595 E0.01291
; PURGING FINISHED
G1 F8640
G1 X169.866 Y129.026 E-0.15136
G1 X169.323 Y129.267 E-0.13713
G1 X168.732 Y129.355 E-0.13797
G1 X167.288 Y129.355 E-0.33354
G1 E-0.04000 F2100.00000
G1 Z1.100 F10800.000
G1 X164.357 Y90.990
G1 Z0.500
G1 E0.80000 F2100.00000
M204 S800
G1 F1945
G1 X85.643 Y90.990 E2.05096
G1 X85.643 Y90.576 E0.01080
G1 X164.357 Y90.576 E2.05096
G1 X164.357 Y90.930 E0.00923
M204 S1000
G1 X164.775 Y90.158 F10800.000
M204 S800
G1 F1945
G1 X164.775 Y91.273 E0.02906
G1 F1800
G1 X164.775 Y91.408 E0.00563
G1 X85.225 Y91.408 E3.32487
G1 X85.225 Y91.273 E0.00563
G1 F1945
G1 X85.225 Y90.158 E0.02906
G1 X164.715 Y90.158 E2.07117
M204 S1000
G1 X164.577 Y90.505 F10800.000
;BEFORE_LAYER_CHANGE
G92 E0.0
;0.65


G1 F8640
G1 X164.775 Y91.273 E-0.25787
