; generated by Slic3r Prusa Edition 1.42.0-beta2+win64 on 2019-11-13 at 16:15:45

; 

; external perimeters extrusion width = 0.45mm
; perimeters extrusion width = 0.45mm
; infill extrusion width = 0.45mm
; solid infill extrusion width = 0.45mm
; top infill extrusion width = 0.40mm
; first layer extrusion width = 0.42mm

M73 P0 R50
M73 Q0 S51
M201 X1000 Y1000 Z1000 E5000 ; sets maximum accelerations, mm/sec^2
M203 X200 Y200 Z12 E120 ; sets maximum feedrates, mm/sec
M204 P1250 R1250 T1250 ; sets acceleration (P, T) and retract acceleration (R), mm/sec^2
M205 X8.00 Y8.00 Z0.40 E1.50 ; sets the jerk limits, mm/sec
M205 S0 T0 ; sets the minimum extruding and travel feed rate, mm/sec
M107
M115 U3.8.0 ; tell printer latest fw version
G90 ; use absolute coordinates
M83 ; extruder relative mode
M104 S255 ; set extruder temp
M140 S100 ; set bed temp
M190 S100 ; wait for bed temp
M109 S255 ; wait for extruder temp
G28 W ; home all without mesh bed level
G80 ; mesh bed leveling
G1 Y-3.0 F1000.0 ; go outside print area
G92 E0.0
G1 X60.0 E9.0 F1000.0 ; intro line
M73 Q0 S51
M73 P0 R50
G1 X100.0 E12.5 F1000.0 ; intro line
G92 E0.0
M221 S95
M900 K30 ; Filament gcode
G21 ; set units to millimeters
G90 ; use absolute coordinates
M83 ; use relative distances for extrusion
;BEFORE_LAYER_CHANGE
G92 E0.0
;0.2


G1 E-0.80000 F2100.00000
G1 Z0.600 F10800.000
;AFTER_LAYER_CHANGE
;0.2
G1 X94.182 Y86.007
G1 Z0.200
G1 E0.80000 F2100.00000
M204 S1000
G1 X94.948 Y85.169 E0.03558
G1 X95.884 Y84.519 E0.03575
G1 X97.029 Y84.071 E0.03853
G1 X98.247 Y83.910 E0.03853
G1 X151.706 Y83.909 E1.67616
G1 X152.554 Y83.982 E0.02671
G1 X153.374 Y84.193 E0.02653
G1 X154.147 Y84.536 E0.02653
G1 X154.853 Y85.003 E0.02653
G1 X155.471 Y85.581 E0.02653
G1 X155.989 Y86.258 E0.02671
G1 X156.384 Y87.006 E0.02653
G1 X156.649 Y87.810 E0.02653
G1 X156.779 Y88.657 E0.02688
G1 X157.786 Y104.777 E0.50641
G1 X157.548 Y108.179 E0.10694
G1 X156.856 Y111.176 E0.09643
G1 X156.627 Y111.875 E0.02305
G1 X155.483 Y114.588 E0.09234
G1 X153.778 Y117.375 E0.10243
G1 X151.848 Y119.662 E0.09384
G1 X151.334 Y120.172 E0.02270
G1 X149.078 Y122.077 E0.09259
G1 X146.377 Y123.738 E0.09942
G1 X142.878 Y125.156 E0.11836
G1 X139.992 Y125.832 E0.09295
G1 X136.988 Y126.082 E0.09451
G1 X113.250 Y126.090 E0.74430
G1 X109.922 Y125.818 E0.10468
G1 X106.808 Y125.066 E0.10045
G1 X104.078 Y123.955 E0.09242
G1 X103.431 Y123.630 E0.02270
G1 X100.907 Y122.065 E0.09312
G1 X98.634 Y120.144 E0.09330
G1 X98.124 Y119.630 E0.02270
G1 X96.223 Y117.377 E0.09241
G1 X94.562 Y114.677 E0.09941
G1 X93.259 Y111.569 E0.10568
G1 X92.548 Y108.694 E0.09286
G1 X92.429 Y107.951 E0.02357
G1 X92.214 Y104.776 E0.09979
G1 X93.291 Y88.091 E0.52425
G1 X93.619 Y86.999 E0.03575
G1 X94.153 Y86.059 E0.03387
G1 F8640
G1 X94.948 Y85.169 E-0.27554
G1 X95.884 Y84.519 E-0.26330
G1 X96.776 Y84.170 E-0.22116
G1 E-0.04000 F2100.00000
G1 Z0.800 F10800.000
G1 X155.322 Y95.996
G1 Z0.200
G1 E0.80000 F2100.00000
G1 X156.385 Y98.556 E0.08692
G1 X157.150 Y101.711 E0.10177
G1 X157.413 Y105.014 E0.10391
G1 X157.141 Y108.345 E0.10479
G1 X156.405 Y111.383 E0.09802
G1 X155.232 Y114.252 E0.09716
G1 X153.358 Y117.311 E0.11248
G1 X151.359 Y119.634 E0.09611
G1 X149.038 Y121.638 E0.09613
G1 X146.028 Y123.493 E0.11087
G1 X142.929 Y124.754 E0.10491
G1 X139.919 Y125.461 E0.09696
G1 X136.872 Y125.710 E0.09583
G1 X131.574 Y125.653 E0.16613
G1 X130.701 Y125.392 E0.02859
G1 X129.900 Y124.972 E0.02834
G1 X128.855 Y124.020 E0.04433
G1 X128.138 Y122.870 E0.04248
G1 X127.787 Y121.510 E0.04406
G1 X127.787 Y106.713 E0.46393
G1 X122.213 Y106.713 E0.17476
G1 X122.186 Y121.716 E0.47039
G1 X121.807 Y122.997 E0.04190
G1 X121.101 Y124.069 E0.04023
G1 X119.970 Y125.050 E0.04695
G1 X118.619 Y125.621 E0.04597
G1 X117.898 Y125.713 E0.02280
G1 X113.212 Y125.713 E0.14692
G1 X110.260 Y125.489 E0.09285
G1 X107.104 Y124.765 E0.10151
G1 X104.088 Y123.552 E0.10194
G1 X101.220 Y121.826 E0.10494
G1 X98.687 Y119.679 E0.10410
G1 X96.529 Y117.156 E0.10410
G1 X94.803 Y114.322 E0.10404
G1 X93.536 Y111.198 E0.10569
G1 X92.815 Y108.067 E0.10075
G1 X92.587 Y104.893 E0.09977
G1 X92.844 Y101.749 E0.09891
G1 X93.558 Y98.732 E0.09720
G1 X94.680 Y95.996 E0.09272
G1 X94.349 Y95.627 E0.01556
G1 X93.878 Y94.728 E0.03181
G1 X93.620 Y93.743 E0.03193
G1 X93.648 Y88.066 E0.17799
G1 X93.949 Y87.102 E0.03168
G1 X94.438 Y86.250 E0.03080
G1 X95.236 Y85.395 E0.03665
G1 X96.033 Y84.823 E0.03078
G1 X97.773 Y84.286 E0.05709
G1 X152.204 Y84.290 E1.70664
G1 X153.579 Y84.642 E0.04450
G1 X154.726 Y85.354 E0.04236
G1 X155.693 Y86.430 E0.04533
G1 X156.081 Y87.174 E0.02631
G1 X156.349 Y88.054 E0.02884
G1 X156.380 Y93.751 E0.17865
G1 X156.135 Y94.695 E0.03057
G1 X155.654 Y95.621 E0.03270
G1 X155.362 Y95.951 E0.01383
G1 X154.880 Y95.917 F10800.000
G1 F2100
G1 X156.022 Y98.660 E0.09316
G1 X156.775 Y101.755 E0.09990
G1 X157.036 Y105.029 E0.10296
G1 X156.767 Y108.299 E0.10289
G1 X156.042 Y111.280 E0.09619
G1 X154.889 Y114.095 E0.09536
G1 X153.062 Y117.076 E0.10964
G1 X151.082 Y119.377 E0.09519
G1 X148.804 Y121.342 E0.09434
G1 X145.844 Y123.164 E0.10896
G1 X142.801 Y124.399 E0.10298
G1 X139.874 Y125.087 E0.09427
G1 X136.868 Y125.333 E0.09457
G1 X131.606 Y125.277 E0.16498
G1 X130.829 Y125.037 E0.02552
G1 X130.136 Y124.677 E0.02448
G1 X129.129 Y123.760 E0.04270
G1 X128.474 Y122.697 E0.03912
G1 X128.164 Y121.486 E0.03920
G1 X128.164 Y106.336 E0.47501
G1 X121.836 Y106.336 E0.19839
G1 X121.816 Y121.637 E0.47974
G1 X121.475 Y122.816 E0.03848
G1 X120.833 Y123.804 E0.03694
G1 X119.793 Y124.715 E0.04335
G1 X118.544 Y125.250 E0.04260
G1 X117.886 Y125.336 E0.02082
G1 X113.220 Y125.336 E0.14630
G1 X110.302 Y125.114 E0.09173
G1 X107.203 Y124.400 E0.09972
G1 X104.243 Y123.208 E0.10008
G1 X101.428 Y121.511 E0.10305
G1 X98.942 Y119.402 E0.10220
G1 X96.826 Y116.923 E0.10221
G1 X95.133 Y114.139 E0.10214
G1 X93.900 Y111.099 E0.10287
G1 X93.190 Y108.025 E0.09892
G1 X92.964 Y104.909 E0.09795
G1 X93.214 Y101.822 E0.09711
G1 X93.921 Y98.834 E0.09628
G1 X95.122 Y95.915 E0.09895
G1 X94.671 Y95.428 E0.02080
G1 X94.222 Y94.573 E0.03028
G1 X93.991 Y93.673 E0.02913
G1 X94.017 Y88.150 E0.17317
G1 X94.287 Y87.269 E0.02890
G1 X94.729 Y86.491 E0.02806
G1 X95.498 Y85.667 E0.03534
G1 X96.227 Y85.148 E0.02805
G1 X97.801 Y84.664 E0.05164
G1 X152.180 Y84.667 E1.70503
G1 X153.406 Y84.978 E0.03966
G1 X154.466 Y85.628 E0.03896
G1 X155.371 Y86.627 E0.04227
G1 X155.726 Y87.301 E0.02388
G1 X155.980 Y88.137 E0.02741
G1 X156.009 Y93.682 E0.17385
G1 X155.790 Y94.541 E0.02779
G1 X155.332 Y95.424 E0.03118
G1 X154.921 Y95.872 E0.01908
G1 X154.438 Y95.835 F10800.000
G1 F2100
G1 X155.659 Y98.763 E0.09948
G1 X156.401 Y101.801 E0.09803
G1 X156.659 Y105.014 E0.10106
G1 X156.397 Y108.225 E0.10103
G1 X155.687 Y111.151 E0.09439
G1 X154.546 Y113.938 E0.09443
G1 X152.766 Y116.842 E0.10679
G1 X150.825 Y119.101 E0.09339
G1 X148.569 Y121.047 E0.09342
G1 X145.660 Y122.835 E0.10705
G1 X142.700 Y124.036 E0.10016
G1 X139.829 Y124.712 E0.09249
G1 X136.862 Y124.956 E0.09332
G1 X131.691 Y124.908 E0.16215
G1 X130.957 Y124.682 E0.02410
G1 X130.333 Y124.355 E0.02207
G1 X129.403 Y123.500 E0.03961
G1 X128.832 Y122.574 E0.03410
G1 X128.541 Y121.462 E0.03606
G1 X128.541 Y105.959 E0.48607
G1 X121.459 Y105.959 E0.22203
G1 X121.446 Y121.560 E0.48916
G1 X121.142 Y122.637 E0.03508
G1 X120.562 Y123.540 E0.03365
G1 X119.614 Y124.382 E0.03975
G1 X118.468 Y124.880 E0.03920
G1 X117.873 Y124.959 E0.01881
G1 X113.227 Y124.959 E0.14568
G1 X110.345 Y124.739 E0.09061
G1 X107.302 Y124.036 E0.09792
G1 X104.398 Y122.864 E0.09822
G1 X101.636 Y121.196 E0.10116
G1 X99.198 Y119.124 E0.10030
G1 X97.123 Y116.690 E0.10031
G1 X95.464 Y113.956 E0.10025
G1 X94.264 Y110.999 E0.10006
G1 X93.565 Y107.983 E0.09708
G1 X93.341 Y104.925 E0.09614
G1 X93.584 Y101.895 E0.09531
G1 X94.285 Y98.935 E0.09535
G1 X95.564 Y95.831 E0.10528
G1 X94.992 Y95.229 E0.02604
G1 X94.567 Y94.418 E0.02870
G1 X94.363 Y93.604 E0.02630
G1 X94.386 Y88.233 E0.16844
G1 X94.627 Y87.434 E0.02614
G1 X95.020 Y86.731 E0.02528
G1 X95.760 Y85.939 E0.03399
G1 X96.419 Y85.474 E0.02529
G1 X97.829 Y85.041 E0.04624
G1 X152.157 Y85.044 E1.70342
G1 X153.236 Y85.316 E0.03487
G1 X154.206 Y85.903 E0.03556
G1 X155.049 Y86.826 E0.03919
G1 X155.370 Y87.429 E0.02141
G1 X155.612 Y88.221 E0.02596
G1 X155.637 Y93.614 E0.16910
G1 X155.444 Y94.387 E0.02499
G1 X155.010 Y95.226 E0.02962
G1 X154.479 Y95.791 E0.02432
G1 X153.954 Y95.793 F10800.000
G1 F2100
G1 X154.190 Y96.193 E0.01457
G1 X155.305 Y98.894 E0.09161
G1 X156.026 Y101.846 E0.09529
G1 X156.282 Y104.998 E0.09916
G1 X156.027 Y108.151 E0.09916
G1 X155.324 Y111.048 E0.09347
G1 X154.203 Y113.781 E0.09261
G1 X152.471 Y116.608 E0.10397
G1 X150.568 Y118.825 E0.09160
G1 X148.334 Y120.751 E0.09249
G1 X145.476 Y122.505 E0.10513
G1 X142.600 Y123.672 E0.09734
G1 X139.756 Y124.342 E0.09159
G1 X136.840 Y124.579 E0.09174
G1 X131.776 Y124.540 E0.15879
G1 X131.085 Y124.327 E0.02266
G1 X130.532 Y124.033 E0.01962
G1 X129.679 Y123.242 E0.03649
G1 X129.168 Y122.403 E0.03081
G1 X128.918 Y121.438 E0.03125
G1 X128.918 Y105.582 E0.49714
G1 X121.082 Y105.582 E0.24567
G1 X121.076 Y121.485 E0.49863
G1 X120.808 Y122.460 E0.03169
G1 X120.290 Y123.278 E0.03036
G1 X119.433 Y124.050 E0.03614
G1 X118.390 Y124.510 E0.03576
G1 X117.860 Y124.582 E0.01677
G1 X113.234 Y124.582 E0.14505
G1 X110.388 Y124.364 E0.08948
G1 X107.402 Y123.672 E0.09611
G1 X104.553 Y122.520 E0.09636
G1 X101.868 Y120.898 E0.09834
G1 X99.475 Y118.868 E0.09841
G1 X97.437 Y116.481 E0.09841
G1 X95.794 Y113.774 E0.09930
G1 X94.628 Y110.899 E0.09725
G1 X93.940 Y107.940 E0.09525
G1 X93.718 Y104.940 E0.09433
G1 X93.955 Y101.967 E0.09350
G1 X94.649 Y99.036 E0.09445
G1 X95.811 Y96.193 E0.09630
G1 X96.050 Y95.788 E0.01476
G1 X95.313 Y95.029 E0.03315
G1 X94.912 Y94.264 E0.02708
G1 X94.734 Y93.538 E0.02344
G1 X94.755 Y88.315 E0.16375
G1 X94.981 Y87.564 E0.02460
G1 X95.337 Y86.938 E0.02259
G1 X96.021 Y86.212 E0.03126
G1 X96.611 Y85.800 E0.02257
G1 X97.857 Y85.418 E0.04088
G1 X152.134 Y85.421 E1.70183
G1 X153.067 Y85.654 E0.03015
G1 X153.948 Y86.179 E0.03216
G1 X154.729 Y87.026 E0.03612
G1 X155.015 Y87.557 E0.01890
G1 X155.243 Y88.304 E0.02450
G1 X155.265 Y93.548 E0.16441
G1 X155.099 Y94.234 E0.02214
G1 X154.688 Y95.027 E0.02801
G1 X153.996 Y95.750 E0.03137
G1 X153.480 Y95.737 F10800.000
G1 F2100
G1 X153.847 Y96.351 E0.02241
G1 X154.951 Y99.024 E0.09071
G1 X155.656 Y101.921 E0.09347
G1 X155.905 Y104.984 E0.09634
G1 X155.657 Y108.077 E0.09730
G1 X154.970 Y110.918 E0.09166
G1 X153.860 Y113.623 E0.09169
G1 X152.175 Y116.374 E0.10114
G1 X150.291 Y118.568 E0.09068
G1 X148.100 Y120.456 E0.09068
G1 X145.293 Y122.175 E0.10322
G1 X142.499 Y123.308 E0.09452
G1 X139.684 Y123.971 E0.09069
G1 X136.818 Y124.203 E0.09015
G1 X131.861 Y124.171 E0.15544
G1 X131.214 Y123.972 E0.02120
G1 X130.733 Y123.713 E0.01712
G1 X129.956 Y122.985 E0.03341
G1 X129.525 Y122.279 E0.02592
G1 X129.295 Y121.413 E0.02810
G1 X129.295 Y105.205 E0.50818
G1 X120.705 Y105.205 E0.26932
G1 X120.705 Y121.413 E0.50818
G1 X120.473 Y122.285 E0.02831
G1 X120.015 Y123.018 E0.02709
G1 X119.250 Y123.719 E0.03252
G1 X118.311 Y124.141 E0.03230
G1 X117.847 Y124.205 E0.01468
G1 X113.241 Y124.205 E0.14440
G1 X110.432 Y123.989 E0.08835
G1 X107.502 Y123.309 E0.09431
G1 X104.709 Y122.176 E0.09450
G1 X102.076 Y120.584 E0.09646
G1 X99.731 Y118.590 E0.09651
G1 X97.734 Y116.248 E0.09651
G1 X96.124 Y113.591 E0.09740
G1 X94.992 Y110.799 E0.09446
G1 X94.315 Y107.897 E0.09343
G1 X94.095 Y104.955 E0.09251
G1 X94.329 Y102.012 E0.09258
G1 X95.012 Y99.138 E0.09262
G1 X96.154 Y96.350 E0.09446
G1 X96.524 Y95.730 E0.02264
G1 X95.633 Y94.828 E0.03974
G1 X95.257 Y94.110 E0.02541
G1 X95.106 Y93.473 E0.02053
G1 X95.124 Y88.398 E0.15913
G1 X95.336 Y87.694 E0.02305
G1 X95.652 Y87.146 E0.01984
G1 X96.280 Y86.487 E0.02855
G1 X96.801 Y86.127 E0.01985
G1 X97.885 Y85.795 E0.03556
G1 X152.112 Y85.798 E1.70024
G1 X152.901 Y85.993 E0.02549
G1 X153.692 Y86.457 E0.02875
G1 X154.410 Y87.229 E0.03305
G1 X154.660 Y87.686 E0.01634
G1 X154.874 Y88.388 E0.02301
G1 X154.893 Y93.484 E0.15979
G1 X154.753 Y94.082 E0.01926
G1 X154.366 Y94.828 E0.02635
G1 X153.522 Y95.694 E0.03790
G1 X152.933 Y95.560 F10800.000
G1 F2100
G1 X153.504 Y96.508 E0.03469
G1 X154.597 Y99.155 E0.08980
G1 X155.286 Y101.995 E0.09164
G1 X155.527 Y104.999 E0.09447
G1 X155.287 Y108.003 E0.09450
G1 X154.616 Y110.788 E0.08984
G1 X153.517 Y113.466 E0.09076
G1 X151.879 Y116.140 E0.09830
G1 X150.014 Y118.312 E0.08976
G1 X147.865 Y120.160 E0.08887
G1 X145.136 Y121.832 E0.10035
G1 X142.398 Y122.945 E0.09267
G1 X139.611 Y123.601 E0.08978
G1 X136.796 Y123.826 E0.08856
G1 X131.945 Y123.803 E0.15209
G1 X131.344 Y123.617 E0.01971
G1 X130.936 Y123.395 E0.01457
G1 X130.234 Y122.729 E0.03036
G1 X129.882 Y122.153 E0.02116
G1 X129.672 Y121.387 E0.02490
G1 X129.672 Y104.828 E0.51919
G1 X120.328 Y104.828 E0.29297
G1 X120.328 Y121.387 E0.51919
G1 X120.117 Y122.158 E0.02508
G1 X119.740 Y122.760 E0.02226
G1 X119.064 Y123.389 E0.02895
G1 X118.229 Y123.771 E0.02879
G1 X117.833 Y123.828 E0.01256
G1 X113.249 Y123.828 E0.14374
G1 X110.475 Y123.615 E0.08722
G1 X107.602 Y122.945 E0.09249
G1 X104.865 Y121.832 E0.09264
G1 X102.285 Y120.269 E0.09458
G1 X99.987 Y118.313 E0.09462
G1 X98.031 Y116.015 E0.09462
G1 X96.468 Y113.435 E0.09458
G1 X95.356 Y110.699 E0.09261
G1 X94.690 Y107.854 E0.09159
G1 X94.472 Y104.970 E0.09068
G1 X94.704 Y102.056 E0.09166
G1 X95.375 Y99.239 E0.09079
G1 X96.497 Y96.507 E0.09263
G1 X97.065 Y95.565 E0.03447
G1 X96.684 Y95.355 E0.01364
G1 X95.954 Y94.627 E0.03231
G1 X95.603 Y93.958 E0.02370
G1 X95.479 Y93.412 E0.01756
G1 X95.500 Y88.429 E0.15622
G1 X95.689 Y87.829 E0.01972
G1 X95.965 Y87.357 E0.01715
G1 X96.537 Y86.763 E0.02586
G1 X96.989 Y86.454 E0.01716
G1 X97.913 Y86.172 E0.03030
G1 X152.089 Y86.176 E1.69866
G1 X152.737 Y86.334 E0.02091
G1 X153.437 Y86.737 E0.02533
G1 X154.093 Y87.433 E0.03000
G1 X154.306 Y87.816 E0.01372
G1 X154.506 Y88.471 E0.02149
G1 X154.521 Y93.423 E0.15526
G1 X154.407 Y93.931 E0.01632
G1 X154.045 Y94.629 E0.02467
G1 X153.372 Y95.314 E0.03009
G1 X152.986 Y95.531 E0.01389
G1 X152.401 Y95.409 F10800.000
G1 F2100
G1 X153.161 Y96.666 E0.04604
G1 X154.243 Y99.285 E0.08888
G1 X154.916 Y102.069 E0.08980
G1 X155.150 Y105.013 E0.09261
G1 X154.917 Y107.929 E0.09170
G1 X154.252 Y110.686 E0.08892
G1 X153.174 Y113.309 E0.08892
G1 X151.583 Y115.906 E0.09549
G1 X149.757 Y118.035 E0.08794
G1 X147.631 Y119.864 E0.08794
G1 X144.980 Y121.488 E0.09749
G1 X142.297 Y122.581 E0.09081
G1 X139.539 Y123.231 E0.08886
G1 X136.774 Y123.450 E0.08697
G1 X132.029 Y123.434 E0.14875
G1 X131.475 Y123.263 E0.01819
G1 X131.142 Y123.078 E0.01195
G1 X130.513 Y122.474 E0.02735
G1 X130.237 Y122.024 E0.01652
G1 X130.049 Y121.360 E0.02165
G1 X130.049 Y104.451 E0.53017
G1 X119.951 Y104.451 E0.31661
G1 X119.951 Y121.360 E0.53017
G1 X119.762 Y122.029 E0.02179
G1 X119.462 Y122.503 E0.01760
G1 X118.876 Y123.062 E0.02540
G1 X118.146 Y123.403 E0.02525
G1 X117.819 Y123.451 E0.01037
G1 X113.256 Y123.451 E0.14307
G1 X110.519 Y123.240 E0.08608
G1 X107.703 Y122.581 E0.09067
G1 X105.021 Y121.489 E0.09078
G1 X102.494 Y119.955 E0.09271
G1 X100.264 Y118.057 E0.09180
G1 X98.345 Y115.806 E0.09273
G1 X96.811 Y113.279 E0.09270
G1 X95.719 Y110.598 E0.09076
G1 X95.065 Y107.811 E0.08976
G1 X94.850 Y104.985 E0.08885
G1 X95.074 Y102.129 E0.08983
G1 X95.739 Y99.341 E0.08986
G1 X96.840 Y96.664 E0.09078
G1 X97.601 Y95.408 E0.04603
G1 X96.924 Y95.063 E0.02382
G1 X96.274 Y94.425 E0.02856
G1 X95.949 Y93.806 E0.02191
G1 X95.852 Y93.353 E0.01453
G1 X95.877 Y88.462 E0.15337
G1 X96.040 Y87.968 E0.01629
G1 X96.277 Y87.570 E0.01454
G1 X96.793 Y87.041 E0.02317
G1 X97.176 Y86.783 E0.01448
G1 X97.941 Y86.549 E0.02509
G1 X152.067 Y86.553 E1.69709
G1 X152.576 Y86.676 E0.01641
G1 X153.185 Y87.018 E0.02189
G1 X153.777 Y87.641 E0.02695
G1 X153.953 Y87.951 E0.01117
G1 X154.129 Y88.503 E0.01817
G1 X154.148 Y93.366 E0.15248
G1 X154.060 Y93.781 E0.01330
G1 X153.724 Y94.429 E0.02290
G1 X153.128 Y95.025 E0.02642
G1 X152.454 Y95.381 E0.02390
G1 X151.787 Y95.125 F10800.000
G1 F2100
G1 X152.818 Y96.823 E0.06228
G1 X153.889 Y99.416 E0.08796
G1 X154.546 Y102.143 E0.08796
G1 X154.773 Y104.999 E0.08982
