; generated by PrusaSlicer 2.1.0+win64 on 2019-11-18 at 14:47:34 UTC

; 

; external perimeters extrusion width = 0.45mm
; perimeters extrusion width = 0.45mm
; infill extrusion width = 0.45mm
; solid infill extrusion width = 0.45mm
; top infill extrusion width = 0.40mm
; first layer extrusion width = 0.42mm

M73 P0 R59
M73 Q0 S61
M201 X1000 Y1000 Z1000 E5000 ; sets maximum accelerations, mm/sec^2
M203 X200 Y200 Z12 E120 ; sets maximum feedrates, mm/sec
M204 P1250 R1250 T1250 ; sets acceleration (P, T) and retract acceleration (R), mm/sec^2
M205 X8.00 Y8.00 Z0.40 E1.50 ; sets the jerk limits, mm/sec
M205 S0 T0 ; sets the minimum extruding and travel feed rate, mm/sec
M107
M115 U3.8.0 ; tell printer latest fw version
G90 ; use absolute coordinates
M83 ; extruder relative mode
M104 S255 ; set extruder temp
M140 S100 ; set bed temp
M190 S100 ; wait for bed temp
M109 S255 ; wait for extruder temp
G28 W ; home all without mesh bed level
G80 ; mesh bed leveling
G1 Y-3.0 F1000.0 ; go outside print area
G92 E0.0
G1 X60.0 E9.0 F1000.0 ; intro line
M73 Q0 S61
M73 P0 R59
G1 X100.0 E12.5 F1000.0 ; intro line
G92 E0.0
M221 S95
G21 ; set units to millimeters
G90 ; use absolute coordinates
M83 ; use relative distances for extrusion
M900 K30 ; Filament gcode
;BEFORE_LAYER_CHANGE
G92 E0.0
;0.2


G1 E-0.80000 F2100.00000
G1 Z0.600 F10800.000
;AFTER_LAYER_CHANGE
;0.2
G1 X94.182 Y86.007
G1 Z0.200
G1 E0.80000 F2100.00000
M204 S1000
G1 X94.952 Y85.166 E0.03575
G1 X95.884 Y84.519 E0.03558
G1 X97.029 Y84.071 E0.03853
G1 X98.247 Y83.910 E0.03853
G1 X151.706 Y83.909 E1.67616
G1 X152.549 Y83.981 E0.02653
G1 X153.374 Y84.193 E0.02671
G1 X154.147 Y84.536 E0.02653
G1 X154.853 Y85.003 E0.02653
G1 X155.471 Y85.581 E0.02653
G1 X155.986 Y86.253 E0.02653
G1 X156.382 Y87.001 E0.02653
G1 X156.649 Y87.810 E0.02671
G1 X156.779 Y88.657 E0.02688
G1 X157.786 Y104.777 E0.50641
G1 X157.548 Y108.180 E0.10694
G1 X156.856 Y111.176 E0.09643
G1 X156.627 Y111.875 E0.02305
G1 X155.476 Y114.606 E0.09294
G1 X153.778 Y117.375 E0.10185
G1 X151.848 Y119.662 E0.09382
G1 X151.334 Y120.172 E0.02270
G1 X149.078 Y122.077 E0.09259
G1 X146.377 Y123.738 E0.09942
G1 X142.878 Y125.156 E0.11836
G1 X139.992 Y125.832 E0.09295
G1 X136.988 Y126.082 E0.09452
G1 X113.250 Y126.090 E0.74430
G1 X109.922 Y125.818 E0.10469
G1 X106.808 Y125.066 E0.10045
G1 X104.078 Y123.955 E0.09242
G1 X103.431 Y123.630 E0.02270
G1 X100.907 Y122.065 E0.09312
G1 X98.634 Y120.144 E0.09330
G1 X98.124 Y119.630 E0.02270
G1 X96.223 Y117.377 E0.09241
G1 X94.562 Y114.677 E0.09941
G1 X93.259 Y111.569 E0.10568
G1 X92.543 Y108.675 E0.09347
G1 X92.425 Y107.933 E0.02357
G1 X92.214 Y104.776 E0.09920
G1 X93.291 Y88.091 E0.52423
G1 X93.619 Y86.999 E0.03575
G1 X94.153 Y86.059 E0.03387
G1 F8640
G1 X94.952 Y85.166 E-0.27682
G1 X95.884 Y84.519 E-0.26202
G1 X96.776 Y84.170 E-0.22116
G1 E-0.04000 F2100.00000
G1 Z0.800 F10800.000
G1 X155.322 Y95.996
G1 Z0.200
G1 E0.80000 F2100.00000
G1 X156.385 Y98.556 E0.08692
G1 X157.150 Y101.711 E0.10177
G1 X157.413 Y105.014 E0.10391
G1 X157.141 Y108.345 E0.10479
G1 X156.405 Y111.383 E0.09802
G1 X155.232 Y114.252 E0.09716
G1 X153.358 Y117.311 E0.11248
G1 X151.359 Y119.634 E0.09611
G1 X149.038 Y121.638 E0.09613
G1 X146.029 Y123.493 E0.11086
G1 X142.907 Y124.762 E0.10566
G1 X139.986 Y125.451 E0.09409
G1 X136.992 Y125.705 E0.09420
G1 X113.209 Y125.714 E0.74572
G1 X109.882 Y125.429 E0.10470
G1 X106.696 Y124.632 E0.10296
G1 X103.732 Y123.371 E0.10099
G1 X100.982 Y121.652 E0.10168
G1 X98.663 Y119.656 E0.09593
G1 X96.661 Y117.337 E0.09605
G1 X94.807 Y114.328 E0.11082
G1 X93.536 Y111.198 E0.10592
G1 X92.815 Y108.067 E0.10075
G1 X92.587 Y104.893 E0.09977
G1 X92.844 Y101.749 E0.09891
G1 X93.558 Y98.732 E0.09720
G1 X94.680 Y95.996 E0.09272
G1 X94.349 Y95.627 E0.01556
G1 X93.878 Y94.728 E0.03181
G1 X93.620 Y93.743 E0.03193
G1 X93.648 Y88.066 E0.17799
G1 X93.949 Y87.102 E0.03168
G1 X94.438 Y86.250 E0.03080
G1 X95.236 Y85.395 E0.03665
G1 X96.033 Y84.823 E0.03078
G1 X97.773 Y84.286 E0.05709
G1 X152.204 Y84.290 E1.70664
G1 X153.579 Y84.642 E0.04450
G1 X154.726 Y85.354 E0.04236
G1 X155.693 Y86.430 E0.04533
G1 X156.081 Y87.174 E0.02631
G1 X156.349 Y88.054 E0.02884
G1 X156.380 Y93.751 E0.17865
G1 X156.135 Y94.695 E0.03057
G1 X155.654 Y95.621 E0.03270
G1 X155.362 Y95.951 E0.01383
G1 X154.880 Y95.917 F10800.000
G1 F2100
G1 X156.022 Y98.660 E0.09316
G1 X156.775 Y101.755 E0.09990
G1 X157.036 Y105.029 E0.10296
G1 X156.767 Y108.299 E0.10290
G1 X156.042 Y111.281 E0.09619
G1 X154.889 Y114.095 E0.09536
G1 X153.062 Y117.076 E0.10964
G1 X151.082 Y119.377 E0.09519
G1 X148.804 Y121.342 E0.09434
G1 X145.844 Y123.164 E0.10895
G1 X142.806 Y124.398 E0.10282
G1 X139.913 Y125.081 E0.09320
G1 X136.969 Y125.329 E0.09264
G1 X113.217 Y125.336 E0.74473
G1 X109.958 Y125.059 E0.10253
G1 X106.830 Y124.279 E0.10110
G1 X103.919 Y123.043 E0.09915
G1 X101.217 Y121.357 E0.09986
G1 X98.920 Y119.379 E0.09504
G1 X96.957 Y117.103 E0.09426
G1 X95.136 Y114.144 E0.10892
G1 X93.900 Y111.099 E0.10305
G1 X93.190 Y108.025 E0.09892
G1 X92.964 Y104.909 E0.09795
G1 X93.214 Y101.822 E0.09711
G1 X93.921 Y98.834 E0.09628
G1 X95.122 Y95.915 E0.09895
G1 X94.671 Y95.428 E0.02080
G1 X94.222 Y94.573 E0.03028
G1 X93.991 Y93.673 E0.02913
G1 X94.017 Y88.150 E0.17317
G1 X94.287 Y87.269 E0.02890
G1 X94.729 Y86.491 E0.02806
G1 X95.498 Y85.667 E0.03534
G1 X96.227 Y85.148 E0.02805
G1 X97.801 Y84.664 E0.05164
G1 X152.180 Y84.667 E1.70503
G1 X153.406 Y84.978 E0.03966
G1 X154.466 Y85.628 E0.03896
G1 X155.371 Y86.627 E0.04227
G1 X155.726 Y87.301 E0.02388
G1 X155.980 Y88.137 E0.02741
G1 X156.009 Y93.682 E0.17385
G1 X155.790 Y94.541 E0.02779
G1 X155.332 Y95.424 E0.03118
G1 X154.921 Y95.872 E0.01908
G1 X154.438 Y95.835 F10800.000
G1 F2100
G1 X155.659 Y98.763 E0.09948
G1 X156.401 Y101.801 E0.09803
G1 X156.659 Y105.014 E0.10106
G1 X156.397 Y108.225 E0.10103
G1 X155.687 Y111.151 E0.09439
G1 X154.546 Y113.938 E0.09443
G1 X152.766 Y116.842 E0.10679
G1 X150.825 Y119.101 E0.09339
G1 X148.569 Y121.047 E0.09342
G1 X145.660 Y122.835 E0.10704
G1 X142.705 Y124.034 E0.10001
G1 X139.867 Y124.706 E0.09143
G1 X136.945 Y124.952 E0.09196
G1 X113.224 Y124.959 E0.74373
G1 X110.034 Y124.690 E0.10038
G1 X106.963 Y123.926 E0.09923
G1 X104.080 Y122.702 E0.09821
G1 X101.429 Y121.045 E0.09801
G1 X99.177 Y119.103 E0.09324
G1 X97.252 Y116.868 E0.09248
G1 X95.465 Y113.960 E0.10701
G1 X94.264 Y110.999 E0.10019
G1 X93.565 Y107.983 E0.09708
G1 X93.341 Y104.925 E0.09614
G1 X93.584 Y101.895 E0.09531
G1 X94.285 Y98.935 E0.09535
G1 X95.564 Y95.831 E0.10528
G1 X94.992 Y95.229 E0.02604
G1 X94.567 Y94.418 E0.02870
G1 X94.363 Y93.604 E0.02630
G1 X94.386 Y88.233 E0.16844
G1 X94.627 Y87.434 E0.02614
G1 X95.020 Y86.731 E0.02528
G1 X95.760 Y85.939 E0.03399
G1 X96.419 Y85.474 E0.02529
G1 X97.829 Y85.041 E0.04624
G1 X152.157 Y85.044 E1.70342
G1 X153.236 Y85.316 E0.03487
G1 X154.206 Y85.903 E0.03556
G1 X155.049 Y86.826 E0.03919
G1 X155.370 Y87.429 E0.02141
G1 X155.612 Y88.221 E0.02596
G1 X155.637 Y93.614 E0.16910
G1 X155.444 Y94.387 E0.02499
G1 X155.010 Y95.226 E0.02962
G1 X154.479 Y95.791 E0.02432
G1 X153.954 Y95.793 F10800.000
G1 F2100
G1 X154.190 Y96.193 E0.01457
G1 X155.305 Y98.894 E0.09161
G1 X156.026 Y101.846 E0.09529
G1 X156.282 Y104.998 E0.09916
G1 X156.027 Y108.151 E0.09916
G1 X155.324 Y111.048 E0.09347
G1 X154.203 Y113.781 E0.09261
G1 X152.471 Y116.608 E0.10397
G1 X150.568 Y118.825 E0.09160
G1 X148.334 Y120.751 E0.09249
G1 X145.476 Y122.505 E0.10512
G1 X142.604 Y123.671 E0.09719
G1 X139.794 Y124.336 E0.09054
G1 X136.921 Y124.576 E0.09039
G1 X113.232 Y124.582 E0.74275
G1 X110.110 Y124.320 E0.09822
G1 X107.096 Y123.573 E0.09736
G1 X104.267 Y122.374 E0.09636
G1 X101.664 Y120.750 E0.09619
G1 X99.453 Y118.846 E0.09147
G1 X97.548 Y116.633 E0.09156
G1 X95.795 Y113.776 E0.10511
G1 X94.628 Y110.899 E0.09735
G1 X93.940 Y107.940 E0.09525
G1 X93.718 Y104.940 E0.09433
G1 X93.955 Y101.967 E0.09350
G1 X94.649 Y99.036 E0.09445
G1 X95.811 Y96.193 E0.09630
G1 X96.050 Y95.788 E0.01476
G1 X95.313 Y95.029 E0.03315
G1 X94.912 Y94.264 E0.02708
G1 X94.734 Y93.538 E0.02344
G1 X94.755 Y88.315 E0.16375
G1 X94.981 Y87.564 E0.02460
G1 X95.337 Y86.938 E0.02259
G1 X96.021 Y86.212 E0.03126
G1 X96.611 Y85.800 E0.02257
G1 X97.857 Y85.418 E0.04088
G1 X152.134 Y85.421 E1.70183
G1 X153.067 Y85.654 E0.03015
G1 X153.948 Y86.179 E0.03216
G1 X154.729 Y87.026 E0.03612
G1 X155.015 Y87.557 E0.01890
G1 X155.243 Y88.304 E0.02450
G1 X155.265 Y93.548 E0.16441
G1 X155.099 Y94.234 E0.02214
G1 X154.688 Y95.027 E0.02801
G1 X153.996 Y95.750 E0.03137
G1 X153.480 Y95.737 F10800.000
G1 F2100
G1 X153.847 Y96.351 E0.02241
G1 X154.951 Y99.024 E0.09071
G1 X155.656 Y101.921 E0.09347
G1 X155.905 Y104.984 E0.09634
G1 X155.657 Y108.077 E0.09730
G1 X154.970 Y110.918 E0.09166
G1 X153.860 Y113.624 E0.09169
G1 X152.175 Y116.374 E0.10114
G1 X150.291 Y118.568 E0.09068
G1 X148.100 Y120.456 E0.09068
G1 X145.293 Y122.175 E0.10321
G1 X142.503 Y123.307 E0.09440
G1 X139.749 Y123.961 E0.08876
G1 X136.898 Y124.200 E0.08970
G1 X113.240 Y124.205 E0.74177
G1 X110.186 Y123.950 E0.09608
G1 X107.230 Y123.220 E0.09549
G1 X104.454 Y122.046 E0.09450
G1 X101.899 Y120.455 E0.09437
G1 X99.710 Y118.570 E0.09057
G1 X97.844 Y116.399 E0.08975
G1 X96.125 Y113.593 E0.10320
G1 X94.992 Y110.799 E0.09451
G1 X94.315 Y107.897 E0.09343
G1 X94.095 Y104.955 E0.09251
G1 X94.329 Y102.012 E0.09258
G1 X95.012 Y99.138 E0.09262
G1 X96.154 Y96.350 E0.09446
G1 X96.524 Y95.730 E0.02264
G1 X95.633 Y94.828 E0.03974
G1 X95.257 Y94.110 E0.02541
G1 X95.106 Y93.473 E0.02053
G1 X95.124 Y88.398 E0.15913
G1 X95.336 Y87.694 E0.02305
G1 X95.652 Y87.146 E0.01984
G1 X96.280 Y86.487 E0.02855
G1 X96.801 Y86.127 E0.01985
G1 X97.885 Y85.795 E0.03556
G1 X152.112 Y85.798 E1.70024
G1 X152.901 Y85.993 E0.02549
G1 X153.692 Y86.457 E0.02875
G1 X154.410 Y87.229 E0.03305
G1 X154.660 Y87.686 E0.01634
G1 X154.874 Y88.388 E0.02301
G1 X154.893 Y93.484 E0.15979
G1 X154.753 Y94.082 E0.01926
G1 X154.366 Y94.828 E0.02635
G1 X153.522 Y95.694 E0.03790
G1 X152.933 Y95.560 F10800.000
G1 F2100
G1 X153.504 Y96.508 E0.03469
G1 X154.597 Y99.155 E0.08980
G1 X155.286 Y101.995 E0.09164
G1 X155.527 Y104.999 E0.09447
G1 X155.287 Y108.003 E0.09450
G1 X154.616 Y110.788 E0.08984
G1 X153.517 Y113.466 E0.09076
G1 X151.879 Y116.140 E0.09830
G1 X150.014 Y118.312 E0.08976
G1 X147.865 Y120.160 E0.08887
G1 X145.136 Y121.832 E0.10035
G1 X142.402 Y122.944 E0.09256
G1 X139.675 Y123.591 E0.08786
G1 X136.874 Y123.823 E0.08812
G1 X113.248 Y123.828 E0.74080
G1 X110.262 Y123.581 E0.09394
G1 X107.362 Y122.867 E0.09362
G1 X104.640 Y121.718 E0.09264
G1 X102.134 Y120.159 E0.09254
G1 X99.987 Y118.313 E0.08878
G1 X98.140 Y116.165 E0.08883
G1 X96.468 Y113.436 E0.10033
G1 X95.356 Y110.699 E0.09265
G1 X94.690 Y107.854 E0.09159
G1 X94.472 Y104.970 E0.09068
G1 X94.704 Y102.056 E0.09166
G1 X95.375 Y99.239 E0.09079
G1 X96.497 Y96.507 E0.09263
G1 X97.065 Y95.565 E0.03447
G1 X96.684 Y95.355 E0.01364
G1 X95.954 Y94.627 E0.03231
G1 X95.603 Y93.958 E0.02370
G1 X95.479 Y93.412 E0.01756
G1 X95.500 Y88.429 E0.15622
G1 X95.689 Y87.829 E0.01972
G1 X95.965 Y87.357 E0.01715
G1 X96.537 Y86.763 E0.02586
G1 X96.989 Y86.454 E0.01716
G1 X97.913 Y86.172 E0.03030
G1 X152.089 Y86.176 E1.69866
G1 X152.737 Y86.334 E0.02091
G1 X153.437 Y86.737 E0.02533
G1 X154.093 Y87.433 E0.03000
G1 X154.306 Y87.816 E0.01372
G1 X154.506 Y88.471 E0.02149
G1 X154.521 Y93.423 E0.15526
G1 X154.407 Y93.931 E0.01632
G1 X154.045 Y94.629 E0.02467
G1 X153.372 Y95.314 E0.03009
G1 X152.986 Y95.531 E0.01389
G1 X152.401 Y95.409 F10800.000
G1 F2100
G1 X153.161 Y96.665 E0.04604
G1 X154.243 Y99.285 E0.08888
G1 X154.916 Y102.069 E0.08980
G1 X155.150 Y105.013 E0.09261
G1 X154.917 Y107.929 E0.09171
G1 X154.252 Y110.686 E0.08892
G1 X153.174 Y113.309 E0.08892
G1 X151.583 Y115.906 E0.09549
G1 X149.757 Y118.035 E0.08794
G1 X147.631 Y119.864 E0.08794
G1 X144.980 Y121.488 E0.09749
G1 X142.300 Y122.580 E0.09072
G1 X139.602 Y123.221 E0.08695
G1 X136.851 Y123.447 E0.08654
G1 X113.255 Y123.451 E0.73983
G1 X110.337 Y123.211 E0.09181
G1 X107.495 Y122.513 E0.09176
G1 X104.826 Y121.390 E0.09079
G1 X102.369 Y119.864 E0.09070
G1 X100.244 Y118.037 E0.08787
G1 X98.436 Y115.931 E0.08702
G1 X96.812 Y113.280 E0.09748
G1 X95.719 Y110.598 E0.09079
G1 X95.065 Y107.811 E0.08976
G1 X94.850 Y104.985 E0.08885
G1 X95.074 Y102.129 E0.08983
G1 X95.739 Y99.341 E0.08986
G1 X96.840 Y96.664 E0.09078
G1 X97.601 Y95.408 E0.04603
G1 X96.924 Y95.063 E0.02382
G1 X96.274 Y94.425 E0.02856
G1 X95.949 Y93.806 E0.02191
G1 X95.852 Y93.353 E0.01453
G1 X95.877 Y88.462 E0.15337
G1 X96.040 Y87.968 E0.01629
G1 X96.277 Y87.570 E0.01454
G1 X96.793 Y87.041 E0.02317
G1 X97.176 Y86.783 E0.01448
G1 X97.941 Y86.549 E0.02509
G1 X152.067 Y86.553 E1.69709
G1 X152.576 Y86.676 E0.01641
G1 X153.185 Y87.018 E0.02189
G1 X153.777 Y87.641 E0.02695
G1 X153.953 Y87.951 E0.01117
G1 X154.129 Y88.503 E0.01817
G1 X154.148 Y93.366 E0.15248
G1 X154.060 Y93.781 E0.01330
G1 X153.724 Y94.429 E0.02290
G1 X153.128 Y95.025 E0.02642
G1 X152.454 Y95.381 E0.02390
G1 X151.787 Y95.125 F10800.000
G1 F2100
G1 X152.818 Y96.823 E0.06228
G1 X153.889 Y99.416 E0.08796
G1 X154.546 Y102.143 E0.08796
G1 X154.773 Y104.999 E0.08982
G1 X154.546 Y107.855 E0.08985
G1 X153.889 Y110.583 E0.08799
G1 X152.831 Y113.151 E0.08709
G1 X151.286 Y115.672 E0.09268
G1 X149.481 Y117.779 E0.08702
G1 X147.397 Y119.568 E0.08611
G1 X144.823 Y121.145 E0.09464
G1 X142.199 Y122.217 E0.08888
G1 X139.557 Y122.846 E0.08515
G1 X136.828 Y123.070 E0.08585
G1 X113.263 Y123.074 E0.73887
G1 X110.412 Y122.841 E0.08969
G1 X107.627 Y122.160 E0.08989
G1 X105.012 Y121.061 E0.08893
G1 X102.603 Y119.568 E0.08887
G1 X100.520 Y117.780 E0.08607
G1 X98.732 Y115.697 E0.08610
G1 X97.155 Y113.123 E0.09463
G1 X96.083 Y110.497 E0.08893
G1 X95.440 Y107.767 E0.08793
G1 X95.227 Y105.000 E0.08703
G1 X95.444 Y102.202 E0.08799
G1 X96.102 Y99.443 E0.08893
G1 X97.183 Y96.821 E0.08892
G1 X98.215 Y95.126 E0.06223
G1 X97.636 Y95.002 E0.01857
G1 X97.166 Y94.771 E0.01642
G1 X96.561 Y94.178 E0.02656
G1 X96.297 Y93.659 E0.01825
G1 X96.229 Y93.335 E0.01040
G1 X96.245 Y88.551 E0.14999
G1 X96.391 Y88.105 E0.01472
G1 X96.563 Y87.817 E0.01051
G1 X97.048 Y87.319 E0.02180
G1 X97.360 Y87.113 E0.01174
G1 X97.969 Y86.926 E0.01997
G1 X152.045 Y86.930 E1.69552
G1 X152.418 Y87.019 E0.01202
G1 X152.934 Y87.301 E0.01844
G1 X153.463 Y87.851 E0.02392
G1 X153.603 Y88.091 E0.00869
G1 X153.752 Y88.536 E0.01472
G1 X153.770 Y93.346 E0.15081
G1 X153.697 Y93.675 E0.01059
G1 X153.436 Y94.184 E0.01792
G1 X152.883 Y94.737 E0.02451
G1 X152.363 Y95.002 E0.01831
G1 X151.846 Y95.113 E0.01658
G1 X151.084 Y94.697 F10800.000
G1 F2100
G1 X152.475 Y96.981 E0.08384
G1 X153.535 Y99.546 E0.08703
G1 X154.176 Y102.217 E0.08611
G1 X154.396 Y104.984 E0.08704
G1 X154.176 Y107.782 E0.08799
G1 X153.535 Y110.453 E0.08615
G1 X152.488 Y112.994 E0.08615
G1 X150.990 Y115.438 E0.08988
G1 X149.224 Y117.502 E0.08519
G1 X147.163 Y119.272 E0.08519
G1 X144.666 Y120.802 E0.09180
G1 X142.097 Y121.853 E0.08703
G1 X139.484 Y122.476 E0.08424
G1 X136.805 Y122.694 E0.08426
G1 X113.270 Y122.697 E0.73792
G1 X110.487 Y122.471 E0.08757
G1 X107.759 Y121.806 E0.08803
G1 X105.198 Y120.733 E0.08707
G1 X102.837 Y119.272 E0.08704
G1 X100.797 Y117.523 E0.08425
G1 X99.028 Y115.462 E0.08517
G1 X97.498 Y112.966 E0.09179
G1 X96.446 Y110.396 E0.08707
G1 X95.815 Y107.723 E0.08610
G1 X95.604 Y105.015 E0.08519
G1 X95.819 Y102.246 E0.08706
G1 X96.465 Y99.545 E0.08707
G1 X97.526 Y96.979 E0.08707
G1 X98.919 Y94.697 E0.08383
G1 X98.012 Y94.697 E0.02843
G1 X97.778 Y94.651 E0.00748
G1 X97.361 Y94.447 E0.01457
G1 X96.851 Y93.936 E0.02261
G1 X96.647 Y93.518 E0.01460
G1 X96.606 Y93.317 E0.00643
G1 X96.613 Y88.640 E0.14662
G1 X96.743 Y88.242 E0.01314
G1 X96.849 Y88.064 E0.00649
G1 X97.302 Y87.598 E0.02038
G1 X97.542 Y87.444 E0.00894
G1 X97.998 Y87.303 E0.01496
G1 X152.024 Y87.307 E1.69395
G1 X152.265 Y87.364 E0.00777
G1 X152.686 Y87.587 E0.01495
G1 X153.152 Y88.064 E0.02091
G1 X153.255 Y88.238 E0.00633
G1 X153.375 Y88.572 E0.01112
G1 X153.393 Y93.324 E0.14900
G1 X153.336 Y93.566 E0.00783
G1 X153.148 Y93.939 E0.01308
G1 X152.640 Y94.447 E0.02253
G1 X152.222 Y94.651 E0.01457
