; generated by Slic3r Prusa Edition 1.42.0-beta2+win64 on 2019-04-16 at 11:37:56

; 

; external perimeters extrusion width = 0.45mm
; perimeters extrusion width = 0.45mm
; infill extrusion width = 0.45mm
; solid infill extrusion width = 0.45mm
; top infill extrusion width = 0.40mm
; first layer extrusion width = 0.42mm

M73 P0 R47
M73 Q0 S48
M201 X1000 Y1000 Z1000 E8000 ; sets maximum accelerations, mm/sec^2
M203 X200 Y200 Z12 E120 ; sets maximum feedrates, mm/sec
M204 P1250 R1250 T1250 ; sets acceleration (P, T) and retract acceleration (R), mm/sec^2
M205 X8.00 Y8.00 Z0.40 E1.50 ; sets the jerk limits, mm/sec
M205 S0 T0 ; sets the minimum extruding and travel feed rate, mm/sec
M107
M107
M115 U3.6.0 ; tell printer latest fw version
M83  ; extruder relative mode
M104 S255 ; set extruder temp
M140 S100 ; set bed temp
M190 S100 ; wait for bed temp
M109 S255 ; wait for extruder temp
G28 W ; home all without mesh bed level
G80 ; mesh bed leveling
G21 ; set units to millimeters

; Send the filament type to the MMU2.0 unit.
; E stands for extruder number, F stands for filament type (0: default; 1:flex; 2: PVA)
M403 E0 F0
M403 E1 F0
M403 E2 F0
M403 E3 F0
M403 E4 F0


;go outside print area
G1 Y-3.0 F1000.0
G1 Z0.4 F1000.0
; select extruder
T3
; initial load
G1 X55.0 E29.0 F1073.0
M73 Q1 S47
M73 P1 R47
G1 X5.0 E29.0 F1800.0
G1 X55.0 E8.0 F2000.0
G1 Z0.3 F1000.0
G92 E0.0
G1 X240.0 E25.0  F2200.0
G1 Y-2.0 F1000.0
G1 X55.0 E25 F1400.0
G1 Z0.20 F1000.0
G1 X5.0 E4.0 F1000.0
G92 E0.0


M221 S95
G90 ; use absolute coordinates
M83 ; use relative distances for extrusion
G92 E0.0
M900 K30 ; Filament gcode
G21 ; set units to millimeters
G90 ; use absolute coordinates
M83 ; use relative distances for extrusion
T3
M900 K30 ; Filament gcode
;BEFORE_LAYER_CHANGE
G92 E0.0
;0.2


G1 E-0.80000 F2100.00000
G1 Z0.600 F10800.000
;AFTER_LAYER_CHANGE
;0.2
G1 X101.440 Y90.901
G1 Z0.200
G1 E0.80000 F2100.00000
M204 S1000
G1 F3600
G1 X105.196 Y88.535 E0.13918
G1 X109.686 Y87.108 E0.14770
G1 X113.900 Y86.844 E0.13241
G1 X137.933 Y86.843 E0.75353
G1 X142.555 Y87.705 E0.14742
G1 X146.450 Y89.520 E0.13473
G1 X146.886 Y89.799 E0.01623
G1 X150.183 Y92.548 E0.13461
G1 X152.723 Y96.014 E0.13472
G1 X152.972 Y96.464 E0.01612
G1 X154.538 Y100.462 E0.13461
G1 X155.113 Y105.017 E0.14397
G1 X154.591 Y109.275 E0.13450
G1 X154.460 Y109.776 E0.01623
G1 X152.864 Y113.762 E0.13461
G1 X150.355 Y117.245 E0.13461
G1 X150.007 Y117.619 E0.01601
G1 X146.783 Y120.281 E0.13108
G1 X142.553 Y122.296 E0.14691
G1 X138.082 Y123.152 E0.14273
G1 X113.911 Y123.157 E0.75787
G1 X109.720 Y122.895 E0.13167
G1 X105.429 Y121.556 E0.14094
G1 X104.951 Y121.332 E0.01658
G1 X101.321 Y119.006 E0.13518
G1 X98.211 Y115.692 E0.14250
G1 X96.018 Y111.707 E0.14261
G1 X94.931 Y107.550 E0.13472
G1 X94.863 Y107.029 E0.01646
G1 X94.881 Y102.710 E0.13541
G1 X96.009 Y98.315 E0.14227
G1 X98.068 Y94.532 E0.13507
G1 X98.377 Y94.107 E0.01646
G1 X101.399 Y90.944 E0.13715
G1 F8640
G1 X104.178 Y89.181 E-0.76000
G1 E-0.04000 F2100.00000
G1 Z0.800 F10800.000
G1 X116.838 Y98.413
G1 Z0.200
G1 E0.80000 F2100.00000
G1 F3600
G1 X133.012 Y98.413 E0.50713
G1 X133.012 Y111.587 E0.41307
G1 X116.838 Y111.587 E0.50713
G1 X116.838 Y98.473 E0.41119
G1 X117.215 Y98.790 F10800.000
G1 F3600
G1 X132.635 Y98.790 E0.48348
G1 X132.635 Y111.210 E0.38942
G1 X117.215 Y111.210 E0.48348
G1 X117.215 Y98.850 E0.38754
G1 X117.098 Y98.408 F10800.000
G1 F8640
G1 X120.506 Y98.837 E-0.76000
G1 E-0.04000 F2100.00000
G1 Z0.800 F10800.000
G1 X110.038 Y89.865
G1 Z0.200
G1 E0.80000 F2100.00000
G1 F3600
G1 X113.948 Y89.619 E0.12285
G1 X137.874 Y89.619 E0.75018
G1 X141.647 Y90.338 E0.12044
G1 X145.182 Y91.991 E0.12233
G1 X148.157 Y94.452 E0.12108
G1 X150.427 Y97.577 E0.12110
G1 X151.849 Y101.168 E0.12110
G1 X152.333 Y105.000 E0.12110
G1 X151.849 Y108.832 E0.12110
G1 X150.427 Y112.423 E0.12110
G1 X148.157 Y115.548 E0.12110
G1 X145.181 Y118.010 E0.12110
G1 X141.686 Y119.654 E0.12110
G1 X137.874 Y120.381 E0.12169
G1 X113.948 Y120.381 E0.75018
G1 X110.038 Y120.135 E0.12285
G1 X106.364 Y118.942 E0.12110
G1 X103.103 Y116.872 E0.12110
G1 X100.459 Y114.057 E0.12110
G1 X98.599 Y110.672 E0.12110
G1 X97.638 Y106.931 E0.12110
G1 X97.638 Y103.069 E0.12110
G1 X98.599 Y99.328 E0.12110
G1 X100.459 Y95.943 E0.12110
G1 X103.103 Y93.128 E0.12110
G1 X106.364 Y91.058 E0.12110
G1 X109.981 Y89.883 E0.11922
G1 X109.864 Y89.525 F10800.000
G1 F3600
G1 X109.967 Y89.491 E0.00337
G1 X113.936 Y89.242 E0.12471
G1 X137.910 Y89.242 E0.75167
G1 X141.764 Y89.977 E0.12304
G1 X145.385 Y91.670 E0.12532
G1 X148.434 Y94.192 E0.12408
G1 X150.760 Y97.394 E0.12409
G1 X152.217 Y101.074 E0.12409
G1 X152.713 Y105.000 E0.12409
G1 X152.217 Y108.926 E0.12409
G1 X150.760 Y112.606 E0.12409
G1 X148.434 Y115.808 E0.12409
G1 X145.385 Y118.330 E0.12409
G1 X141.804 Y120.016 E0.12409
G1 X137.910 Y120.758 E0.12430
G1 X113.936 Y120.758 E0.75167
G1 X109.967 Y120.509 E0.12471
G1 X106.203 Y119.286 E0.12409
G1 X102.861 Y117.165 E0.12409
G1 X100.152 Y114.280 E0.12409
G1 X98.245 Y110.812 E0.12409
G1 X97.261 Y106.979 E0.12409
G1 X97.261 Y103.021 E0.12409
G1 X98.245 Y99.188 E0.12409
G1 X100.152 Y95.720 E0.12409
G1 X102.861 Y92.835 E0.12409
G1 X106.203 Y90.714 E0.12409
G1 X109.807 Y89.543 E0.11883
G1 X109.947 Y89.593 F10800.000
G1 F8640
G1 X109.967 Y89.491 E-0.03871
G1 X113.084 Y89.295 E-0.72129
G1 E-0.04000 F2100.00000
G1 Z0.800 F10800.000
G1 X124.367 Y89.732
G1 Z0.200
G1 E0.80000 F2100.00000
G1 F3600
G1 X132.766 Y98.130 E0.37247
G1 X132.232 Y98.130 E0.01673
G1 X124.004 Y89.901 E0.36494
G1 X123.470 Y89.901 E0.01673
G1 X131.699 Y98.130 E0.36494
G1 X131.166 Y98.130 E0.01673
G1 X122.937 Y89.901 E0.36494
G1 X122.403 Y89.901 E0.01673
G1 X130.632 Y98.130 E0.36494
G1 X130.099 Y98.130 E0.01673
G1 X121.870 Y89.901 E0.36494
G1 X121.337 Y89.901 E0.01673
G1 X129.565 Y98.130 E0.36494
G1 X129.032 Y98.130 E0.01673
G1 X120.803 Y89.901 E0.36494
G1 X120.270 Y89.901 E0.01673
G1 X128.499 Y98.130 E0.36494
G1 X127.965 Y98.130 E0.01673
G1 X119.737 Y89.901 E0.36494
G1 X119.203 Y89.901 E0.01673
G1 X127.432 Y98.130 E0.36494
G1 X126.899 Y98.130 E0.01673
G1 X118.670 Y89.901 E0.36494
G1 X118.136 Y89.901 E0.01673
G1 X126.365 Y98.130 E0.36494
G1 X125.832 Y98.130 E0.01673
G1 X117.603 Y89.901 E0.36494
G1 X117.070 Y89.901 E0.01673
G1 X125.298 Y98.130 E0.36494
G1 X124.765 Y98.130 E0.01673
G1 X116.536 Y89.901 E0.36494
G1 X116.003 Y89.901 E0.01673
G1 X124.232 Y98.130 E0.36494
G1 X123.698 Y98.130 E0.01673
G1 X115.470 Y89.901 E0.36494
G1 X114.936 Y89.901 E0.01673
G1 X123.165 Y98.130 E0.36494
G1 X122.632 Y98.130 E0.01673
G1 X114.403 Y89.901 E0.36494
G1 X113.875 Y89.907 E0.01657
G1 X122.098 Y98.130 E0.36472
G1 X121.565 Y98.130 E0.01673
G1 X113.373 Y89.938 E0.36332
G1 X112.871 Y89.970 E0.01577
G1 X121.031 Y98.130 E0.36192
G1 X120.498 Y98.130 E0.01673
G1 X112.369 Y90.001 E0.36052
G1 X111.867 Y90.033 E0.01577
G1 X119.965 Y98.130 E0.35912
G1 X119.431 Y98.130 E0.01673
G1 X111.366 Y90.064 E0.35772
G1 X110.864 Y90.096 E0.01577
G1 X118.898 Y98.130 E0.35632
G1 X118.364 Y98.130 E0.01673
G1 X110.362 Y90.128 E0.35492
G1 X110.091 Y90.145 E0.00851
G1 X109.906 Y90.205 E0.00611
G1 X117.831 Y98.130 E0.35149
G1 X117.298 Y98.130 E0.01673
G1 X109.503 Y90.336 E0.34569
G1 X109.101 Y90.466 E0.01327
G1 X116.764 Y98.130 E0.33989
G1 X116.555 Y98.130 E0.00656
G1 X116.555 Y98.454 E0.01016
G1 X108.698 Y90.597 E0.34846
G1 X108.296 Y90.728 E0.01327
G1 X116.555 Y98.988 E0.36631
G1 X116.555 Y99.521 E0.01673
G1 X107.893 Y90.859 E0.38417
G1 X107.490 Y90.990 E0.01327
G1 X116.555 Y100.054 E0.40202
G1 X116.555 Y100.588 E0.01673
G1 X107.088 Y91.121 E0.41988
G1 X106.685 Y91.251 E0.01327
G1 X116.555 Y101.121 E0.43773
G1 X116.555 Y101.655 E0.01673
G1 X106.321 Y91.421 E0.45388
G1 X105.995 Y91.628 E0.01212
G1 X116.555 Y102.188 E0.46835
G1 X116.555 Y102.721 E0.01673
G1 X105.669 Y91.835 E0.48282
G1 X105.342 Y92.042 E0.01212
G1 X116.555 Y103.255 E0.49729
G1 X116.555 Y103.788 E0.01673
G1 X105.016 Y92.249 E0.51176
G1 X104.690 Y92.456 E0.01212
G1 X116.555 Y104.321 E0.52624
G1 X116.555 Y104.855 E0.01673
G1 X104.363 Y92.663 E0.54071
G1 X104.037 Y92.870 E0.01212
G1 X116.555 Y105.388 E0.55518
G1 X116.555 Y105.922 E0.01673
G1 X103.711 Y93.077 E0.56965
G1 X103.384 Y93.284 E0.01212
G1 X116.555 Y106.455 E0.58412
G1 X116.555 Y106.988 E0.01673
G1 X103.105 Y93.539 E0.59650
G1 X102.847 Y93.814 E0.01183
G1 X116.555 Y107.522 E0.60795
G1 X116.555 Y108.055 E0.01673
G1 X102.589 Y94.089 E0.61941
G1 X102.331 Y94.364 E0.01183
G1 X116.555 Y108.588 E0.63087
G1 X116.555 Y109.122 E0.01673
G1 X102.072 Y94.639 E0.64232
G1 X101.814 Y94.914 E0.01183
G1 X116.555 Y109.655 E0.65378
G1 X116.555 Y110.189 E0.01673
G1 X101.556 Y95.189 E0.66523
G1 X101.297 Y95.464 E0.01183
G1 X116.555 Y110.722 E0.67669
G1 X116.555 Y111.255 E0.01673
G1 X101.039 Y95.739 E0.68815
G1 X100.781 Y96.014 E0.01183
G1 X124.865 Y120.099 E1.06815
G1 X125.398 Y120.099 E0.01673
G1 X117.170 Y111.870 E0.36494
G1 X117.703 Y111.870 E0.01673
G1 X125.932 Y120.099 E0.36494
G1 X126.465 Y120.099 E0.01673
G1 X118.236 Y111.870 E0.36494
G1 X118.770 Y111.870 E0.01673
G1 X126.998 Y120.099 E0.36494
G1 X127.532 Y120.099 E0.01673
G1 X119.303 Y111.870 E0.36494
G1 X119.837 Y111.870 E0.01673
G1 X128.065 Y120.099 E0.36494
G1 X128.599 Y120.099 E0.01673
G1 X120.370 Y111.870 E0.36494
G1 X120.903 Y111.870 E0.01673
G1 X129.132 Y120.099 E0.36494
G1 X129.665 Y120.099 E0.01673
G1 X121.437 Y111.870 E0.36494
G1 X121.970 Y111.870 E0.01673
G1 X130.199 Y120.099 E0.36494
G1 X130.732 Y120.099 E0.01673
G1 X122.503 Y111.870 E0.36494
G1 X123.037 Y111.870 E0.01673
G1 X131.266 Y120.099 E0.36494
G1 X131.799 Y120.099 E0.01673
G1 X123.570 Y111.870 E0.36494
G1 X124.104 Y111.870 E0.01673
G1 X132.332 Y120.099 E0.36494
G1 X132.866 Y120.099 E0.01673
G1 X124.637 Y111.870 E0.36494
G1 X125.170 Y111.870 E0.01673
G1 X133.399 Y120.099 E0.36494
G1 X133.932 Y120.099 E0.01673
G1 X125.704 Y111.870 E0.36494
G1 X126.237 Y111.870 E0.01673
G1 X134.466 Y120.099 E0.36494
G1 X134.999 Y120.099 E0.01673
G1 X126.770 Y111.870 E0.36494
G1 X127.304 Y111.870 E0.01673
G1 X135.533 Y120.099 E0.36494
G1 X136.066 Y120.099 E0.01673
G1 X127.837 Y111.870 E0.36494
G1 X128.371 Y111.870 E0.01673
G1 X136.599 Y120.099 E0.36494
G1 X137.133 Y120.099 E0.01673
G1 X128.904 Y111.870 E0.36494
G1 X129.437 Y111.870 E0.01673
G1 X137.666 Y120.099 E0.36494
G1 X137.847 Y120.099 E0.00569
G1 X138.143 Y120.042 E0.00944
G1 X129.971 Y111.870 E0.36244
G1 X130.504 Y111.870 E0.01673
G1 X138.591 Y119.957 E0.35865
G1 X139.039 Y119.871 E0.01430
G1 X131.037 Y111.870 E0.35486
G1 X131.571 Y111.870 E0.01673
G1 X139.487 Y119.786 E0.35108
G1 X139.935 Y119.700 E0.01430
G1 X132.104 Y111.870 E0.34729
G1 X132.638 Y111.870 E0.01673
G1 X140.383 Y119.615 E0.34350
G1 X140.831 Y119.529 E0.01430
G1 X133.171 Y111.870 E0.33971
G1 X133.295 Y111.870 E0.00388
G1 X133.295 Y111.460 E0.01284
G1 X141.279 Y119.444 E0.35408
G1 X141.598 Y119.383 E0.01021
G1 X141.702 Y119.334 E0.00360
G1 X133.295 Y110.927 E0.37286
G1 X133.295 Y110.394 E0.01673
G1 X142.065 Y119.164 E0.38895
G1 X142.427 Y118.993 E0.01257
G1 X133.295 Y109.860 E0.40504
G1 X133.295 Y109.327 E0.01673
G1 X142.790 Y118.822 E0.42112
M73 Q3 S46
G1 X143.153 Y118.651 E0.01257
G1 X133.295 Y108.793 E0.43721
M73 P3 R46
G1 X133.295 Y108.260 E0.01673
G1 X143.516 Y118.481 E0.45329
G1 X143.878 Y118.310 E0.01257
G1 X133.295 Y107.727 E0.46938
G1 X133.295 Y107.193 E0.01673
G1 X144.241 Y118.139 E0.48547
G1 X144.604 Y117.969 E0.01257
G1 X133.295 Y106.660 E0.50155
G1 X133.295 Y106.127 E0.01673
G1 X144.966 Y117.798 E0.51764
G1 X145.028 Y117.769 E0.00215
G1 X145.270 Y117.569 E0.00985
G1 X133.295 Y105.593 E0.53112
G1 X133.295 Y105.060 E0.01673
G1 X145.562 Y117.327 E0.54407
G1 X145.854 Y117.086 E0.01188
G1 X133.295 Y104.526 E0.55701
G1 X133.295 Y103.993 E0.01673
G1 X146.146 Y116.844 E0.56996
G1 X146.438 Y116.603 E0.01188
G1 X133.295 Y103.460 E0.58290
G1 X133.295 Y102.926 E0.01673
G1 X146.730 Y116.361 E0.59585
G1 X147.022 Y116.120 E0.01188
G1 X133.295 Y102.393 E0.60879
G1 X133.295 Y101.860 E0.01673
G1 X147.314 Y115.878 E0.62174
G1 X147.606 Y115.637 E0.01188
G1 X133.295 Y101.326 E0.63469
G1 X133.295 Y100.793 E0.01673
G1 X147.897 Y115.395 E0.64763
G1 X147.949 Y115.353 E0.00211
G1 X148.134 Y115.098 E0.00985
G1 X133.295 Y100.259 E0.65812
G1 X133.295 Y99.726 E0.01673
G1 X148.358 Y114.790 E0.66807
G1 X148.583 Y114.481 E0.01198
G1 X133.295 Y99.193 E0.67803
G1 X133.295 Y98.659 E0.01673
G1 X148.807 Y114.172 E0.68798
G1 X149.032 Y113.863 E0.01198
G1 X125.070 Y89.901 E1.06269
G1 X125.604 Y89.901 E0.01673
G1 X149.256 Y113.554 E1.04899
G1 X149.481 Y113.245 E0.01198
G1 X126.137 Y89.901 E1.03529
G1 X126.670 Y89.901 E0.01673
G1 X149.705 Y112.936 E1.02159
G1 X149.929 Y112.627 E0.01198
G1 X127.204 Y89.901 E1.00789
G1 X127.737 Y89.901 E0.01673
G1 X150.154 Y112.318 E0.99419
G1 X150.313 Y111.944 E0.01276
G1 X128.271 Y89.901 E0.97758
G1 X128.804 Y89.901 E0.01673
G1 X150.464 Y111.562 E0.96064
G1 X150.615 Y111.180 E0.01289
G1 X129.337 Y89.901 E0.94369
G1 X129.871 Y89.901 E0.01673
G1 X150.767 Y110.797 E0.92675
G1 X150.918 Y110.415 E0.01289
G1 X130.404 Y89.901 E0.90980
G1 X130.938 Y89.901 E0.01673
G1 X151.069 Y110.033 E0.89285
G1 X151.221 Y109.651 E0.01289
G1 X131.471 Y89.901 E0.87591
G1 X132.004 Y89.901 E0.01673
G1 X151.372 Y109.269 E0.85896
G1 X151.523 Y108.887 E0.01289
G1 X132.538 Y89.901 E0.84202
G1 X133.071 Y89.901 E0.01673
G1 X151.613 Y108.444 E0.82235
G1 X151.673 Y107.970 E0.01497
G1 X133.604 Y89.901 E0.80135
G1 X134.138 Y89.901 E0.01673
G1 X151.733 Y107.496 E0.78035
G1 X151.793 Y107.023 E0.01497
G1 X134.671 Y89.901 E0.75934
G1 X135.205 Y89.901 E0.01673
G1 X151.852 Y106.549 E0.73834
G1 X151.912 Y106.076 E0.01497
G1 X135.738 Y89.901 E0.71734
G1 X136.271 Y89.901 E0.01673
G1 X151.972 Y105.602 E0.69634
G1 X152.032 Y105.129 E0.01497
G1 X136.805 Y89.901 E0.67534
G1 X137.338 Y89.901 E0.01673
G1 X151.992 Y104.555 E0.64991
G1 X151.915 Y103.945 E0.01930
G1 X137.877 Y89.907 E0.62258
G1 X138.536 Y90.033 E0.02104
G1 X151.838 Y103.334 E0.58993
G1 X151.761 Y102.724 E0.01930
G1 X139.195 Y90.159 E0.55728
G1 X139.854 Y90.284 E0.02104
G1 X151.684 Y102.113 E0.52463
G1 X151.606 Y101.503 E0.01930
G1 X140.513 Y90.410 E0.49198
G1 X141.173 Y90.536 E0.02104
G1 X151.375 Y100.738 E0.45246
G1 X151.025 Y99.855 E0.02978
G1 X141.973 Y90.803 E0.40146
G1 X142.975 Y91.271 E0.03468
G1 X150.675 Y98.972 E0.34152
G1 X150.326 Y98.089 E0.02978
G1 X143.977 Y91.740 E0.28159
G1 X144.978 Y92.208 E0.03468
G1 X150.129 Y97.358 E0.22842
G1 F8640
G1 X147.801 Y95.031 E-0.76000
G1 E-0.04000 F2100.00000
G1 Z0.800 F10800.000
G1 X124.501 Y120.268
G1 Z0.200
G1 E0.80000 F2100.00000
G1 F3600
G1 X100.567 Y96.334 E1.06149
G1 X100.378 Y96.678 E0.01232
G1 X123.798 Y120.099 E1.03870
G1 X123.265 Y120.099 E0.01673
G1 X100.189 Y97.022 E1.02343
G1 X100.000 Y97.367 E0.01232
G1 X122.731 Y120.099 E1.00817
G1 X122.198 Y120.099 E0.01673
G1 X99.810 Y97.711 E0.99290
G1 X99.621 Y98.055 E0.01232
G1 X121.665 Y120.099 E0.97764
G1 X121.131 Y120.099 E0.01673
G1 X99.432 Y98.399 E0.96238
G1 X99.243 Y98.743 E0.01232
G1 X120.598 Y120.099 E0.94711
G1 X120.065 Y120.099 E0.01673
G1 X99.054 Y99.088 E0.93185
G1 X98.864 Y99.432 E0.01232
G1 X119.531 Y120.099 E0.91658
G1 X118.998 Y120.099 E0.01673
G1 X98.755 Y99.856 E0.89777
G1 X98.646 Y100.280 E0.01374
G1 X118.464 Y120.099 E0.87895
G1 X117.931 Y120.099 E0.01673
G1 X98.537 Y100.705 E0.86013
G1 X98.428 Y101.129 E0.01374
G1 X117.398 Y120.099 E0.84130
G1 X116.864 Y120.099 E0.01673
G1 X98.319 Y101.553 E0.82248
G1 X98.210 Y101.978 E0.01374
G1 X116.331 Y120.099 E0.80366
G1 X115.798 Y120.099 E0.01673
G1 X98.101 Y102.402 E0.78484
G1 X97.992 Y102.827 E0.01374
G1 X115.264 Y120.099 E0.76601
G1 X114.731 Y120.099 E0.01673
G1 X97.921 Y103.289 E0.74552
G1 X97.921 Y103.822 E0.01673
G1 X114.197 Y120.099 E0.72187
G1 X113.644 Y120.079 E0.01735
G1 X97.921 Y104.355 E0.69734
G1 X97.921 Y104.889 E0.01673
G1 X113.075 Y120.043 E0.67210
G1 X112.506 Y120.007 E0.01789
G1 X97.921 Y105.422 E0.64685
G1 X97.921 Y105.956 E0.01673
G1 X111.937 Y119.971 E0.62161
G1 X111.368 Y119.936 E0.01789
G1 X97.921 Y106.489 E0.59636
G1 X97.921 Y106.895 E0.01275
G1 X97.965 Y107.066 E0.00553
G1 X110.799 Y119.900 E0.56918
G1 X110.229 Y119.864 E0.01789
