; generated by Slic3r Prusa Edition 1.41.0+win64 on 2019-04-10 at 22:14:18

; 

; external perimeters extrusion width = 0.45mm
; perimeters extrusion width = 0.45mm
; infill extrusion width = 0.45mm
; solid infill extrusion width = 0.45mm
; top infill extrusion width = 0.40mm
; first layer extrusion width = 0.42mm

M201 X1000 Y1000 Z1000 E8000 ; sets maximum accelerations, mm/sec^2
M203 X200 Y200 Z12 E120 ; sets maximum feedrates, mm/sec
M204 P1250 R1250 T1250 ; sets acceleration (P, T) and retract acceleration (R), mm/sec^2
M205 X8.00 Y8.00 Z0.40 E1.50 ; sets the jerk limits, mm/sec
M205 S0 T0 ; sets the minimum extruding and travel feed rate, mm/sec
M107
M107
M115 U3.4.1 ; tell printer latest fw version
M83  ; extruder relative mode
M104 S255 ; set extruder temp
M140 S100 ; set bed temp
M190 S100 ; wait for bed temp
M109 S255 ; wait for extruder temp
G28 W ; home all without mesh bed level
G80 ; mesh bed leveling
G21 ; set units to millimeters

; Send the filament type to the MMU2.0 unit.
; E stands for extruder number, F stands for filament type (0: default; 1:flex; 2: PVA)
M403 E0 F0
M403 E1 F0
M403 E2 F0
M403 E3 F0
M403 E4 F0


;go outside print area
G1 Y-3.0 F1000.0
G1 Z0.4 F1000.0
; select extruder
T4
; initial load
G1 X55.0 E32.0 F1073.0
M73 Q0 S215
M73 P0 R206
G1 X5.0 E32.0 F1800.0
G1 X55.0 E8.0 F2000.0
G1 Z0.3 F1000.0
G92 E0.0
G1 X240.0 E25.0  F2200.0
G1 Y-2.0 F1000.0
G1 X55.0 E25 F1400.0
G1 Z0.20 F1000.0
G1 X5.0 E4.0 F1000.0
G92 E0.0


M221 S95
G90 ; use absolute coordinates
M83 ; use relative distances for extrusion
G92 E0.0
M900 K30; Filament gcode
G21 ; set units to millimeters
G90 ; use absolute coordinates
M83 ; use relative distances for extrusion
T4
M900 K30; Filament gcode
;BEFORE_LAYER_CHANGE
G92 E0.0
;0.2


G1 E-0.80000 F2100.00000
G1 Z0.600 F10800.000
;AFTER_LAYER_CHANGE
;0.2
G1 X73.500 Y24.384
G1 Z0.200
G1 E0.80000 F2100.00000
M204 S1000
G1 F1200
G1 X74.080 Y23.191 E0.04160
G1 X74.742 Y22.179 E0.03793
G1 X75.527 Y21.248 E0.03818
G1 X76.420 Y20.420 E0.03818
G1 X77.406 Y19.707 E0.03818
G1 X78.472 Y19.119 E0.03818
G1 X79.602 Y18.664 E0.03818
G1 X80.779 Y18.351 E0.03818
G1 X81.984 Y18.183 E0.03818
G1 X139.163 Y18.164 E1.79279
G1 X141.210 Y18.296 E0.06433
G1 X142.819 Y18.644 E0.05161
G1 X144.855 Y19.382 E0.06792
G1 X146.696 Y20.454 E0.06679
G1 X231.263 Y77.087 E3.19120
G1 X232.527 Y78.104 E0.05088
G1 X233.939 Y79.624 E0.06502
G1 X234.628 Y80.589 E0.03720
G1 X235.356 Y81.880 E0.04646
G1 X236.101 Y83.698 E0.06161
G1 X241.994 Y105.145 E0.69737
G1 X242.371 Y106.771 E0.05235
G1 X242.502 Y108.232 E0.04599
G1 X242.426 Y110.384 E0.06752
G1 X241.970 Y112.480 E0.06724
G1 X236.101 Y133.809 E0.69362
G1 X235.612 Y135.117 E0.04380
G1 X234.832 Y136.589 E0.05222
G1 X234.211 Y137.545 E0.03573
G1 X233.480 Y138.429 E0.03598
G1 X232.345 Y139.589 E0.05088
G1 X231.240 Y140.456 E0.04404
G1 X146.737 Y197.002 E3.18801
G1 X144.863 Y198.101 E0.06814
G1 X142.840 Y198.842 E0.06754
G1 X141.218 Y199.200 E0.05210
G1 X139.180 Y199.337 E0.06402
G1 X41.260 Y199.319 E3.07021
G1 X39.991 Y199.228 E0.03989
G1 X38.737 Y198.974 E0.04013
G1 X37.532 Y198.565 E0.03989
G1 X36.383 Y198.003 E0.04013
G1 X35.080 Y197.115 E0.04941
G1 X33.934 Y196.034 E0.04941
G1 X32.971 Y194.786 E0.04941
G1 X32.217 Y193.403 E0.04941
G1 X31.689 Y191.918 E0.04941
G1 X31.402 Y190.368 E0.04941
G1 X31.362 Y188.785 E0.04966
G1 X31.572 Y187.223 E0.04941
G1 X73.083 Y25.644 E5.23072
G1 X73.481 Y24.441 E0.03972
G1 F8640
G1 X74.080 Y23.191 E-0.32007
G1 X74.742 Y22.179 E-0.27933
G1 X75.190 Y21.647 E-0.16060
G1 E-0.04000 F2100.00000
G1 Z0.800 F10800.000
G1 X173.767 Y75.048
G1 Z0.200
G1 E0.80000 F2100.00000
G1 F1200
G1 X224.100 Y75.074 E1.57815
G1 X226.727 Y75.409 E0.08305
G1 X229.228 Y76.308 E0.08330
G1 X231.521 Y77.738 E0.08476
G1 X233.478 Y79.632 E0.08538
G1 X235.651 Y83.471 E0.13832
G1 X241.635 Y105.258 E0.70841
G1 X242.133 Y108.033 E0.08838
G1 X242.067 Y110.208 E0.06825
G1 X241.624 Y112.318 E0.06759
G1 X235.658 Y134.004 E0.70522
G1 X234.328 Y136.709 E0.09450
G1 X232.352 Y139.076 E0.09667
G1 X229.828 Y140.909 E0.09780
M73 Q0 S214
G1 X226.996 Y142.052 E0.09577
G1 X224.152 Y142.453 E0.09005
G1 X173.755 Y142.466 E1.58015
M73 P0 R205
G1 X150.614 Y191.937 E1.71246
G1 X149.219 Y194.172 E0.08259
G1 X147.365 Y196.068 E0.08315
G1 X145.129 Y197.548 E0.08407
G1 X142.640 Y198.525 E0.08384
G1 X139.379 Y198.960 E0.10315
G1 X40.631 Y198.942 E3.09616
G1 X38.668 Y198.611 E0.06242
G1 X36.781 Y197.861 E0.06369
G1 X34.303 Y195.914 E0.09879
G1 X32.513 Y193.279 E0.09987
G1 X32.067 Y192.053 E0.04090
G1 X31.770 Y190.761 E0.04159
G1 X31.831 Y187.698 E0.09604
G1 X73.655 Y25.022 E5.26648
G1 X74.342 Y23.448 E0.05384
G1 X75.685 Y21.601 E0.07160
G1 X77.442 Y20.085 E0.07276
G1 X77.591 Y20.005 E0.00533
G1 X81.748 Y18.541 E0.13819
G1 X139.414 Y18.541 E1.80807
G1 X142.533 Y18.943 E0.09859
G1 X145.400 Y20.085 E0.09678
G1 X148.004 Y21.961 E0.10062
G1 X149.431 Y23.567 E0.06734
G1 X150.557 Y25.399 E0.06745
G1 X173.742 Y74.993 E1.71651
G1 X173.527 Y75.425 F10800.000
G1 F1200
G1 X224.064 Y75.450 E1.58455
G1 X226.659 Y75.781 E0.08202
G1 X229.080 Y76.656 E0.08073
G1 X231.304 Y78.047 E0.08225
G1 X233.195 Y79.884 E0.08266
G1 X235.293 Y83.594 E0.13363
G1 X241.269 Y105.350 E0.70742
G1 X241.756 Y108.042 E0.08576
G1 X241.695 Y110.147 E0.06605
G1 X241.258 Y112.223 E0.06651
G1 X235.299 Y133.887 E0.70448
G1 X234.000 Y136.521 E0.09211
G1 X232.078 Y138.815 E0.09382
G1 X229.626 Y140.589 E0.09489
G1 X226.877 Y141.693 E0.09289
G1 X224.113 Y142.078 E0.08750
G1 X173.515 Y142.089 E1.58646
G1 X150.288 Y191.747 E1.71891
G1 X148.910 Y193.954 E0.08158
G1 X147.110 Y195.789 E0.08060
G1 X144.938 Y197.223 E0.08157
G1 X142.524 Y198.165 E0.08127
G1 X139.367 Y198.583 E0.09986
G1 X40.647 Y198.565 E3.09529
G1 X38.788 Y198.253 E0.05912
G1 X36.991 Y197.546 E0.06054
G1 X34.598 Y195.677 E0.09520
G1 X32.859 Y193.128 E0.09674
G1 X32.425 Y191.936 E0.03979
G1 X32.142 Y190.699 E0.03977
G1 X32.201 Y187.771 E0.09183
G1 X74.016 Y25.131 E5.26532
G1 X74.679 Y23.618 E0.05176
G1 X75.976 Y21.841 E0.06900
G1 X77.642 Y20.405 E0.06897
G1 X77.733 Y20.354 E0.00326
G1 X81.781 Y18.918 E0.13466
G1 X139.402 Y18.918 E1.80668
G1 X142.416 Y19.303 E0.09526
G1 X145.199 Y20.405 E0.09387
G1 X147.736 Y22.227 E0.09793
G1 X149.138 Y23.805 E0.06616
G1 X150.230 Y25.587 E0.06555
G1 X173.502 Y75.370 E1.72304
M73 Q0 S213
G1 X173.287 Y75.802 F10800.000
G1 F1200
G1 X224.029 Y75.826 E1.59097
M73 P1 R204
G1 X226.551 Y76.143 E0.07971
G1 X228.898 Y76.986 E0.07818
G1 X231.087 Y78.356 E0.08098
G1 X232.913 Y80.135 E0.07993
G1 X234.936 Y83.716 E0.12895
G1 X240.903 Y105.442 E0.70644
G1 X241.378 Y108.050 E0.08313
G1 X241.318 Y110.119 E0.06490
G1 X240.893 Y112.129 E0.06439
G1 X234.940 Y133.769 E0.70373
G1 X233.672 Y136.334 E0.08970
G1 X231.805 Y138.555 E0.09097
G1 X229.425 Y140.270 E0.09198
G1 X226.759 Y141.334 E0.09001
G1 X224.075 Y141.703 E0.08495
G1 X173.275 Y141.712 E1.59278
G1 X149.962 Y191.558 E1.72538
G1 X148.626 Y193.706 E0.07931
G1 X146.885 Y195.486 E0.07808
G1 X144.782 Y196.879 E0.07906
G1 X142.408 Y197.806 E0.07991
G1 X139.355 Y198.206 E0.09657
G1 X40.663 Y198.188 E3.09441
G1 X38.870 Y197.884 E0.05701
G1 X37.155 Y197.206 E0.05783
G1 X34.854 Y195.399 E0.09175
G1 X33.205 Y192.977 E0.09186
G1 X32.790 Y191.840 E0.03795
G1 X32.515 Y190.638 E0.03867
G1 X32.572 Y187.844 E0.08762
G1 X74.378 Y25.239 E5.26415
G1 X75.015 Y23.789 E0.04968
G1 X76.239 Y22.112 E0.06509
G1 X77.849 Y20.720 E0.06674
G1 X81.813 Y19.295 E0.13208
G1 X139.391 Y19.296 E1.80529
G1 X142.300 Y19.662 E0.09194
G1 X144.999 Y20.726 E0.09095
G1 X147.469 Y22.494 E0.09525
G1 X148.825 Y24.016 E0.06392
G1 X149.903 Y25.775 E0.06469
G1 X173.262 Y75.747 E1.72956
G1 X173.047 Y76.179 F10800.000
G1 F1200
G1 X223.994 Y76.201 E1.59741
G1 X226.443 Y76.505 E0.07739
G1 X228.751 Y77.334 E0.07687
G1 X230.869 Y78.664 E0.07844
G1 X232.630 Y80.386 E0.07721
G1 X234.578 Y83.838 E0.12429
G1 X240.538 Y105.534 E0.70546
G1 X241.001 Y108.060 E0.08052
G1 X240.946 Y110.058 E0.06267
G1 X240.528 Y112.034 E0.06332
G1 X234.582 Y133.652 E0.70298
G1 X233.344 Y136.145 E0.08729
G1 X231.532 Y138.293 E0.08812
G1 X229.224 Y139.950 E0.08907
G1 X226.641 Y140.975 E0.08713
G1 X224.037 Y141.327 E0.08241
G1 X173.035 Y141.335 E1.59911
G1 X149.636 Y191.369 E1.73187
G1 X148.341 Y193.457 E0.07704
G1 X146.659 Y195.183 E0.07555
G1 X144.591 Y196.553 E0.07779
G1 X142.293 Y197.446 E0.07730
G1 X139.343 Y197.829 E0.09329
G1 X40.679 Y197.811 E3.09352
G1 X38.953 Y197.516 E0.05489
G1 X37.320 Y196.866 E0.05513
G1 X35.149 Y195.162 E0.08654
G1 X33.552 Y192.825 E0.08874
G1 X33.149 Y191.722 E0.03683
G1 X32.888 Y190.577 E0.03683
G1 X32.943 Y187.917 E0.08342
G1 X74.739 Y25.348 E5.26299
G1 X75.333 Y23.994 E0.04636
M73 Q1 S212
G1 X76.502 Y22.383 E0.06242
G1 X78.057 Y21.040 E0.06441
G1 X81.846 Y19.672 E0.12633
G1 X139.379 Y19.673 E1.80389
M73 P1 R203
G1 X142.185 Y20.022 E0.08865
G1 X144.799 Y21.046 E0.08804
G1 X147.201 Y22.761 E0.09254
G1 X148.532 Y24.254 E0.06272
G1 X149.575 Y25.963 E0.06277
G1 X173.021 Y76.124 E1.73611
G1 X172.807 Y76.556 F10800.000
G1 F1200
G1 X223.960 Y76.577 E1.60387
G1 X226.337 Y76.867 E0.07507
G1 X228.568 Y77.665 E0.07431
G1 X230.620 Y78.948 E0.07589
G1 X232.347 Y80.637 E0.07573
G1 X234.221 Y83.960 E0.11962
G1 X240.172 Y105.626 E0.70449
G1 X240.623 Y108.070 E0.07790
G1 X240.569 Y110.030 E0.06151
G1 X240.163 Y111.939 E0.06119
G1 X234.223 Y133.534 E0.70224
G1 X233.017 Y135.957 E0.08486
G1 X231.260 Y138.032 E0.08525
G1 X229.024 Y139.629 E0.08616
G1 X226.525 Y140.616 E0.08425
G1 X224.000 Y140.952 E0.07987
G1 X172.795 Y140.958 E1.60547
G1 X149.309 Y191.180 E1.73837
G1 X148.057 Y193.209 E0.07476
G1 X146.404 Y194.905 E0.07425
G1 X144.401 Y196.227 E0.07525
G1 X142.179 Y197.086 E0.07469
G1 X139.331 Y197.452 E0.09003
G1 X40.695 Y197.433 E3.09264
G1 X39.037 Y197.148 E0.05275
G1 X37.486 Y196.526 E0.05241
G1 X35.405 Y194.884 E0.08311
G1 X33.897 Y192.674 E0.08389
G1 X33.514 Y191.626 E0.03497
G1 X33.261 Y190.515 E0.03572
G1 X33.313 Y187.989 E0.07922
G1 X75.100 Y25.457 E5.26182
G1 X75.669 Y24.165 E0.04427
G1 X76.794 Y22.623 E0.05983
G1 X78.276 Y21.348 E0.06131
G1 X81.879 Y20.049 E0.12008
G1 X139.368 Y20.050 E1.80251
G1 X142.070 Y20.382 E0.08537
G1 X144.600 Y21.367 E0.08512
G1 X146.934 Y23.028 E0.08982
G1 X148.239 Y24.492 E0.06151
G1 X149.248 Y26.150 E0.06084
G1 X172.781 Y76.501 E1.74266
G1 X172.567 Y76.933 F10800.000
G1 F1200
G1 X223.926 Y76.953 E1.61034
G1 X226.230 Y77.229 E0.07274
G1 X228.422 Y78.013 E0.07299
G1 X230.402 Y79.257 E0.07333
G1 X232.064 Y80.887 E0.07300
G1 X233.863 Y84.082 E0.11498
G1 X239.806 Y105.719 E0.70352
G1 X240.246 Y108.080 E0.07530
G1 X240.197 Y109.969 E0.05926
G1 X239.798 Y111.845 E0.06012
G1 X233.864 Y133.416 E0.70148
G1 X232.690 Y135.768 E0.08241
G1 X230.988 Y137.769 E0.08238
G1 X228.825 Y139.309 E0.08325
G1 X226.409 Y140.256 E0.08136
G1 X223.963 Y140.577 E0.07734
G1 X172.555 Y140.581 E1.61185
G1 X148.982 Y190.992 E1.74489
G1 X147.772 Y192.961 E0.07247
G1 X146.148 Y194.627 E0.07295
G1 X144.211 Y195.901 E0.07269
G1 X142.065 Y196.726 E0.07208
G1 X139.319 Y197.075 E0.08679
G1 X40.711 Y197.056 E3.09177
G1 X39.159 Y196.791 E0.04938
G1 X37.652 Y196.186 E0.05092
G1 X35.662 Y194.607 E0.07965
G1 X34.244 Y192.522 E0.07906
G1 X33.872 Y191.508 E0.03386
G1 X33.634 Y190.455 E0.03386
G1 X33.684 Y188.062 E0.07503
G1 X75.462 Y25.566 E5.26065
M73 Q1 S211
M73 P2 R202
G1 X76.006 Y24.336 E0.04216
G1 X77.085 Y22.864 E0.05724
G1 X78.495 Y21.657 E0.05821
G1 X81.912 Y20.426 E0.11386
G1 X139.356 Y20.427 E1.80112
G1 X142.000 Y20.753 E0.08354
G1 X144.401 Y21.688 E0.08076
G1 X146.667 Y23.295 E0.08711
G1 X147.926 Y24.703 E0.05922
G1 X148.920 Y26.337 E0.05997
G1 X172.541 Y76.878 E1.74921
G1 X172.327 Y77.310 F10800.000
G1 F1200
G1 X223.893 Y77.328 E1.61683
G1 X226.124 Y77.592 E0.07042
G1 X228.240 Y78.343 E0.07040
G1 X230.153 Y79.540 E0.07076
G1 X231.781 Y81.138 E0.07151
G1 X233.506 Y84.204 E0.11033
G1 X239.441 Y105.811 E0.70256
G1 X239.869 Y108.090 E0.07270
G1 X239.820 Y109.942 E0.05807
G1 X239.433 Y111.750 E0.05797
G1 X233.506 Y133.298 E0.70073
G1 X232.363 Y135.578 E0.07995
G1 X230.717 Y137.506 E0.07951
G1 X228.626 Y138.987 E0.08033
G1 X226.294 Y139.896 E0.07848
G1 X223.927 Y140.201 E0.07482
G1 X172.316 Y140.203 E1.61824
G1 X148.655 Y190.804 E1.75143
G1 X147.486 Y192.714 E0.07018
G1 X145.923 Y194.324 E0.07037
G1 X144.056 Y195.556 E0.07013
G1 X141.951 Y196.366 E0.07072
G1 X139.307 Y196.698 E0.08354
G1 X40.728 Y196.679 E3.09090
G1 X39.244 Y196.422 E0.04723
G1 X37.818 Y195.847 E0.04819
G1 X35.957 Y194.370 E0.07449
G1 X34.589 Y192.370 E0.07599
G1 X34.237 Y191.413 E0.03197
G1 X34.007 Y190.394 E0.03275
G1 X34.054 Y188.135 E0.07085
G1 X75.823 Y25.675 E5.25947
G1 X76.342 Y24.509 E0.04004
G1 X77.375 Y23.106 E0.05464
G1 X78.713 Y21.966 E0.05511
G1 X81.944 Y20.803 E0.10766
G1 X139.345 Y20.804 E1.79975
G1 X141.887 Y21.113 E0.08029
G1 X144.202 Y22.010 E0.07786
G1 X146.400 Y23.562 E0.08438
G1 X147.633 Y24.941 E0.05800
G1 X148.593 Y26.524 E0.05802
G1 X172.301 Y77.255 E1.75578
G1 X172.087 Y77.687 F10800.000
G1 F1200
G1 X223.861 Y77.704 E1.62334
G1 X226.019 Y77.954 E0.06811
G1 X228.057 Y78.674 E0.06779
G1 X229.935 Y79.849 E0.06945
G1 X231.497 Y81.387 E0.06874
G1 X233.148 Y84.327 E0.10570
G1 X239.075 Y105.904 E0.70160
G1 X239.491 Y108.101 E0.07012
G1 X239.448 Y109.880 E0.05579
G1 X239.068 Y111.655 E0.05690
G1 X233.147 Y133.180 E0.69997
G1 X232.037 Y135.388 E0.07748
G1 X230.446 Y137.243 E0.07663
G1 X228.428 Y138.666 E0.07742
G1 X226.179 Y139.536 E0.07560
G1 X223.892 Y139.825 E0.07230
G1 X172.076 Y139.826 E1.62466
G1 X148.327 Y190.617 E1.75799
G1 X147.201 Y192.467 E0.06791
G1 X145.698 Y194.021 E0.06778
G1 X143.866 Y195.230 E0.06883
G1 X141.838 Y196.005 E0.06807
G1 X139.296 Y196.320 E0.08031
G1 X40.744 Y196.302 E3.09002
G1 X39.329 Y196.055 E0.04506
G1 X37.986 Y195.508 E0.04545
G1 X36.215 Y194.093 E0.07107
G1 X34.935 Y192.218 E0.07120
G1 X34.595 Y191.294 E0.03085
G1 X34.379 Y190.334 E0.03086
G1 X34.425 Y188.208 E0.06667
G1 X76.184 Y25.784 E5.25830
M73 Q2 S209
M73 P2 R201
G1 X76.658 Y24.715 E0.03668
G1 X77.637 Y23.378 E0.05194
G1 X78.932 Y22.275 E0.05334
G1 X81.977 Y21.180 E0.10146
G1 X139.334 Y21.181 E1.79838
G1 X141.773 Y21.474 E0.07705
G1 X144.005 Y22.332 E0.07495
G1 X146.134 Y23.830 E0.08165
G1 X147.320 Y25.152 E0.05567
G1 X148.265 Y26.710 E0.05714
G1 X172.061 Y77.632 E1.76235
G1 X171.847 Y78.064 F10800.000
G1 F1200
G1 X223.829 Y78.080 E1.62987
G1 X225.913 Y78.317 E0.06577
G1 X227.912 Y79.023 E0.06646
G1 X229.717 Y80.157 E0.06684
G1 X231.213 Y81.637 E0.06599
G1 X232.791 Y84.448 E0.10109
G1 X238.710 Y105.997 E0.70066
G1 X239.114 Y108.112 E0.06753
G1 X239.071 Y109.853 E0.05460
G1 X238.703 Y111.560 E0.05474
G1 X232.789 Y133.062 E0.69922
G1 X231.711 Y135.197 E0.07499
G1 X230.176 Y136.979 E0.07374
G1 X228.230 Y138.344 E0.07451
G1 X226.066 Y139.176 E0.07271
G1 X223.857 Y139.450 E0.06978
G1 X171.836 Y139.449 E1.63110
G1 X147.999 Y190.431 E1.76457
G1 X146.915 Y192.220 E0.06561
G1 X145.441 Y193.744 E0.06645
G1 X143.676 Y194.903 E0.06622
G1 X141.726 Y195.645 E0.06543
G1 X139.285 Y195.943 E0.07711
G1 X40.761 Y195.925 E3.08914
G1 X39.415 Y195.687 E0.04287
G1 X38.154 Y195.170 E0.04272
G1 X36.510 Y193.857 E0.06597
G1 X35.280 Y192.065 E0.06815
G1 X34.960 Y191.199 E0.02893
G1 X34.752 Y190.274 E0.02974
G1 X34.796 Y188.281 E0.06250
G1 X76.545 Y25.894 E5.25712
G1 X76.994 Y24.887 E0.03455
G1 X77.927 Y23.620 E0.04934
G1 X79.150 Y22.585 E0.05022
G1 X82.010 Y21.557 E0.09528
G1 X139.323 Y21.558 E1.79701
G1 X141.661 Y21.834 E0.07383
G1 X143.808 Y22.654 E0.07204
G1 X145.868 Y24.098 E0.07890
G1 X147.027 Y25.390 E0.05443
G1 X147.937 Y26.897 E0.05517
G1 X171.821 Y78.009 E1.76894
G1 X171.607 Y78.441 F10800.000
G1 F1200
G1 X223.798 Y78.456 E1.63642
G1 X225.809 Y78.680 E0.06345
G1 X227.730 Y79.354 E0.06383
G1 X229.467 Y80.440 E0.06422
G1 X230.929 Y81.886 E0.06449
G1 X232.433 Y84.570 E0.09647
G1 X238.344 Y106.090 E0.69972
G1 X238.736 Y108.124 E0.06497
G1 X238.699 Y109.791 E0.05228
G1 X238.338 Y111.465 E0.05368
G1 X232.430 Y132.943 E0.69846
G1 X231.385 Y135.006 E0.07249
G1 X229.906 Y136.714 E0.07084
G1 X228.034 Y138.021 E0.07159
G1 X225.953 Y138.816 E0.06983
G1 X223.823 Y139.074 E0.06728
G1 X171.596 Y139.072 E1.63756
