; generated by Slic3r Prusa Edition 1.41.0+win64 on 2019-04-10 at 22:02:46

; 

; external perimeters extrusion width = 0.45mm
; perimeters extrusion width = 0.45mm
; infill extrusion width = 0.45mm
; solid infill extrusion width = 0.45mm
; top infill extrusion width = 0.40mm
; first layer extrusion width = 0.42mm

M201 X1000 Y1000 Z1000 E8000 ; sets maximum accelerations, mm/sec^2
M203 X200 Y200 Z12 E120 ; sets maximum feedrates, mm/sec
M204 P1250 R1250 T1250 ; sets acceleration (P, T) and retract acceleration (R), mm/sec^2
M205 X8.00 Y8.00 Z0.40 E1.50 ; sets the jerk limits, mm/sec
M205 S0 T0 ; sets the minimum extruding and travel feed rate, mm/sec
M107
M107
M115 U3.4.1 ; tell printer latest fw version
M83  ; extruder relative mode
M104 S215 ; set extruder temp
M140 S60 ; set bed temp
M190 S60 ; wait for bed temp
M109 S215 ; wait for extruder temp
G28 W ; home all without mesh bed level
G80 ; mesh bed leveling
G21 ; set units to millimeters

; Send the filament type to the MMU2.0 unit.
; E stands for extruder number, F stands for filament type (0: default; 1:flex; 2: PVA)
M403 E0 F0
M403 E1 F0
M403 E2 F0
M403 E3 F0
M403 E4 F0


;go outside print area
G1 Y-3.0 F1000.0
G1 Z0.4 F1000.0
; select extruder
T0
; initial load
G1 X55.0 E32.0 F1073.0
M73 Q0 S223
M73 P0 R212
G1 X5.0 E32.0 F1800.0
G1 X55.0 E8.0 F2000.0
G1 Z0.3 F1000.0
G92 E0.0
G1 X240.0 E25.0  F2200.0
G1 Y-2.0 F1000.0
G1 X55.0 E25 F1400.0
G1 Z0.20 F1000.0
G1 X5.0 E4.0 F1000.0
G92 E0.0


M221 S95
G90 ; use absolute coordinates
M83 ; use relative distances for extrusion
G92 E0.0
M900 K30; Filament gcode
G21 ; set units to millimeters
G90 ; use absolute coordinates
M83 ; use relative distances for extrusion
;BEFORE_LAYER_CHANGE
G92 E0.0
;0.2


G1 E-0.80000 F2100.00000
G1 Z0.600 F10800.000
;AFTER_LAYER_CHANGE
;0.2
G1 X61.895 Y20.688
G1 Z0.200
G1 E0.80000 F2100.00000
M204 S1000
G1 F1200
G1 X62.474 Y19.494 E0.04160
G1 X63.135 Y18.481 E0.03793
G1 X63.920 Y17.550 E0.03818
G1 X64.812 Y16.721 E0.03818
G1 X65.798 Y16.007 E0.03818
G1 X66.863 Y15.418 E0.03818
G1 X67.993 Y14.963 E0.03818
G1 X69.169 Y14.649 E0.03818
G1 X70.375 Y14.480 E0.03818
G1 X127.579 Y14.381 E1.79361
G1 X129.617 Y14.512 E0.06402
G1 X131.226 Y14.860 E0.05161
G1 X133.255 Y15.595 E0.06768
G1 X135.097 Y16.665 E0.06679
G1 X219.704 Y73.223 E3.19095
G1 X220.970 Y74.239 E0.05088
G1 X222.388 Y75.762 E0.06527
G1 X223.079 Y76.727 E0.03720
G1 X223.803 Y78.011 E0.04622
G1 X224.554 Y79.835 E0.06185
G1 X230.463 Y101.269 E0.69712
G1 X230.842 Y102.895 E0.05236
G1 X230.975 Y104.364 E0.04624
G1 X230.901 Y106.515 E0.06750
G1 X230.447 Y108.612 E0.06725
G1 X224.595 Y129.946 E0.69362
G1 X224.107 Y131.254 E0.04380
G1 X223.329 Y132.727 E0.05222
G1 X222.709 Y133.683 E0.03573
G1 X221.978 Y134.568 E0.03598
G1 X220.851 Y135.723 E0.05061
G1 X219.747 Y136.591 E0.04404
G1 X135.284 Y193.212 E3.18827
G1 X133.410 Y194.314 E0.06815
G1 X131.389 Y195.056 E0.06752
G1 X129.767 Y195.415 E0.05210
G1 X127.729 Y195.554 E0.06403
G1 X29.809 Y195.617 E3.07022
G1 X28.540 Y195.527 E0.03989
G1 X27.285 Y195.274 E0.04013
G1 X26.080 Y194.866 E0.03989
G1 X24.930 Y194.305 E0.04013
G1 X23.627 Y193.418 E0.04941
G1 X22.480 Y192.338 E0.04941
G1 X21.516 Y191.091 E0.04941
G1 X20.761 Y189.708 E0.04941
G1 X20.232 Y188.224 E0.04941
G1 X19.943 Y186.667 E0.04966
G1 X19.902 Y185.091 E0.04941
G1 X20.110 Y183.529 E0.04941
G1 X61.481 Y21.940 E5.22992
G1 X61.876 Y20.745 E0.03947
G1 F8640
G1 X62.474 Y19.494 E-0.32007
G1 X63.135 Y18.481 E-0.27933
G1 X63.584 Y17.949 E-0.16060
G1 E-0.04000 F2100.00000
G1 Z0.800 F10800.000
G1 X162.212 Y71.236
G1 Z0.200
G1 E0.80000 F2100.00000
G1 F1200
G1 X212.520 Y71.219 E1.57736
G1 X215.119 Y71.541 E0.08213
G1 X217.623 Y72.425 E0.08326
G1 X219.907 Y73.831 E0.08410
G1 X221.862 Y75.690 E0.08458
G1 X224.101 Y79.599 E0.14124
G1 X230.106 Y101.390 E0.70872
G1 X230.606 Y104.164 E0.08838
G1 X230.542 Y106.340 E0.06825
G1 X230.100 Y108.450 E0.06759
G1 X224.159 Y130.119 E0.70451
G1 X222.932 Y132.682 E0.08910
G1 X220.967 Y135.105 E0.09778
G1 X218.446 Y136.984 E0.09860
G1 X215.617 Y138.164 E0.09611
M73 Q0 S222
G1 X212.680 Y138.598 E0.09308
G1 X162.257 Y138.654 E1.58099
M73 P0 R211
G1 X139.157 Y188.145 E1.71245
G1 X137.764 Y190.379 E0.08254
G1 X135.911 Y192.277 E0.08318
G1 X133.675 Y193.761 E0.08415
G1 X131.185 Y194.740 E0.08389
G1 X127.927 Y195.177 E0.10307
G1 X29.179 Y195.240 E3.09616
G1 X27.214 Y194.911 E0.06249
G1 X25.325 Y194.161 E0.06373
G1 X22.848 Y192.216 E0.09872
G1 X21.057 Y189.584 E0.09982
G1 X20.610 Y188.359 E0.04090
G1 X20.311 Y187.067 E0.04159
G1 X20.370 Y184.005 E0.09603
G1 X62.020 Y21.399 E5.26299
G1 X62.746 Y19.706 E0.05773
G1 X64.173 Y17.780 E0.07517
G1 X65.984 Y16.265 E0.07404
G1 X66.458 Y16.027 E0.01661
G1 X70.250 Y14.795 E0.12502
G1 X128.236 Y14.779 E1.81811
G1 X130.340 Y15.019 E0.06641
G1 X132.368 Y15.618 E0.06630
G1 X135.027 Y17.058 E0.09482
G1 X137.293 Y19.107 E0.09578
G1 X138.865 Y21.435 E0.08807
G1 X162.187 Y71.182 E1.72268
G1 X161.972 Y71.613 F10800.000
G1 F1200
G1 X212.485 Y71.595 E1.58380
G1 X215.014 Y71.904 E0.07986
G1 X217.443 Y72.757 E0.08072
G1 X219.693 Y74.141 E0.08283
G1 X221.582 Y75.944 E0.08186
G1 X223.743 Y79.722 E0.13648
G1 X229.740 Y101.482 E0.70772
G1 X230.229 Y104.173 E0.08575
G1 X230.170 Y106.279 E0.06606
G1 X229.735 Y108.356 E0.06651
G1 X223.799 Y130.003 E0.70379
G1 X222.601 Y132.499 E0.08681
G1 X220.690 Y134.848 E0.09496
G1 X218.240 Y136.667 E0.09567
G1 X215.494 Y137.807 E0.09321
G1 X212.639 Y138.223 E0.09046
G1 X162.017 Y138.277 E1.58724
G1 X138.831 Y187.955 E1.71891
G1 X137.455 Y190.162 E0.08153
G1 X135.656 Y191.999 E0.08063
G1 X133.484 Y193.435 E0.08165
G1 X131.069 Y194.380 E0.08132
G1 X127.914 Y194.800 E0.09978
G1 X29.195 Y194.863 E3.09527
G1 X27.297 Y194.542 E0.06037
G1 X25.490 Y193.821 E0.06100
G1 X23.105 Y191.938 E0.09528
G1 X21.403 Y189.433 E0.09495
G1 X20.968 Y188.241 E0.03980
G1 X20.684 Y187.005 E0.03977
G1 X20.740 Y184.077 E0.09182
G1 X62.382 Y21.506 E5.26184
G1 X63.083 Y19.876 E0.05566
G1 X64.462 Y18.023 E0.07241
G1 X66.208 Y16.569 E0.07124
G1 X66.588 Y16.381 E0.01328
G1 X70.280 Y15.172 E0.12183
G1 X128.204 Y15.155 E1.81617
G1 X130.249 Y15.385 E0.06453
G1 X132.242 Y15.974 E0.06515
G1 X134.827 Y17.379 E0.09225
G1 X137.023 Y19.371 E0.09295
G1 X138.544 Y21.633 E0.08548
G1 X161.947 Y71.559 E1.72884
M73 Q1 S221
G1 X161.733 Y71.990 F10800.000
G1 F1200
G1 X212.451 Y71.971 E1.59024
M73 P1 R210
G1 X214.947 Y72.275 E0.07885
G1 X217.298 Y73.106 E0.07816
G1 X219.477 Y74.452 E0.08032
G1 X221.301 Y76.197 E0.07915
G1 X223.386 Y79.845 E0.13173
G1 X229.374 Y101.575 E0.70672
G1 X229.851 Y104.183 E0.08313
G1 X229.793 Y106.252 E0.06490
G1 X229.370 Y108.261 E0.06439
G1 X223.440 Y129.887 E0.70308
G1 X222.271 Y132.315 E0.08450
G1 X220.413 Y134.591 E0.09214
G1 X218.035 Y136.350 E0.09274
G1 X215.373 Y137.449 E0.09030
G1 X212.599 Y137.848 E0.08785
G1 X161.776 Y137.900 E1.59351
G1 X138.504 Y187.766 E1.72538
G1 X137.171 Y189.913 E0.07926
G1 X135.431 Y191.696 E0.07811
G1 X133.328 Y193.091 E0.07914
G1 X130.953 Y194.021 E0.07996
G1 X127.902 Y194.423 E0.09649
G1 X29.211 Y194.486 E3.09438
G1 X27.380 Y194.174 E0.05823
G1 X25.656 Y193.481 E0.05827
G1 X23.400 Y191.702 E0.09009
G1 X21.749 Y189.282 E0.09186
G1 X21.333 Y188.145 E0.03795
G1 X21.057 Y186.943 E0.03867
G1 X21.111 Y184.149 E0.08761
G1 X62.743 Y21.614 E5.26069
G1 X63.421 Y20.046 E0.05358
G1 X64.721 Y18.298 E0.06830
G1 X66.397 Y16.896 E0.06850
G1 X66.719 Y16.735 E0.01132
G1 X70.310 Y15.549 E0.11858
G1 X128.173 Y15.531 E1.81423
G1 X130.191 Y15.758 E0.06367
G1 X132.115 Y16.329 E0.06296
G1 X134.626 Y17.699 E0.08968
G1 X136.751 Y19.634 E0.09011
G1 X138.222 Y21.831 E0.08290
G1 X161.707 Y71.936 E1.73502
G1 X161.493 Y72.367 F10800.000
G1 F1200
G1 X212.418 Y72.347 E1.59670
G1 X214.841 Y72.638 E0.07655
G1 X217.153 Y73.454 E0.07686
G1 X219.262 Y74.762 E0.07779
G1 X221.020 Y76.450 E0.07645
G1 X223.029 Y79.968 E0.12700
G1 X229.009 Y101.667 E0.70573
G1 X229.474 Y104.192 E0.08051
G1 X229.421 Y106.191 E0.06268
G1 X229.005 Y108.167 E0.06332
G1 X223.081 Y129.770 E0.70236
G1 X221.942 Y132.131 E0.08218
G1 X220.136 Y134.334 E0.08930
G1 X217.830 Y136.033 E0.08981
G1 X215.251 Y137.091 E0.08740
G1 X212.559 Y137.472 E0.08525
G1 X161.536 Y137.523 E1.59980
G1 X138.178 Y187.577 E1.73186
G1 X136.886 Y189.665 E0.07699
G1 X135.205 Y191.393 E0.07557
G1 X133.136 Y192.766 E0.07786
G1 X130.838 Y193.661 E0.07735
G1 X127.890 Y194.046 E0.09321
G1 X29.227 Y194.109 E3.09351
G1 X27.501 Y193.816 E0.05489
G1 X25.867 Y193.167 E0.05513
G1 X23.694 Y191.465 E0.08654
G1 X22.095 Y189.130 E0.08874
G1 X21.691 Y188.027 E0.03683
G1 X21.429 Y186.882 E0.03683
G1 X21.482 Y184.222 E0.08341
G1 X63.105 Y21.722 E5.25955
G1 X63.737 Y20.252 E0.05017
M73 Q1 S220
G1 X64.981 Y18.572 E0.06554
G1 X66.587 Y17.223 E0.06578
G1 X66.852 Y17.088 E0.00934
G1 X70.341 Y15.926 E0.11530
G1 X128.142 Y15.907 E1.81229
M73 P1 R209
G1 X130.100 Y16.124 E0.06176
G1 X131.989 Y16.685 E0.06179
G1 X134.425 Y18.018 E0.08709
G1 X136.480 Y19.896 E0.08728
G1 X137.901 Y22.028 E0.08032
G1 X161.468 Y72.313 E1.74122
G1 X161.253 Y72.745 F10800.000
G1 F1200
G1 X212.385 Y72.722 E1.60318
G1 X214.736 Y73.001 E0.07425
G1 X216.972 Y73.786 E0.07430
G1 X219.015 Y75.047 E0.07528
G1 X220.739 Y76.704 E0.07497
G1 X222.672 Y80.091 E0.12226
G1 X228.643 Y101.760 E0.70475
G1 X229.096 Y104.202 E0.07790
G1 X229.044 Y106.163 E0.06151
G1 X228.640 Y108.073 E0.06119
G1 X222.722 Y129.654 E0.70164
G1 X221.612 Y131.946 E0.07985
G1 X219.860 Y134.076 E0.08646
G1 X217.626 Y135.715 E0.08688
G1 X215.131 Y136.733 E0.08449
G1 X212.520 Y137.097 E0.08265
G1 X161.296 Y137.147 E1.60611
G1 X137.851 Y187.388 E1.73837
G1 X136.601 Y189.417 E0.07471
G1 X134.949 Y191.115 E0.07428
G1 X132.945 Y192.440 E0.07532
G1 X130.723 Y193.301 E0.07474
G1 X127.877 Y193.669 E0.08995
G1 X29.243 Y193.732 E3.09263
G1 X27.584 Y193.448 E0.05275
G1 X26.032 Y192.827 E0.05241
G1 X23.950 Y191.187 E0.08311
G1 X22.441 Y188.978 E0.08389
G1 X22.056 Y187.931 E0.03497
G1 X21.802 Y186.820 E0.03572
G1 X21.852 Y184.294 E0.07921
G1 X63.466 Y21.830 E5.25840
G1 X64.074 Y20.422 E0.04809
G1 X65.270 Y18.815 E0.06280
G1 X66.778 Y17.548 E0.06177
G1 X66.987 Y17.441 E0.00735
G1 X70.372 Y16.303 E0.11198
G1 X128.111 Y16.283 E1.81035
G1 X130.041 Y16.497 E0.06090
G1 X131.862 Y17.041 E0.05957
G1 X134.224 Y18.338 E0.08450
G1 X136.208 Y20.158 E0.08443
G1 X137.579 Y22.225 E0.07775
G1 X161.228 Y72.690 E1.74744
G1 X161.014 Y73.122 F10800.000
G1 F1200
G1 X212.352 Y73.098 E1.60968
G1 X214.631 Y73.363 E0.07195
G1 X216.828 Y74.135 E0.07299
G1 X218.799 Y75.357 E0.07272
G1 X220.458 Y76.956 E0.07225
G1 X222.314 Y80.213 E0.11754
G1 X228.277 Y101.852 E0.70377
G1 X228.719 Y104.213 E0.07530
G1 X228.672 Y106.102 E0.05926
G1 X228.274 Y107.978 E0.06012
G1 X222.363 Y129.537 E0.70092
G1 X221.283 Y131.761 E0.07751
G1 X219.585 Y133.817 E0.08362
G1 X217.423 Y135.396 E0.08395
G1 X215.011 Y136.375 E0.08159
G1 X212.482 Y136.722 E0.08005
G1 X161.055 Y136.770 E1.61244
G1 X137.524 Y187.201 E1.74489
G1 X136.316 Y189.169 E0.07242
G1 X134.694 Y190.838 E0.07297
G1 X132.755 Y192.114 E0.07276
G1 X130.609 Y192.941 E0.07213
G1 X127.865 Y193.291 E0.08671
G1 X29.258 Y193.355 E3.09176
G1 X27.706 Y193.090 E0.04938
G1 X26.198 Y192.487 E0.05092
G1 X24.207 Y190.909 E0.07965
G1 X22.787 Y188.826 E0.07906
G1 X22.414 Y187.812 E0.03386
G1 X22.175 Y186.759 E0.03386
G1 X22.223 Y184.367 E0.07502
G1 X63.828 Y21.938 E5.25725
M73 Q2 S219
M73 P2 R208
G1 X64.411 Y20.592 E0.04600
G1 X65.530 Y19.089 E0.05874
G1 X66.972 Y17.872 E0.05919
G1 X67.123 Y17.793 E0.00533
G1 X70.403 Y16.680 E0.10862
G1 X128.080 Y16.659 E1.80841
G1 X129.950 Y16.863 E0.05897
G1 X131.734 Y17.396 E0.05839
G1 X134.022 Y18.657 E0.08189
G1 X135.935 Y20.420 E0.08159
G1 X137.256 Y22.421 E0.07518
G1 X160.988 Y73.067 E1.75368
G1 X160.774 Y73.499 F10800.000
G1 F1200
G1 X212.320 Y73.474 E1.61619
G1 X214.527 Y73.726 E0.06965
G1 X216.647 Y74.467 E0.07041
G1 X218.552 Y75.643 E0.07019
G1 X220.177 Y77.209 E0.07076
G1 X221.957 Y80.336 E0.11282
G1 X227.912 Y101.945 E0.70279
G1 X228.342 Y104.224 E0.07270
G1 X228.295 Y106.075 E0.05808
G1 X227.909 Y107.884 E0.05797
G1 X222.004 Y129.421 E0.70020
G1 X220.954 Y131.575 E0.07515
G1 X219.310 Y133.558 E0.08077
G1 X217.220 Y135.078 E0.08102
G1 X214.893 Y136.016 E0.07868
G1 X212.444 Y136.346 E0.07746
G1 X160.815 Y136.393 E1.61879
G1 X137.196 Y187.013 E1.75143
G1 X136.031 Y188.922 E0.07014
G1 X134.468 Y190.535 E0.07040
G1 X132.601 Y191.769 E0.07020
G1 X130.495 Y192.581 E0.07076
G1 X127.854 Y192.914 E0.08347
G1 X29.274 Y192.978 E3.09088
G1 X27.790 Y192.722 E0.04723
G1 X26.364 Y192.148 E0.04819
G1 X24.502 Y190.673 E0.07449
G1 X23.132 Y188.673 E0.07599
G1 X22.779 Y187.717 E0.03197
G1 X22.548 Y186.698 E0.03275
G1 X22.594 Y184.439 E0.07084
G1 X64.189 Y22.047 E5.25609
G1 X64.748 Y20.763 E0.04389
G1 X65.819 Y19.332 E0.05602
G1 X67.170 Y18.193 E0.05541
G1 X67.261 Y18.144 E0.00326
G1 X70.435 Y17.057 E0.10519
G1 X128.050 Y17.035 E1.80647
G1 X129.859 Y17.230 E0.05703
G1 X131.607 Y17.752 E0.05720
G1 X133.819 Y18.976 E0.07927
G1 X135.662 Y20.681 E0.07874
G1 X136.934 Y22.616 E0.07261
G1 X160.749 Y73.445 E1.75994
G1 X160.534 Y73.876 F10800.000
G1 F1200
G1 X212.289 Y73.850 E1.62273
G1 X214.424 Y74.090 E0.06736
G1 X216.467 Y74.799 E0.06781
G1 X218.336 Y75.953 E0.06889
G1 X219.895 Y77.461 E0.06801
G1 X221.600 Y80.459 E0.10812
G1 X227.546 Y102.038 E0.70183
G1 X227.964 Y104.235 E0.07012
G1 X227.923 Y106.014 E0.05580
G1 X227.544 Y107.789 E0.05690
G1 X221.645 Y129.304 E0.69947
G1 X220.625 Y131.389 E0.07278
G1 X219.036 Y133.298 E0.07791
G1 X217.018 Y134.758 E0.07808
G1 X214.775 Y135.657 E0.07578
G1 X212.407 Y135.971 E0.07488
G1 X160.575 Y136.016 E1.62516
G1 X136.869 Y186.826 E1.75799
G1 X135.745 Y188.676 E0.06786
G1 X134.243 Y190.232 E0.06780
G1 X132.410 Y191.443 E0.06889
G1 X130.381 Y192.221 E0.06811
G1 X127.842 Y192.537 E0.08024
G1 X29.291 Y192.601 E3.09001
G1 X27.875 Y192.354 E0.04506
G1 X26.532 Y191.809 E0.04545
G1 X24.759 Y190.396 E0.07107
G1 X23.478 Y188.521 E0.07120
G1 X23.137 Y187.598 E0.03085
G1 X22.921 Y186.638 E0.03086
G1 X22.964 Y184.512 E0.06666
G1 X64.551 Y22.155 E5.25492
M73 Q2 S218
M73 P2 R206
G1 X65.085 Y20.934 E0.04178
G1 X66.079 Y19.606 E0.05200
G1 X67.403 Y18.494 E0.05425
G1 X70.467 Y17.434 E0.10164
G1 X128.020 Y17.411 E1.80453
G1 X129.801 Y17.603 E0.05616
G1 X131.478 Y18.107 E0.05493
G1 X133.615 Y19.294 E0.07665
G1 X135.388 Y20.941 E0.07588
G1 X136.611 Y22.811 E0.07005
G1 X160.509 Y73.822 E1.76622
G1 X160.295 Y74.253 F10800.000
G1 F1200
G1 X212.258 Y74.226 E1.62928
G1 X214.320 Y74.453 E0.06505
G1 X216.323 Y75.148 E0.06648
G1 X218.120 Y76.262 E0.06629
G1 X219.613 Y77.713 E0.06527
G1 X221.242 Y80.581 E0.10344
G1 X227.181 Y102.131 E0.70086
G1 X227.587 Y104.246 E0.06753
G1 X227.546 Y105.987 E0.05460
G1 X227.179 Y107.694 E0.05474
G1 X221.286 Y129.187 E0.69875
G1 X220.297 Y131.202 E0.07039
G1 X218.762 Y133.038 E0.07504
G1 X216.817 Y134.439 E0.07514
G1 X214.657 Y135.298 E0.07287
G1 X212.371 Y135.596 E0.07230
G1 X160.335 Y135.639 E1.63156
G1 X136.541 Y186.640 E1.76457
G1 X135.458 Y188.429 E0.06556
G1 X133.986 Y189.955 E0.06647
G1 X132.220 Y191.117 E0.06629
G1 X130.269 Y191.860 E0.06547
G1 X127.830 Y192.160 E0.07703
G1 X29.307 Y192.224 E3.08913
G1 X27.960 Y191.986 E0.04287
G1 X26.699 Y191.470 E0.04272
G1 X25.054 Y190.159 E0.06597
G1 X23.823 Y188.368 E0.06815
G1 X23.502 Y187.502 E0.02893
G1 X23.294 Y186.577 E0.02974
G1 X23.335 Y184.584 E0.06249
G1 X64.912 Y22.263 E5.25378
G1 X65.401 Y21.142 E0.03835
G1 X66.339 Y19.880 E0.04929
G1 X67.577 Y18.832 E0.05087
G1 X70.499 Y17.811 E0.09704
G1 X127.990 Y17.787 E1.80259
G1 X129.709 Y17.969 E0.05420
G1 X131.350 Y18.462 E0.05372
G1 X133.411 Y19.612 E0.07401
G1 X135.114 Y21.201 E0.07302
G1 X136.287 Y23.006 E0.06750
G1 X160.269 Y74.199 E1.77253
G1 X160.055 Y74.631 F10800.000
G1 F1200
G1 X212.228 Y74.602 E1.63585
G1 X214.218 Y74.816 E0.06275
G1 X216.144 Y75.480 E0.06386
G1 X217.872 Y76.547 E0.06370
G1 X219.331 Y77.964 E0.06377
G1 X220.885 Y80.704 E0.09875
G1 X226.815 Y102.225 E0.69991
G1 X227.209 Y104.259 E0.06497
G1 X227.173 Y105.926 E0.05229
G1 X226.814 Y107.600 E0.05368
G1 X220.927 Y129.069 E0.69801
G1 X219.969 Y131.015 E0.06799
G1 X218.489 Y132.777 E0.07217
