; generated by Slic3r Prusa Edition 1.41.0+win64 on 2019-04-10 at 22:11:17

; 

; external perimeters extrusion width = 0.45mm
; perimeters extrusion width = 0.45mm
; infill extrusion width = 0.45mm
; solid infill extrusion width = 0.45mm
; top infill extrusion width = 0.40mm
; first layer extrusion width = 0.42mm

M201 X1000 Y1000 Z1000 E8000 ; sets maximum accelerations, mm/sec^2
M203 X200 Y200 Z12 E120 ; sets maximum feedrates, mm/sec
M204 P1250 R1250 T1250 ; sets acceleration (P, T) and retract acceleration (R), mm/sec^2
M205 X8.00 Y8.00 Z0.40 E1.50 ; sets the jerk limits, mm/sec
M205 S0 T0 ; sets the minimum extruding and travel feed rate, mm/sec
M107
M107
M115 U3.4.1 ; tell printer latest fw version
M83  ; extruder relative mode
M104 S255 ; set extruder temp
M140 S100 ; set bed temp
M190 S100 ; wait for bed temp
M109 S255 ; wait for extruder temp
G28 W ; home all without mesh bed level
G80 ; mesh bed leveling
G21 ; set units to millimeters

; Send the filament type to the MMU2.0 unit.
; E stands for extruder number, F stands for filament type (0: default; 1:flex; 2: PVA)
M403 E0 F0
M403 E1 F0
M403 E2 F0
M403 E3 F0
M403 E4 F0


;go outside print area
G1 Y-3.0 F1000.0
G1 Z0.4 F1000.0
; select extruder
T4
; initial load
G1 X55.0 E32.0 F1073.0
M73 Q0 S208
M73 P0 R200
G1 X5.0 E32.0 F1800.0
G1 X55.0 E8.0 F2000.0
G1 Z0.3 F1000.0
G92 E0.0
G1 X240.0 E25.0  F2200.0
G1 Y-2.0 F1000.0
G1 X55.0 E25 F1400.0
G1 Z0.20 F1000.0
G1 X5.0 E4.0 F1000.0
G92 E0.0


M221 S95
G90 ; use absolute coordinates
M83 ; use relative distances for extrusion
G92 E0.0
M900 K30; Filament gcode
G21 ; set units to millimeters
G90 ; use absolute coordinates
M83 ; use relative distances for extrusion
T4
M900 K30; Filament gcode
;BEFORE_LAYER_CHANGE
G92 E0.0
;0.2


G1 E-0.80000 F2100.00000
G1 Z0.600 F10800.000
;AFTER_LAYER_CHANGE
;0.2
G1 X67.471 Y19.505
G1 Z0.200
G1 E0.80000 F2100.00000
M204 S1000
G1 F1200
G1 X68.286 Y18.138 E0.04990
G1 X69.303 Y16.924 E0.04966
G1 X70.505 Y15.881 E0.04990
G1 X71.850 Y15.045 E0.04966
G1 X73.318 Y14.430 E0.04990
G1 X74.865 Y14.056 E0.04990
G1 X76.444 Y13.932 E0.04966
G1 X135.029 Y14.925 E1.83716
G1 X136.309 Y15.059 E0.04037
G1 X138.082 Y15.446 E0.05688
G1 X139.231 Y15.847 E0.03818
G1 X140.586 Y16.494 E0.04707
G1 X141.537 Y17.048 E0.03451
G1 X142.416 Y17.697 E0.03426
G1 X223.411 Y85.074 E3.30335
G1 X224.582 Y86.264 E0.05234
G1 X225.745 Y87.883 E0.06251
G1 X226.421 Y89.132 E0.04453
G1 X227.085 Y90.848 E0.05769
G1 X227.463 Y92.434 E0.05112
G1 X227.666 Y94.645 E0.06961
G1 X227.220 Y119.962 E0.79393
G1 X226.840 Y122.326 E0.07508
G1 X226.086 Y124.412 E0.06953
G1 X225.269 Y125.956 E0.05478
G1 X223.941 Y127.729 E0.06944
G1 X223.109 Y128.574 E0.03720
G1 X221.970 Y129.506 E0.04613
G1 X139.421 Y193.561 E3.27610
G1 X137.900 Y194.526 E0.05649
G1 X135.753 Y195.444 E0.07319
G1 X134.782 Y195.709 E0.03157
G1 X133.464 Y195.945 E0.04196
G1 X131.800 Y196.067 E0.05234
G1 X31.625 Y194.358 E3.14137
G1 X30.165 Y194.146 E0.04624
G1 X28.745 Y193.720 E0.04648
G1 X27.411 Y193.091 E0.04624
G1 X26.178 Y192.269 E0.04648
G1 X25.085 Y191.278 E0.04624
G1 X24.146 Y190.132 E0.04648
G1 X23.390 Y188.865 E0.04624
G1 X22.826 Y187.494 E0.04648
G1 X22.481 Y186.109 E0.04477
G1 X22.336 Y184.680 E0.04502
G1 X22.397 Y183.246 E0.04502
G1 X22.664 Y181.835 E0.04502
G1 X66.885 Y20.977 E5.23072
G1 X67.449 Y19.561 E0.04777
G1 F8640
G1 X68.286 Y18.138 E-0.38116
G1 X69.303 Y16.924 E-0.36568
G1 X69.346 Y16.887 E-0.01316
G1 E-0.04000 F2100.00000
G1 Z0.800 F10800.000
G1 X173.121 Y74.961
G1 Z0.200
G1 E0.80000 F2100.00000
G1 F1200
G1 X208.480 Y75.688 E1.10890
G1 X211.192 Y76.463 E0.08844
G1 X213.652 Y77.805 E0.08787
G1 X222.403 Y84.710 E0.34949
G1 X224.207 Y86.403 E0.07758
G1 X225.648 Y88.440 E0.07825
G1 X226.680 Y90.768 E0.07982
G1 X227.296 Y94.506 E0.11880
G1 X226.871 Y119.637 E0.78809
G1 X226.341 Y122.711 E0.09780
G1 X225.115 Y125.500 E0.09552
G1 X223.667 Y127.476 E0.07682
G1 X221.834 Y129.131 E0.07743
G1 X212.670 Y135.883 E0.35687
G1 X210.166 Y137.142 E0.08790
G1 X207.429 Y137.825 E0.08844
G1 X172.065 Y137.355 E1.10890
M73 Q0 S207
M73 P0 R199
G1 X142.559 Y189.625 E1.88199
G1 X140.196 Y192.475 E0.11609
G1 X138.294 Y193.874 E0.07405
G1 X136.179 Y194.906 E0.07377
G1 X132.226 Y195.697 E0.12640
G1 X31.382 Y193.991 E3.16236
G1 X28.931 Y193.436 E0.07880
G1 X27.387 Y192.700 E0.05361
G1 X25.790 Y191.499 E0.06267
G1 X24.380 Y189.842 E0.06821
G1 X23.222 Y187.634 E0.07819
G1 X22.688 Y185.131 E0.08022
G1 X22.854 Y182.565 E0.08064
G1 X67.381 Y20.576 E5.26744
G1 X68.987 Y17.807 E0.10035
G1 X71.913 Y15.406 E0.11866
G1 X73.492 Y14.745 E0.05368
G1 X75.161 Y14.376 E0.05359
G1 X77.678 Y14.329 E0.07896
G1 X135.202 Y15.303 E1.80387
G1 X138.226 Y15.881 E0.09653
G1 X140.980 Y17.141 E0.09495
G1 X143.443 Y19.111 E0.09889
G1 X145.358 Y21.657 E0.09988
G1 X173.093 Y74.908 E1.88255
G1 X172.890 Y75.334 F10800.000
G1 F1200
G1 X208.401 Y76.057 E1.11365
G1 X211.031 Y76.804 E0.08572
G1 X213.431 Y78.111 E0.08571
G1 X222.163 Y85.001 E0.34874
G1 X223.911 Y86.637 E0.07506
G1 X225.311 Y88.611 E0.07588
G1 X226.325 Y90.898 E0.07846
G1 X226.919 Y94.516 E0.11496
G1 X226.494 Y119.616 E0.78710
G1 X225.973 Y122.624 E0.09571
G1 X224.798 Y125.294 E0.09145
G1 X223.374 Y127.238 E0.07557
G1 X221.588 Y128.845 E0.07533
G1 X212.460 Y135.570 E0.35551
G1 X210.015 Y136.796 E0.08573
G1 X207.362 Y137.453 E0.08573
G1 X171.847 Y136.974 E1.11365
G1 X142.239 Y189.425 E1.88848
G1 X139.954 Y192.186 E0.11237
G1 X138.113 Y193.543 E0.07172
G1 X136.036 Y194.557 E0.07246
G1 X132.213 Y195.320 E0.12224
G1 X31.408 Y193.614 E3.16111
G1 X29.036 Y193.073 E0.07630
G1 X27.567 Y192.368 E0.05106
G1 X26.064 Y191.238 E0.05898
G1 X24.681 Y189.614 E0.06688
G1 X23.568 Y187.483 E0.07539
G1 X23.063 Y185.079 E0.07700
G1 X23.222 Y182.646 E0.07645
G1 X67.738 Y20.700 E5.26607
G1 X69.296 Y18.027 E0.09700
G1 X72.083 Y15.744 E0.11297
G1 X73.622 Y15.099 E0.05230
G1 X75.187 Y14.752 E0.05024
G1 X77.675 Y14.707 E0.07805
G1 X135.180 Y15.679 E1.80326
G1 X138.091 Y16.234 E0.09291
G1 X140.763 Y17.450 E0.09205
G1 X143.189 Y19.390 E0.09740
G1 X145.047 Y21.870 E0.09716
G1 X172.862 Y75.281 E1.88813
G1 X172.659 Y75.706 F10800.000
G1 F1200
G1 X208.322 Y76.426 E1.11842
G1 X210.869 Y77.146 E0.08300
G1 X213.210 Y78.417 E0.08353
G1 X221.923 Y85.292 E0.34799
M73 Q0 S206
M73 P1 R198
G1 X223.615 Y86.871 E0.07255
G1 X224.974 Y88.781 E0.07350
G1 X225.970 Y91.029 E0.07710
G1 X226.542 Y94.527 E0.11112
G1 X226.117 Y119.595 E0.78611
G1 X225.606 Y122.537 E0.09361
G1 X224.482 Y125.088 E0.08741
G1 X223.107 Y126.971 E0.07310
G1 X221.343 Y128.558 E0.07442
G1 X212.249 Y135.257 E0.35413
G1 X209.866 Y136.449 E0.08355
G1 X207.295 Y137.082 E0.08301
G1 X171.628 Y136.594 E1.11842
G1 X141.919 Y189.225 E1.89497
G1 X139.711 Y191.896 E0.10864
G1 X137.903 Y193.229 E0.07045
G1 X135.893 Y194.207 E0.07009
G1 X132.199 Y194.943 E0.11809
G1 X31.434 Y193.237 E3.15985
G1 X29.141 Y192.710 E0.07377
G1 X27.748 Y192.037 E0.04851
G1 X26.337 Y190.978 E0.05532
G1 X24.982 Y189.386 E0.06555
G1 X23.915 Y187.332 E0.07259
G1 X23.441 Y185.078 E0.07222
G1 X23.591 Y182.728 E0.07384
G1 X68.095 Y20.824 E5.26468
G1 X69.604 Y18.246 E0.09363
G1 X72.255 Y16.081 E0.10732
G1 X73.721 Y15.464 E0.04989
G1 X75.213 Y15.129 E0.04793
G1 X77.672 Y15.084 E0.07713
G1 X135.157 Y16.056 E1.80266
G1 X137.956 Y16.587 E0.08931
G1 X140.546 Y17.760 E0.08917
G1 X142.902 Y19.636 E0.09441
G1 X144.736 Y22.084 E0.09592
G1 X172.631 Y75.653 E1.89370
G1 X172.427 Y76.079 F10800.000
G1 F1200
G1 X208.242 Y76.796 E1.12318
G1 X210.747 Y77.503 E0.08158
G1 X212.989 Y78.723 E0.08006
G1 X221.684 Y85.583 E0.34725
G1 X223.319 Y87.106 E0.07006
G1 X224.637 Y88.951 E0.07110
G1 X225.616 Y91.160 E0.07574
G1 X226.164 Y94.537 E0.10729
G1 X225.741 Y119.574 E0.78513
G1 X225.238 Y122.449 E0.09151
G1 X224.165 Y124.882 E0.08337
G1 X222.814 Y126.732 E0.07184
G1 X221.098 Y128.272 E0.07228
G1 X212.038 Y134.944 E0.35278
G1 X209.755 Y136.088 E0.08007
G1 X207.228 Y136.710 E0.08159
G1 X171.410 Y136.214 E1.12318
G1 X141.599 Y189.026 E1.90146
G1 X139.469 Y191.607 E0.10493
G1 X137.722 Y192.898 E0.06810
G1 X135.750 Y193.858 E0.06878
G1 X132.185 Y194.565 E0.11394
G1 X31.461 Y192.861 E3.15860
G1 X29.248 Y192.348 E0.07124
G1 X27.930 Y191.706 E0.04597
G1 X26.611 Y190.718 E0.05168
G1 X25.283 Y189.158 E0.06421
G1 X24.262 Y187.182 E0.06975
G1 X23.815 Y185.027 E0.06901
G1 X23.960 Y182.809 E0.06967
G1 X68.452 Y20.948 E5.26330
G1 X69.912 Y18.467 E0.09025
G1 X72.426 Y16.417 E0.10170
G1 X73.821 Y15.827 E0.04750
G1 X75.239 Y15.506 E0.04559
G1 X77.669 Y15.461 E0.07621
G1 X135.135 Y16.433 E1.80204
G1 X137.863 Y16.953 E0.08709
G1 X140.330 Y18.070 E0.08489
G1 X142.648 Y19.915 E0.09291
G1 X144.425 Y22.297 E0.09317
G1 X172.400 Y76.026 E1.89929
M73 Q1 S205
M73 P1 R197
G1 X172.196 Y76.452 F10800.000
G1 F1200
G1 X208.164 Y77.165 E1.12796
G1 X210.585 Y77.844 E0.07886
G1 X212.768 Y79.029 E0.07788
G1 X221.444 Y85.875 E0.34651
G1 X223.024 Y87.341 E0.06758
G1 X224.300 Y89.122 E0.06870
G1 X225.261 Y91.290 E0.07436
G1 X225.787 Y94.547 E0.10345
G1 X225.364 Y119.553 E0.78414
G1 X224.871 Y122.361 E0.08941
G1 X223.849 Y124.676 E0.07933
G1 X222.522 Y126.494 E0.07057
G1 X220.854 Y127.984 E0.07014
G1 X211.828 Y134.630 E0.35144
G1 X209.606 Y135.741 E0.07789
G1 X207.162 Y136.338 E0.07886
G1 X171.191 Y135.834 E1.12796
G1 X141.278 Y188.826 E1.90796
G1 X139.226 Y191.317 E0.10121
G1 X137.512 Y192.584 E0.06682
G1 X135.607 Y193.508 E0.06638
G1 X132.172 Y194.188 E0.10981
G1 X31.487 Y192.484 E3.15733
G1 X29.355 Y191.986 E0.06867
G1 X28.112 Y191.375 E0.04342
G1 X26.884 Y190.457 E0.04807
G1 X25.584 Y188.930 E0.06286
G1 X24.609 Y187.033 E0.06690
G1 X24.189 Y184.976 E0.06581
G1 X24.328 Y182.891 E0.06553
G1 X68.809 Y21.072 E5.26191
G1 X70.219 Y18.688 E0.08685
G1 X72.598 Y16.754 E0.09612
G1 X73.922 Y16.191 E0.04512
G1 X75.266 Y15.882 E0.04323
G1 X77.666 Y15.838 E0.07527
G1 X135.112 Y16.810 E1.80144
G1 X137.729 Y17.306 E0.08350
G1 X140.114 Y18.380 E0.08202
G1 X142.361 Y20.161 E0.08989
G1 X144.097 Y22.485 E0.09097
G1 X172.169 Y76.398 E1.90583
G1 X171.965 Y76.824 F10800.000
G1 F1200
G1 X208.086 Y77.535 E1.13276
G1 X210.425 Y78.186 E0.07613
G1 X212.548 Y79.335 E0.07569
G1 X221.205 Y86.166 E0.34577
G1 X222.729 Y87.577 E0.06511
G1 X223.964 Y89.293 E0.06627
G1 X224.907 Y91.421 E0.07298
G1 X225.410 Y94.558 E0.09961
G1 X224.987 Y119.531 E0.78315
G1 X224.504 Y122.273 E0.08729
G1 X223.532 Y124.470 E0.07532
G1 X222.255 Y126.226 E0.06807
G1 X220.609 Y127.697 E0.06922
G1 X211.617 Y134.317 E0.35008
G1 X209.457 Y135.394 E0.07570
G1 X207.097 Y135.966 E0.07613
G1 X170.973 Y135.454 E1.13275
G1 X140.958 Y188.626 E1.91446
G1 X138.982 Y191.028 E0.09751
G1 X137.332 Y192.253 E0.06444
G1 X135.465 Y193.158 E0.06506
G1 X132.158 Y193.811 E0.10567
G1 X31.514 Y192.107 E3.15607
G1 X29.463 Y191.624 E0.06609
G1 X28.294 Y191.045 E0.04087
G1 X27.157 Y190.196 E0.04449
G1 X25.886 Y188.703 E0.06150
G1 X24.956 Y186.884 E0.06404
G1 X24.567 Y184.976 E0.06108
G1 X24.697 Y182.972 E0.06295
G1 X69.166 Y21.197 E5.26050
G1 X70.526 Y18.909 E0.08343
G1 X72.770 Y17.090 E0.09058
G1 X74.024 Y16.554 E0.04276
G1 X75.293 Y16.259 E0.04085
G1 X77.663 Y16.215 E0.07432
G1 X135.090 Y17.186 E1.80083
M73 Q1 S204
M73 P2 R196
G1 X137.595 Y17.659 E0.07994
G1 X139.898 Y18.690 E0.07912
G1 X142.107 Y20.441 E0.08837
G1 X143.770 Y22.672 E0.08725
G1 X171.937 Y76.771 E1.91237
G1 X171.734 Y77.197 F10800.000
G1 F1200
G1 X208.008 Y77.905 E1.13757
G1 X210.265 Y78.528 E0.07340
G1 X212.327 Y79.642 E0.07349
G1 X220.966 Y86.458 E0.34503
G1 X222.435 Y87.814 E0.06267
G1 X223.627 Y89.464 E0.06383
G1 X224.552 Y91.551 E0.07158
G1 X225.032 Y94.568 E0.09578
G1 X224.610 Y119.510 E0.78217
G1 X224.136 Y122.185 E0.08517
G1 X223.215 Y124.265 E0.07134
G1 X221.989 Y125.959 E0.06555
G1 X220.364 Y127.410 E0.06830
G1 X211.407 Y134.003 E0.34873
G1 X209.308 Y135.047 E0.07349
G1 X207.032 Y135.593 E0.07340
G1 X170.755 Y135.073 E1.13757
G1 X140.638 Y188.427 E1.92097
G1 X138.739 Y190.739 E0.09381
G1 X137.122 Y191.939 E0.06315
G1 X135.322 Y192.808 E0.06264
G1 X132.145 Y193.433 E0.10155
G1 X31.541 Y191.731 E3.15480
G1 X29.572 Y191.262 E0.06348
G1 X28.478 Y190.716 E0.03833
G1 X27.431 Y189.936 E0.04095
G1 X26.188 Y188.476 E0.06012
G1 X25.304 Y186.737 E0.06114
G1 X24.942 Y184.926 E0.05790
G1 X25.066 Y183.054 E0.05884
G1 X69.523 Y21.321 E5.25910
G1 X70.832 Y19.132 E0.07999
G1 X72.943 Y17.427 E0.08508
G1 X74.128 Y16.918 E0.04043
G1 X75.321 Y16.636 E0.03844
G1 X77.660 Y16.592 E0.07337
G1 X135.068 Y17.563 E1.80023
G1 X137.462 Y18.013 E0.07639
G1 X139.684 Y19.001 E0.07623
G1 X141.820 Y20.687 E0.08532
G1 X143.442 Y22.860 E0.08504
G1 X171.706 Y77.144 E1.91891
G1 X171.503 Y77.569 F10800.000
G1 F1200
G1 X207.931 Y78.275 E1.14240
G1 X210.105 Y78.870 E0.07066
G1 X212.106 Y79.948 E0.07127
G1 X220.727 Y86.750 E0.34429
G1 X222.141 Y88.050 E0.06024
G1 X223.290 Y89.635 E0.06137
G1 X224.197 Y91.681 E0.07018
G1 X224.655 Y94.577 E0.09194
G1 X224.234 Y119.489 E0.78118
G1 X223.769 Y122.096 E0.08305
G1 X222.898 Y124.061 E0.06739
G1 X221.722 Y125.691 E0.06302
G1 X220.120 Y127.123 E0.06737
G1 X211.197 Y133.690 E0.34737
G1 X209.160 Y134.699 E0.07127
G1 X206.968 Y135.221 E0.07067
G1 X170.536 Y134.693 E1.14240
G1 X140.317 Y188.227 E1.92748
G1 X138.495 Y190.451 E0.09013
G1 X136.941 Y191.607 E0.06074
G1 X135.180 Y192.457 E0.06131
G1 X132.131 Y193.056 E0.09743
G1 X31.569 Y191.354 E3.15352
G1 X29.681 Y190.901 E0.06085
G1 X28.663 Y190.386 E0.03579
G1 X27.704 Y189.675 E0.03744
G1 X26.489 Y188.248 E0.05873
G1 X25.653 Y186.591 E0.05822
G1 X25.317 Y184.879 E0.05471
G1 X25.434 Y183.136 E0.05477
G1 X69.879 Y21.446 E5.25769
M73 Q2 S203
M73 P2 R195
G1 X71.138 Y19.355 E0.07653
G1 X73.116 Y17.763 E0.07962
G1 X74.232 Y17.280 E0.03812
G1 X75.349 Y17.012 E0.03601
G1 X77.657 Y16.969 E0.07240
G1 X135.045 Y17.940 E1.79962
G1 X137.371 Y18.379 E0.07421
G1 X139.469 Y19.312 E0.07200
G1 X141.533 Y20.933 E0.08227
G1 X143.115 Y23.048 E0.08282
G1 X171.475 Y77.516 E1.92545
G1 X171.272 Y77.942 F10800.000
G1 F1200
G1 X207.854 Y78.644 E1.14723
G1 X209.985 Y79.228 E0.06925
G1 X211.886 Y80.254 E0.06773
G1 X220.488 Y87.041 E0.34357
G1 X221.847 Y88.288 E0.05783
G1 X222.954 Y89.806 E0.05890
G1 X223.842 Y91.811 E0.06877
G1 X224.278 Y94.587 E0.08810
G1 X223.857 Y119.467 E0.78020
G1 X223.402 Y122.007 E0.08091
G1 X222.580 Y123.857 E0.06346
G1 X221.455 Y125.424 E0.06048
G1 X219.875 Y126.836 E0.06644
G1 X210.987 Y133.377 E0.34602
G1 X209.052 Y134.337 E0.06773
G1 X206.903 Y134.849 E0.06926
G1 X170.318 Y134.313 E1.14723
G1 X139.997 Y188.028 E1.93400
G1 X138.252 Y190.162 E0.08644
G1 X136.731 Y191.294 E0.05944
G1 X135.039 Y192.107 E0.05886
G1 X132.118 Y192.678 E0.09332
G1 X31.596 Y190.977 E3.15224
G1 X29.792 Y190.540 E0.05819
G1 X28.848 Y190.058 E0.03324
G1 X27.977 Y189.414 E0.03397
G1 X26.791 Y188.022 E0.05733
G1 X26.002 Y186.445 E0.05529
G1 X25.695 Y184.879 E0.05005
G1 X25.803 Y183.217 E0.05221
G1 X70.236 Y21.572 E5.25626
G1 X71.443 Y19.579 E0.07305
G1 X73.289 Y18.098 E0.07421
G1 X74.337 Y17.643 E0.03584
G1 X75.377 Y17.389 E0.03355
G1 X77.654 Y17.346 E0.07142
G1 X135.023 Y18.317 E1.79902
G1 X137.239 Y18.733 E0.07069
G1 X139.255 Y19.623 E0.06911
G1 X141.280 Y21.214 E0.08073
G1 X142.788 Y23.235 E0.07907
G1 X171.244 Y77.889 E1.93200
G1 X171.041 Y78.315 F10800.000
G1 F1200
G1 X207.778 Y79.014 E1.15208
G1 X209.825 Y79.571 E0.06651
G1 X211.665 Y80.560 E0.06550
G1 X220.249 Y87.333 E0.34284
G1 X221.554 Y88.526 E0.05544
G1 X222.617 Y89.978 E0.05641
G1 X223.488 Y91.941 E0.06734
G1 X223.901 Y94.597 E0.08427
G1 X223.480 Y119.445 E0.77922
G1 X223.035 Y121.918 E0.07877
G1 X222.262 Y123.653 E0.05956
G1 X221.188 Y125.157 E0.05793
G1 X219.631 Y126.549 E0.06550
G1 X210.777 Y133.063 E0.34466
G1 X208.904 Y133.990 E0.06550
G1 X206.840 Y134.477 E0.06651
G1 X170.100 Y133.932 E1.15208
G1 X139.676 Y187.829 E1.94052
G1 X138.007 Y189.874 E0.08278
G1 X136.551 Y190.962 E0.05700
G1 X134.897 Y191.757 E0.05752
G1 X132.105 Y192.301 E0.08921
G1 X31.624 Y190.601 E3.15096
G1 X29.904 Y190.179 E0.05552
G1 X29.059 Y189.745 E0.02980
G1 X28.249 Y189.152 E0.03145
G1 X27.094 Y187.795 E0.05589
G1 X26.351 Y186.301 E0.05232
G1 X26.069 Y184.832 E0.04690
G1 X26.172 Y183.299 E0.04818
G1 X70.593 Y21.698 E5.25483
M73 Q2 S202
M73 P3 R194
