; generated by Slic3r Prusa Edition 1.41.0+win64 on 2019-04-15 at 09:52:57

; 

; external perimeters extrusion width = 0.45mm
; perimeters extrusion width = 0.45mm
; infill extrusion width = 0.45mm
; solid infill extrusion width = 0.45mm
; top infill extrusion width = 0.40mm
; first layer extrusion width = 0.42mm

M201 X1000 Y1000 Z1000 E8000 ; sets maximum accelerations, mm/sec^2
M203 X200 Y200 Z12 E120 ; sets maximum feedrates, mm/sec
M204 P1250 R1250 T1250 ; sets acceleration (P, T) and retract acceleration (R), mm/sec^2
M205 X8.00 Y8.00 Z0.40 E1.50 ; sets the jerk limits, mm/sec
M205 S0 T0 ; sets the minimum extruding and travel feed rate, mm/sec
M107
M107
M115 U3.4.1 ; tell printer latest fw version
M83  ; extruder relative mode
M104 S255 ; set extruder temp
M140 S100 ; set bed temp
M190 S100 ; wait for bed temp
M109 S255 ; wait for extruder temp
G28 W ; home all without mesh bed level
G80 ; mesh bed leveling
G21 ; set units to millimeters

; Send the filament type to the MMU2.0 unit.
; E stands for extruder number, F stands for filament type (0: default; 1:flex; 2: PVA)
M403 E0 F0
M403 E1 F0
M403 E2 F0
M403 E3 F0
M403 E4 F0


;go outside print area
G1 Y-3.0 F1000.0
G1 Z0.4 F1000.0
; select extruder
T3
; initial load
G1 X55.0 E32.0 F1073.0
M73 Q0 S198
M73 P0 R192
G1 X5.0 E32.0 F1800.0
G1 X55.0 E8.0 F2000.0
G1 Z0.3 F1000.0
G92 E0.0
G1 X240.0 E25.0  F2200.0
G1 Y-2.0 F1000.0
G1 X55.0 E25 F1400.0
G1 Z0.20 F1000.0
G1 X5.0 E4.0 F1000.0
G92 E0.0


M221 S95
G90 ; use absolute coordinates
M83 ; use relative distances for extrusion
G92 E0.0
M900 K30; Filament gcode
G21 ; set units to millimeters
G90 ; use absolute coordinates
M83 ; use relative distances for extrusion
T3
M900 K30; Filament gcode
;BEFORE_LAYER_CHANGE
G92 E0.0
;0.2


G1 E-0.80000 F2100.00000
G1 Z0.600 F10800.000
;AFTER_LAYER_CHANGE
;0.2
G1 X72.281 Y22.656
G1 Z0.200
G1 E0.80000 F2100.00000
M204 S1000
G1 F1200
G1 X73.959 Y22.507 E0.05283
G1 X212.008 Y22.507 E4.32841
G1 X213.925 Y22.694 E0.06039
G1 X215.777 Y23.249 E0.06063
G1 X217.488 Y24.150 E0.06063
G1 X218.994 Y25.363 E0.06063
G1 X220.238 Y26.844 E0.06063
G1 X221.173 Y28.536 E0.06063
G1 X221.765 Y30.377 E0.06063
G1 X221.991 Y32.298 E0.06063
G1 X221.983 Y177.929 E4.56617
G1 X221.811 Y179.394 E0.04624
G1 X221.423 Y180.825 E0.04648
G1 X220.831 Y182.175 E0.04624
G1 X220.042 Y183.431 E0.04648
G1 X219.082 Y184.550 E0.04624
G1 X217.961 Y185.520 E0.04648
G1 X216.709 Y186.313 E0.04648
G1 X215.353 Y186.913 E0.04648
G1 X213.778 Y187.333 E0.05112
G1 X212.163 Y187.491 E0.05088
G1 X178.859 Y187.492 E1.04421
G1 X177.684 Y187.406 E0.03695
G1 X176.519 Y187.180 E0.03720
G1 X175.397 Y186.820 E0.03695
G1 X174.318 Y186.328 E0.03720
G1 X43.406 Y108.780 E4.77074
G1 X42.010 Y107.641 E0.05649
G1 X40.846 Y106.276 E0.05624
G1 X29.683 Y90.038 E0.61785
G1 X29.067 Y88.979 E0.03842
G1 X28.586 Y87.852 E0.03842
G1 X28.205 Y86.476 E0.04477
G1 X28.023 Y85.051 E0.04502
G1 X28.032 Y77.806 E0.22719
G1 X28.199 Y76.552 E0.03964
G1 X28.523 Y75.330 E0.03964
G1 X29.000 Y74.159 E0.03964
G1 X29.620 Y73.057 E0.03964
G1 X66.277 Y26.159 E1.86638
G1 X67.203 Y25.176 E0.04233
G1 X68.252 Y24.326 E0.04233
G1 X69.406 Y23.626 E0.04233
G1 X70.644 Y23.088 E0.04233
G1 X72.223 Y22.672 E0.05119
G1 F8640
G1 X73.959 Y22.507 E-0.40271
G1 X75.507 Y22.507 E-0.35729
G1 E-0.04000 F2100.00000
G1 Z0.800 F10800.000
G1 X169.384 Y120.081
G1 Z0.200
G1 E0.80000 F2100.00000
G1 F1200
G1 X127.857 Y110.114 E1.33904
G1 X46.785 Y109.894 E2.54196
G1 X45.370 Y109.415 E0.04686
G1 X44.016 Y108.750 E0.04728
G1 X41.455 Y106.498 E0.10693
G1 X29.790 Y89.531 E0.64559
G1 X28.922 Y87.687 E0.06391
M73 Q0 S197
G1 X28.430 Y85.343 E0.07511
G1 X28.453 Y77.336 E0.25104
M73 P0 R191
G1 X28.531 Y76.690 E0.02041
G1 X29.838 Y73.362 E0.11211
G1 X31.344 Y71.533 E0.07428
G1 X33.001 Y70.256 E0.06559
G1 X35.162 Y69.298 E0.07414
G1 X56.099 Y64.457 E0.67378
G1 X64.894 Y29.278 E1.13697
G1 X67.438 Y25.412 E0.14511
G1 X68.997 Y24.266 E0.06066
G1 X70.727 Y23.430 E0.06025
G1 X73.292 Y22.895 E0.08217
G1 X212.835 Y22.899 E4.37526
G1 X214.751 Y23.251 E0.06109
G1 X216.575 Y23.988 E0.06167
G1 X218.932 Y25.810 E0.09342
G1 X220.784 Y28.508 E0.10262
G1 X221.616 Y31.674 E0.10261
G1 X221.616 Y178.236 E4.59535
G1 X221.019 Y180.931 E0.08655
G1 X219.652 Y183.366 E0.08757
G1 X217.633 Y185.327 E0.08824
G1 X215.180 Y186.611 E0.08682
G1 X212.638 Y187.116 E0.08125
G1 X178.296 Y187.113 E1.07676
G1 X176.193 Y186.733 E0.06700
G1 X174.245 Y185.905 E0.06636
G1 X172.142 Y184.242 E0.08407
G1 X170.857 Y182.721 E0.06244
G1 X170.757 Y182.537 E0.00654
G1 X169.384 Y178.450 E0.13519
G1 X169.384 Y120.141 E1.82825
G1 X169.762 Y119.784 F10800.000
G1 F1200
G1 X127.902 Y109.737 E1.34974
G1 X46.877 Y109.527 E2.54049
G1 X45.502 Y109.062 E0.04551
G1 X44.205 Y108.423 E0.04534
G1 X41.753 Y106.265 E0.10242
G1 X30.110 Y89.330 E0.64437
G1 X29.273 Y87.547 E0.06177
G1 X28.807 Y85.324 E0.07121
G1 X28.830 Y77.349 E0.25006
G1 X28.902 Y76.760 E0.01859
G1 X30.178 Y73.528 E0.10893
G1 X31.591 Y71.818 E0.06956
G1 X33.175 Y70.591 E0.06282
G1 X35.265 Y69.661 E0.07172
G1 X56.409 Y64.773 E0.68045
G1 X65.252 Y29.400 E1.14321
G1 X67.689 Y25.695 E0.13904
G1 X69.177 Y24.598 E0.05797
G1 X70.870 Y23.779 E0.05896
G1 X73.311 Y23.272 E0.07819
G1 X212.817 Y23.276 E4.37411
G1 X214.663 Y23.619 E0.05886
G1 X216.408 Y24.327 E0.05906
G1 X218.677 Y26.090 E0.09009
G1 X220.428 Y28.636 E0.09689
G1 X221.238 Y31.698 E0.09931
G1 X221.238 Y178.215 E4.59393
G1 X220.657 Y180.821 E0.08372
G1 X219.337 Y183.157 E0.08411
G1 X217.391 Y185.037 E0.08484
G1 X215.030 Y186.264 E0.08343
G1 X212.619 Y186.738 E0.07703
G1 X178.346 Y186.738 E1.07463
G1 X176.321 Y186.377 E0.06448
G1 X174.416 Y185.568 E0.06489
G1 X172.391 Y183.959 E0.08109
G1 X171.159 Y182.494 E0.06005
G1 X171.110 Y182.402 E0.00325
G1 X169.762 Y178.419 E0.13185
G1 X169.762 Y119.844 E1.83660
G1 X170.139 Y119.486 F10800.000
G1 F1200
G1 X127.947 Y109.360 E1.36045
M73 Q1 S196
M73 P1 R190
G1 X46.969 Y109.160 E2.53903
G1 X45.658 Y108.718 E0.04338
G1 X44.394 Y108.096 E0.04416
G1 X42.050 Y106.033 E0.09791
G1 X30.429 Y89.130 E0.64315
G1 X29.624 Y87.407 E0.05963
G1 X29.184 Y85.305 E0.06732
G1 X29.207 Y77.362 E0.24908
G1 X29.274 Y76.831 E0.01676
G1 X30.517 Y73.695 E0.10577
G1 X31.839 Y72.103 E0.06488
G1 X33.350 Y70.926 E0.06006
G1 X35.368 Y70.024 E0.06929
G1 X56.719 Y65.088 E0.68711
G1 X65.610 Y29.522 E1.14945
G1 X67.940 Y25.979 E0.13296
G1 X69.386 Y24.912 E0.05636
G1 X71.012 Y24.129 E0.05658
G1 X73.331 Y23.649 E0.07423
G1 X212.800 Y23.653 E4.37295
G1 X214.574 Y23.986 E0.05661
G1 X216.241 Y24.666 E0.05645
G1 X218.422 Y26.369 E0.08675
G1 X220.099 Y28.822 E0.09316
G1 X220.861 Y31.723 E0.09403
G1 X220.861 Y178.194 E4.59251
G1 X220.296 Y180.711 E0.08088
G1 X219.023 Y182.946 E0.08064
G1 X217.150 Y184.746 E0.08145
G1 X214.881 Y185.916 E0.08005
G1 X212.601 Y186.361 E0.07283
G1 X178.363 Y186.361 E1.07353
G1 X176.409 Y186.010 E0.06223
G1 X174.588 Y185.232 E0.06209
G1 X172.641 Y183.676 E0.07813
G1 X171.477 Y182.291 E0.05674
G1 X170.139 Y178.388 E0.12939
G1 X170.139 Y119.546 E1.84494
G1 X170.516 Y119.189 F10800.000
G1 F1200
G1 X127.992 Y108.983 E1.37116
G1 X47.060 Y108.793 E2.53757
G1 X45.790 Y108.365 E0.04202
G1 X44.584 Y107.769 E0.04220
G1 X42.348 Y105.800 E0.09341
G1 X30.749 Y88.929 E0.64193
G1 X29.975 Y87.268 E0.05747
G1 X29.561 Y85.287 E0.06344
G1 X29.584 Y77.375 E0.24808
G1 X29.644 Y76.903 E0.01491
G1 X30.856 Y73.863 E0.10261
G1 X32.087 Y72.387 E0.06025
G1 X33.526 Y71.260 E0.05730
G1 X35.471 Y70.387 E0.06684
G1 X57.029 Y65.403 E0.69377
G1 X65.968 Y29.645 E1.15569
G1 X68.191 Y26.262 E0.12689
G1 X69.596 Y25.226 E0.05475
G1 X71.154 Y24.479 E0.05419
G1 X73.350 Y24.026 E0.07029
G1 X212.782 Y24.030 E4.37181
G1 X214.450 Y24.342 E0.05319
G1 X216.074 Y25.005 E0.05502
G1 X218.166 Y26.647 E0.08337
G1 X219.768 Y29.007 E0.08943
G1 X220.484 Y31.746 E0.08878
G1 X220.484 Y178.173 E4.59111
G1 X219.953 Y180.550 E0.07635
G1 X218.742 Y182.694 E0.07723
G1 X216.953 Y184.423 E0.07801
G1 X214.732 Y185.569 E0.07832
G1 X212.584 Y185.984 E0.06863
G1 X178.380 Y185.984 E1.07244
M73 Q1 S195
M73 P1 R189
G1 X176.498 Y185.643 E0.05997
G1 X174.761 Y184.896 E0.05928
G1 X172.892 Y183.394 E0.07516
G1 X171.800 Y182.089 E0.05337
G1 X170.516 Y178.356 E0.12378
G1 X170.516 Y119.249 E1.85327
G1 X170.893 Y118.892 F10800.000
G1 F1200
G1 X128.037 Y108.606 E1.38186
G1 X47.152 Y108.426 E2.53611
G1 X45.923 Y108.012 E0.04066
G1 X44.773 Y107.442 E0.04023
G1 X42.645 Y105.567 E0.08893
G1 X31.069 Y88.728 E0.64070
G1 X30.326 Y87.129 E0.05531
G1 X29.938 Y85.268 E0.05958
G1 X29.961 Y77.388 E0.24708
G1 X30.015 Y76.976 E0.01303
G1 X31.195 Y74.032 E0.09945
G1 X32.336 Y72.672 E0.05565
G1 X33.702 Y71.595 E0.05455
G1 X35.574 Y70.751 E0.06437
G1 X57.339 Y65.719 E0.70042
G1 X66.327 Y29.767 E1.16194
G1 X68.442 Y26.545 E0.12084
G1 X69.775 Y25.558 E0.05201
G1 X71.296 Y24.829 E0.05289
G1 X73.369 Y24.403 E0.06634
G1 X212.764 Y24.407 E4.37065
G1 X214.360 Y24.709 E0.05093
G1 X215.906 Y25.344 E0.05240
G1 X217.909 Y26.925 E0.08002
G1 X219.412 Y29.134 E0.08377
G1 X220.107 Y31.771 E0.08550
G1 X220.107 Y178.152 E4.58968
G1 X219.592 Y180.439 E0.07350
G1 X218.428 Y182.484 E0.07377
G1 X216.711 Y184.132 E0.07462
G1 X214.634 Y185.204 E0.07329
G1 X212.565 Y185.607 E0.06608
G1 X178.396 Y185.607 E1.07134
G1 X176.627 Y185.288 E0.05637
G1 X174.934 Y184.560 E0.05778
G1 X173.144 Y183.113 E0.07216
G1 X172.111 Y181.875 E0.05056
G1 X170.893 Y178.325 E0.11767
G1 X170.893 Y118.952 E1.86161
G1 X171.270 Y118.594 F10800.000
G1 F1200
G1 X128.082 Y108.229 E1.39257
G1 X47.243 Y108.059 E2.53467
G1 X46.079 Y107.668 E0.03850
G1 X44.963 Y107.115 E0.03904
G1 X42.943 Y105.334 E0.08444
G1 X31.389 Y88.528 E0.63947
G1 X30.677 Y86.990 E0.05314
G1 X30.315 Y85.250 E0.05573
G1 X30.338 Y77.402 E0.24607
G1 X30.386 Y77.050 E0.01113
G1 X31.533 Y74.201 E0.09631
G1 X32.585 Y72.955 E0.05111
G1 X33.879 Y71.928 E0.05181
G1 X35.677 Y71.114 E0.06189
G1 X57.648 Y66.034 E0.70707
G1 X66.685 Y29.889 E1.16818
G1 X68.693 Y26.829 E0.11478
G1 X69.985 Y25.872 E0.05039
G1 X71.438 Y25.180 E0.05046
G1 X73.388 Y24.780 E0.06241
G1 X212.746 Y24.784 E4.36949
G1 X214.270 Y25.076 E0.04865
G1 X215.737 Y25.682 E0.04977
G1 X217.652 Y27.202 E0.07665
G1 X219.082 Y29.318 E0.08008
G1 X219.730 Y31.795 E0.08027
G1 X219.730 Y178.131 E4.58826
M73 Q2 S194
M73 P2 R188
G1 X219.231 Y180.328 E0.07064
G1 X218.115 Y182.272 E0.07029
G1 X216.471 Y183.840 E0.07123
G1 X214.486 Y184.856 E0.06990
G1 X212.547 Y185.230 E0.06192
G1 X178.414 Y185.230 E1.07024
G1 X176.716 Y184.921 E0.05410
G1 X175.108 Y184.224 E0.05495
G1 X173.397 Y182.832 E0.06917
G1 X172.423 Y181.660 E0.04776
G1 X171.270 Y178.294 E0.11158
G1 X171.270 Y118.654 E1.86996
G1 X171.647 Y118.297 F10800.000
G1 F1200
G1 X128.127 Y107.852 E1.40328
G1 X47.334 Y107.692 E2.53322
G1 X46.211 Y107.315 E0.03714
G1 X45.153 Y106.789 E0.03705
G1 X43.240 Y105.102 E0.07997
G1 X31.709 Y88.328 E0.63823
G1 X31.029 Y86.852 E0.05095
G1 X30.692 Y85.231 E0.05189
G1 X30.715 Y77.416 E0.24505
G1 X30.756 Y77.125 E0.00922
G1 X31.841 Y74.421 E0.09136
G1 X32.860 Y73.213 E0.04955
G1 X34.095 Y72.239 E0.04930
G1 X35.780 Y71.477 E0.05799
G1 X57.958 Y66.350 E0.71372
G1 X67.043 Y30.011 E1.17442
G1 X68.945 Y27.112 E0.10873
G1 X70.194 Y26.186 E0.04876
G1 X71.578 Y25.530 E0.04802
G1 X73.407 Y25.157 E0.05851
G1 X212.728 Y25.161 E4.36833
G1 X214.180 Y25.442 E0.04635
G1 X215.568 Y26.020 E0.04714
G1 X217.394 Y27.479 E0.07330
G1 X218.725 Y29.446 E0.07447
G1 X219.353 Y31.820 E0.07699
G1 X219.353 Y178.109 E4.58681
G1 X218.870 Y180.215 E0.06774
G1 X217.802 Y182.059 E0.06680
G1 X216.232 Y183.548 E0.06784
G1 X214.340 Y184.507 E0.06652
G1 X212.530 Y184.853 E0.05778
G1 X178.431 Y184.853 E1.06914
G1 X176.806 Y184.554 E0.05180
G1 X175.283 Y183.889 E0.05210
G1 X173.650 Y182.553 E0.06618
G1 X172.736 Y181.447 E0.04498
G1 X171.647 Y178.263 E0.10551
G1 X171.647 Y118.357 E1.87830
G1 X172.024 Y118.000 F10800.000
G1 F1200
G1 X128.172 Y107.475 E1.41399
G1 X47.425 Y107.324 E2.53179
G1 X46.367 Y106.971 E0.03495
G1 X45.343 Y106.462 E0.03586
G1 X43.538 Y104.869 E0.07549
G1 X32.029 Y88.128 E0.63699
G1 X31.380 Y86.714 E0.04876
G1 X31.069 Y85.213 E0.04807
G1 X31.092 Y77.431 E0.24400
G1 X31.126 Y77.201 E0.00727
G1 X32.149 Y74.640 E0.08649
G1 X33.109 Y73.497 E0.04680
G1 X34.310 Y72.549 E0.04797
G1 X35.883 Y71.840 E0.05409
G1 X58.268 Y66.665 E0.72039
G1 X67.401 Y30.134 E1.18067
G1 X69.197 Y27.394 E0.10270
G1 X70.373 Y26.519 E0.04598
G1 X71.719 Y25.881 E0.04671
G1 X73.425 Y25.534 E0.05460
G1 X212.710 Y25.539 E4.36716
G1 X214.088 Y25.808 E0.04403
G1 X215.397 Y26.357 E0.04451
G1 X217.135 Y27.754 E0.06993
G1 X218.394 Y29.629 E0.07082
G1 X218.976 Y31.844 E0.07178
G1 X218.976 Y178.088 E4.58540
M73 Q2 S193
M73 P2 R187
G1 X218.528 Y180.052 E0.06315
G1 X217.522 Y181.806 E0.06339
G1 X216.037 Y183.224 E0.06439
G1 X214.193 Y184.159 E0.06480
G1 X212.512 Y184.476 E0.05364
G1 X178.448 Y184.476 E1.06805
G1 X176.897 Y184.187 E0.04948
G1 X175.459 Y183.555 E0.04925
G1 X173.904 Y182.274 E0.06318
G1 X173.049 Y181.234 E0.04221
G1 X172.024 Y178.232 E0.09946
G1 X172.024 Y118.060 E1.88665
G1 X172.401 Y117.703 F10800.000
G1 F1200
G1 X128.217 Y107.098 E1.42470
G1 X47.515 Y106.957 E2.53035
G1 X46.499 Y106.618 E0.03358
G1 X45.534 Y106.136 E0.03384
G1 X43.836 Y104.636 E0.07103
G1 X32.349 Y87.928 E0.63575
G1 X31.732 Y86.577 E0.04655
G1 X31.447 Y85.195 E0.04426
G1 X31.469 Y77.447 E0.24293
G1 X31.495 Y77.280 E0.00529
G1 X32.458 Y74.859 E0.08168
G1 X33.385 Y73.755 E0.04523
G1 X34.525 Y72.860 E0.04542
G1 X35.986 Y72.204 E0.05022
G1 X58.578 Y66.980 E0.72705
G1 X67.759 Y30.256 E1.18691
G1 X69.448 Y27.677 E0.09666
G1 X70.583 Y26.832 E0.04434
G1 X71.859 Y26.232 E0.04422
G1 X73.444 Y25.911 E0.05072
G1 X212.691 Y25.916 E4.36598
G1 X213.995 Y26.174 E0.04169
G1 X215.225 Y26.694 E0.04187
G1 X216.875 Y28.029 E0.06655
G1 X218.063 Y29.812 E0.06717
G1 X218.599 Y31.868 E0.06661
G1 X218.599 Y178.067 E4.58398
G1 X218.168 Y179.940 E0.06026
G1 X217.210 Y181.592 E0.05990
G1 X215.798 Y182.931 E0.06099
G1 X214.048 Y183.810 E0.06138
G1 X212.495 Y184.099 E0.04953
G1 X178.466 Y184.099 E1.06696
G1 X176.989 Y183.821 E0.04714
G1 X175.637 Y183.221 E0.04638
G1 X174.159 Y181.995 E0.06019
G1 X173.362 Y181.021 E0.03946
G1 X172.401 Y178.201 E0.09343
G1 X172.401 Y117.763 E1.89500
G1 X172.778 Y117.405 F10800.000
G1 F1200
G1 X128.262 Y106.721 E1.43541
G1 X47.606 Y106.590 E2.52891
G1 X46.632 Y106.264 E0.03221
G1 X45.725 Y105.810 E0.03181
G1 X44.133 Y104.404 E0.06659
G1 X32.669 Y87.728 E0.63450
G1 X32.084 Y86.441 E0.04433
G1 X31.824 Y85.176 E0.04047
G1 X31.846 Y77.464 E0.24181
G1 X31.863 Y77.362 E0.00325
G1 X32.766 Y75.078 E0.07700
G1 X33.661 Y74.012 E0.04365
G1 X34.738 Y73.171 E0.04285
G1 X36.088 Y72.567 E0.04638
G1 X58.888 Y67.296 E0.73372
G1 X68.117 Y30.378 E1.19316
G1 X69.701 Y27.959 E0.09065
G1 X70.761 Y27.165 E0.04151
G1 X71.999 Y26.583 E0.04290
G1 X73.463 Y26.289 E0.04683
G1 X212.672 Y26.293 E4.36481
G1 X213.901 Y26.540 E0.03932
G1 X215.053 Y27.030 E0.03923
G1 X216.615 Y28.303 E0.06319
G1 X217.707 Y29.939 E0.06164
G1 X218.222 Y31.892 E0.06335
G1 X218.222 Y178.045 E4.58252
M73 Q3 S192
M73 P3 R186
G1 X217.807 Y179.826 E0.05733
G1 X216.898 Y181.378 E0.05639
G1 X215.560 Y182.637 E0.05760
G1 X213.905 Y183.460 E0.05797
G1 X212.478 Y183.722 E0.04547
G1 X178.484 Y183.722 E1.06589
G1 X177.121 Y183.467 E0.04345
G1 X175.814 Y182.887 E0.04485
G1 X174.415 Y181.718 E0.05716
G1 X173.676 Y180.810 E0.03672
G1 X172.778 Y178.170 E0.08742
G1 X172.778 Y117.465 E1.90335
G1 X173.155 Y117.108 F10800.000
G1 F1200
G1 X128.307 Y106.344 E1.44612
G1 X47.696 Y106.223 E2.52750
G1 X46.789 Y105.921 E0.02998
G1 X45.916 Y105.484 E0.03061
G1 X44.431 Y104.171 E0.06214
G1 X32.989 Y87.528 E0.63324
G1 X32.437 Y86.305 E0.04210
G1 X32.201 Y85.158 E0.03670
G1 X32.230 Y77.451 E0.24165
G1 X33.075 Y75.296 E0.07258
G1 X33.909 Y74.297 E0.04081
G1 X34.952 Y73.483 E0.04149
G1 X36.191 Y72.930 E0.04252
G1 X59.198 Y67.611 E0.74039
G1 X68.475 Y30.500 E1.19941
G1 X69.953 Y28.241 E0.08464
G1 X70.971 Y27.479 E0.03986
G1 X72.137 Y26.934 E0.04037
G1 X73.481 Y26.666 E0.04297
G1 X212.653 Y26.670 E4.36364
G1 X213.771 Y26.894 E0.03576
G1 X214.880 Y27.366 E0.03777
G1 X216.353 Y28.576 E0.05978
G1 X217.375 Y30.120 E0.05804
