; generated by Slic3r Prusa Edition 1.42.0-beta2+win64 on 2019-04-17 at 09:03:54

; 

; external perimeters extrusion width = 0.45mm
; perimeters extrusion width = 0.45mm
; infill extrusion width = 0.45mm
; solid infill extrusion width = 0.45mm
; top infill extrusion width = 0.40mm
; first layer extrusion width = 0.42mm

M73 P0 R168
M73 Q0 S172
M201 X1000 Y1000 Z1000 E8000 ; sets maximum accelerations, mm/sec^2
M203 X200 Y200 Z12 E120 ; sets maximum feedrates, mm/sec
M204 P1250 R1250 T1250 ; sets acceleration (P, T) and retract acceleration (R), mm/sec^2
M205 X8.00 Y8.00 Z0.40 E1.50 ; sets the jerk limits, mm/sec
M205 S0 T0 ; sets the minimum extruding and travel feed rate, mm/sec
M107
M107
M115 U3.6.0 ; tell printer latest fw version
M83  ; extruder relative mode
M104 S255 ; set extruder temp
M140 S100 ; set bed temp
M190 S100 ; wait for bed temp
M109 S255 ; wait for extruder temp
G28 W ; home all without mesh bed level
G80 ; mesh bed leveling
G21 ; set units to millimeters

; Send the filament type to the MMU2.0 unit.
; E stands for extruder number, F stands for filament type (0: default; 1:flex; 2: PVA)
M403 E0 F0
M403 E1 F0
M403 E2 F1
M403 E3 F0
M403 E4 F0


;go outside print area
G1 Y-3.0 F1000.0
G1 Z0.4 F1000.0
; select extruder
T3
; initial load
G1 X55.0 E29.0 F1073.0
M73 Q0 S172
M73 P0 R167
G1 X5.0 E29.0 F1800.0
G1 X55.0 E8.0 F2000.0
G1 Z0.3 F1000.0
G92 E0.0
G1 X240.0 E25.0  F2200.0
G1 Y-2.0 F1000.0
G1 X55.0 E25 F1400.0
G1 Z0.20 F1000.0
G1 X5.0 E4.0 F1000.0
G92 E0.0


M221 S95
G90 ; use absolute coordinates
M83 ; use relative distances for extrusion
G92 E0.0
M900 K30 ; Filament gcode
G21 ; set units to millimeters
G90 ; use absolute coordinates
M83 ; use relative distances for extrusion
T3
M900 K30 ; Filament gcode
;BEFORE_LAYER_CHANGE
G92 E0.0
;0.2


G1 E-0.80000 F2100.00000
G1 Z0.600 F10800.000
;AFTER_LAYER_CHANGE
;0.2
G1 X43.185 Y13.882
G1 Z0.200
G1 E0.80000 F2100.00000
M204 S1000
G1 F1800
G1 X43.691 Y12.783 E0.03793
G1 X44.379 Y11.677 E0.04086
G1 X45.206 Y10.670 E0.04086
G1 X46.157 Y9.778 E0.04086
G1 X47.223 Y9.014 E0.04111
G1 X48.372 Y8.400 E0.04086
G1 X49.592 Y7.940 E0.04086
G1 X50.861 Y7.643 E0.04086
G1 X52.157 Y7.513 E0.04086
G1 X197.508 Y7.507 E4.55736
G1 X199.271 Y7.666 E0.05551
G1 X200.986 Y8.135 E0.05576
G1 X202.584 Y8.898 E0.05551
G1 X204.029 Y9.935 E0.05576
G1 X205.266 Y11.212 E0.05576
G1 X206.254 Y12.681 E0.05551
G1 X206.967 Y14.302 E0.05551
G1 X207.383 Y16.023 E0.05551
G1 X207.493 Y17.478 E0.04575
G1 X207.490 Y61.711 E1.38690
G1 X207.397 Y62.878 E0.03671
G1 X207.166 Y64.034 E0.03695
G1 X206.803 Y65.147 E0.03671
G1 X206.309 Y66.217 E0.03695
G1 X128.910 Y186.896 E4.49519
G1 X128.176 Y187.897 E0.03891
G1 X127.244 Y188.874 E0.04233
G1 X126.195 Y189.711 E0.04209
G1 X110.058 Y200.804 E0.61400
G1 X109.118 Y201.362 E0.03426
G1 X108.130 Y201.810 E0.03402
G1 X106.674 Y202.253 E0.04770
G1 X105.176 Y202.470 E0.04746
G1 X98.149 Y202.486 E0.22034
G1 X97.014 Y202.381 E0.03573
G1 X95.898 Y202.148 E0.03573
G1 X94.817 Y201.789 E0.03573
G1 X93.783 Y201.309 E0.03573
G1 X92.358 Y200.382 E0.05332
G1 X46.123 Y164.193 E1.84094
G1 X45.013 Y163.118 E0.04843
G1 X44.083 Y161.885 E0.04843
G1 X43.353 Y160.523 E0.04843
G1 X42.842 Y159.065 E0.04843
G1 X42.593 Y157.802 E0.04037
G1 X42.507 Y156.525 E0.04013
G1 X42.508 Y17.438 E4.36099
G1 X42.588 Y16.230 E0.03793
G1 X42.814 Y15.042 E0.03793
G1 X43.167 Y13.939 E0.03629
G1 F8640
G1 X43.691 Y12.783 E-0.29309
G1 X44.379 Y11.677 E-0.30093
G1 X44.836 Y11.121 E-0.16598
G1 E-0.04000 F2100.00000
G1 Z0.800 F10800.000
G1 X139.828 Y71.116
G1 Z0.200
G1 E0.80000 F2100.00000
G1 F1800
G1 X131.116 Y102.798 E1.03026
G1 X131.116 Y112.106 E0.29183
G1 X130.970 Y113.164 E0.03349
G1 X130.108 Y182.133 E2.16266
G1 X129.628 Y184.557 E0.07748
G1 X128.348 Y187.073 E0.08850
G1 X126.465 Y189.069 E0.08603
G1 X108.469 Y201.256 E0.68148
G1 X105.205 Y202.116 E0.10584
G1 X97.654 Y202.116 E0.23674
G1 X94.827 Y201.373 E0.09164
G1 X93.780 Y200.916 E0.03583
G1 X91.051 Y198.612 E0.11198
G1 X89.319 Y195.479 E0.11224
G1 X84.455 Y174.400 E0.67829
G1 X49.288 Y165.608 E1.13658
G1 X46.088 Y163.648 E0.11765
G1 X45.457 Y163.095 E0.02631
G1 X44.038 Y161.108 E0.07656
G1 X43.138 Y158.815 E0.07724
G1 X42.895 Y157.106 E0.05411
G1 X42.884 Y16.555 E4.40688
G1 X44.209 Y12.541 E0.13254
G1 X45.582 Y10.813 E0.06920
G1 X47.553 Y9.207 E0.07972
G1 X49.419 Y8.365 E0.06417
G1 X51.716 Y7.884 E0.07358
G1 X198.210 Y7.888 E4.59322
G1 X200.188 Y8.233 E0.06297
G1 X202.042 Y8.970 E0.06256
G1 X204.425 Y10.804 E0.09428
M73 Q0 S171
G1 X206.256 Y13.447 E0.10081
G1 X207.109 Y16.625 E0.10318
G1 X207.116 Y62.285 E1.43162
M73 P0 R166
G1 X206.635 Y64.583 E0.07362
G1 X205.761 Y66.512 E0.06639
G1 X203.069 Y69.377 E0.12328
G1 X200.777 Y70.574 E0.08108
G1 X198.289 Y71.116 E0.07983
G1 X139.888 Y71.116 E1.83112
G1 X139.541 Y70.738 F10800.000
G1 F1800
G1 X130.738 Y102.747 E1.04087
G1 X130.738 Y112.092 E0.29301
G1 X130.594 Y113.135 E0.03301
G1 X129.732 Y182.112 E2.16287
G1 X129.279 Y184.411 E0.07347
G1 X128.055 Y186.835 E0.08516
G1 X126.236 Y188.768 E0.08322
G1 X108.342 Y200.900 E0.67786
G1 X105.180 Y201.738 E0.10255
G1 X97.679 Y201.738 E0.23520
G1 X94.938 Y201.012 E0.08889
G1 X93.957 Y200.582 E0.03360
G1 X91.321 Y198.347 E0.10835
G1 X89.681 Y195.369 E0.10660
G1 X84.770 Y174.090 E0.68472
G1 X49.407 Y165.250 E1.14291
G1 X46.300 Y163.336 E0.11442
G1 X45.723 Y162.827 E0.02412
G1 X44.358 Y160.908 E0.07382
G1 X43.508 Y158.740 E0.07304
G1 X43.272 Y157.093 E0.05216
G1 X43.262 Y16.585 E4.40552
G1 X44.525 Y12.749 E0.12665
G1 X45.837 Y11.092 E0.06627
G1 X47.732 Y9.540 E0.07679
G1 X49.517 Y8.729 E0.06146
G1 X51.735 Y8.262 E0.07109
G1 X198.194 Y8.265 E4.59209
G1 X200.067 Y8.590 E0.05962
G1 X201.878 Y9.311 E0.06111
G1 X204.171 Y11.084 E0.09088
G1 X205.927 Y13.633 E0.09706
G1 X206.738 Y16.698 E0.09939
G1 X206.738 Y62.265 E1.42873
G1 X206.270 Y64.484 E0.07112
G1 X205.431 Y66.327 E0.06349
G1 X202.866 Y69.058 E0.11748
G1 X200.671 Y70.212 E0.07774
G1 X198.268 Y70.738 E0.07712
G1 X139.601 Y70.738 E1.83948
G1 X139.253 Y70.361 F10800.000
G1 F1800
G1 X130.361 Y102.696 E1.05148
G1 X130.361 Y112.079 E0.29419
G1 X130.217 Y113.106 E0.03253
G1 X129.355 Y182.090 E2.16310
G1 X128.931 Y184.265 E0.06948
G1 X127.761 Y186.597 E0.08181
G1 X126.007 Y188.468 E0.08041
G1 X108.213 Y200.544 E0.67426
G1 X105.155 Y201.361 E0.09925
G1 X97.704 Y201.361 E0.23364
G1 X95.050 Y200.652 E0.08613
G1 X94.134 Y200.248 E0.03140
G1 X91.634 Y198.134 E0.10264
G1 X90.042 Y195.259 E0.10306
G1 X85.086 Y173.781 E0.69113
G1 X49.527 Y164.891 E1.14922
G1 X46.512 Y163.023 E0.11122
G1 X46.017 Y162.589 E0.02064
G1 X44.701 Y160.749 E0.07095
G1 X43.867 Y158.623 E0.07160
G1 X43.649 Y157.080 E0.04886
G1 X43.639 Y16.616 E4.40415
G1 X44.872 Y12.900 E0.12277
G1 X46.092 Y11.370 E0.06133
G1 X47.911 Y9.872 E0.07389
G1 X49.616 Y9.094 E0.05876
G1 X51.755 Y8.639 E0.06858
G1 X198.177 Y8.642 E4.59095
G1 X199.982 Y8.958 E0.05746
G1 X201.713 Y9.651 E0.05844
G1 X203.916 Y11.363 E0.08749
G1 X205.597 Y13.819 E0.09332
G1 X206.361 Y16.722 E0.09411
G1 X206.361 Y62.245 E1.42734
G1 X205.906 Y64.385 E0.06861
G1 X205.101 Y66.142 E0.06059
G1 X202.662 Y68.740 E0.11173
G1 X200.564 Y69.849 E0.07439
G1 X198.248 Y70.361 E0.07439
G1 X139.313 Y70.361 E1.84784
G1 X138.966 Y69.984 F10800.000
G1 F1800
G1 X129.984 Y102.645 E1.06208
G1 X129.984 Y112.065 E0.29536
G1 X129.840 Y113.077 E0.03204
G1 X128.978 Y182.069 E2.16335
G1 X128.581 Y184.120 E0.06552
G1 X127.466 Y186.360 E0.07845
G1 X125.778 Y188.168 E0.07757
G1 X108.085 Y200.188 E0.67066
G1 X105.130 Y200.984 E0.09594
G1 X97.729 Y200.984 E0.23207
G1 X95.163 Y200.292 E0.08334
G1 X94.312 Y199.914 E0.02918
G1 X91.905 Y197.870 E0.09904
G1 X90.404 Y195.148 E0.09743
G1 X85.401 Y173.471 E0.69755
G1 X49.648 Y164.532 E1.15553
G1 X46.725 Y162.712 E0.10796
G1 X46.283 Y162.321 E0.01849
G1 X45.022 Y160.549 E0.06821
G1 X44.237 Y158.548 E0.06740
G1 X44.026 Y157.066 E0.04692
G1 X44.016 Y16.646 E4.40278
M73 Q1 S170
G1 X45.189 Y13.108 E0.11686
G1 X46.348 Y11.648 E0.05846
G1 X48.092 Y10.205 E0.07098
G1 X49.716 Y9.458 E0.05604
G1 X51.775 Y9.016 E0.06605
G1 X198.160 Y9.019 E4.58980
M73 P1 R165
G1 X199.897 Y9.326 E0.05529
G1 X201.547 Y9.991 E0.05577
G1 X203.660 Y11.642 E0.08410
G1 X205.267 Y14.004 E0.08958
G1 X205.984 Y16.746 E0.08885
G1 X205.984 Y62.225 E1.42596
G1 X205.542 Y64.285 E0.06608
G1 X204.771 Y65.956 E0.05769
G1 X202.457 Y68.422 E0.10603
G1 X200.457 Y69.487 E0.07104
G1 X198.227 Y69.984 E0.07164
G1 X139.026 Y69.984 E1.85620
G1 X138.679 Y69.607 F10800.000
G1 F1800
G1 X129.607 Y102.594 E1.07269
G1 X129.607 Y112.052 E0.29653
G1 X129.463 Y113.047 E0.03154
G1 X128.601 Y182.047 E2.16361
G1 X128.232 Y183.977 E0.06159
G1 X127.171 Y186.124 E0.07509
G1 X125.548 Y187.869 E0.07472
G1 X107.955 Y199.833 E0.66708
G1 X105.105 Y200.607 E0.09261
G1 X97.754 Y200.607 E0.23048
G1 X95.276 Y199.932 E0.08052
G1 X94.490 Y199.581 E0.02699
G1 X92.217 Y197.656 E0.09338
G1 X90.765 Y195.038 E0.09389
G1 X85.717 Y173.161 E0.70396
G1 X49.768 Y164.174 E1.16183
G1 X46.939 Y162.401 E0.10468
G1 X46.550 Y162.055 E0.01633
G1 X45.343 Y160.350 E0.06549
G1 X44.597 Y158.432 E0.06454
G1 X44.403 Y157.053 E0.04365
G1 X44.393 Y16.677 E4.40141
G1 X45.535 Y13.260 E0.11296
G1 X46.604 Y11.926 E0.05359
G1 X48.273 Y10.536 E0.06810
G1 X49.816 Y9.822 E0.05333
G1 X51.796 Y9.393 E0.06351
G1 X198.144 Y9.396 E4.58863
G1 X199.811 Y9.694 E0.05311
G1 X201.380 Y10.330 E0.05309
G1 X203.404 Y11.921 E0.08072
G1 X204.911 Y14.132 E0.08390
G1 X205.607 Y16.770 E0.08556
G1 X205.607 Y62.204 E1.42455
G1 X205.178 Y64.185 E0.06353
G1 X204.442 Y65.770 E0.05480
G1 X202.252 Y68.103 E0.10034
G1 X200.302 Y69.142 E0.06926
G1 X198.206 Y69.607 E0.06732
G1 X138.739 Y69.607 E1.86457
G1 X138.391 Y69.230 F10800.000
G1 F1800
G1 X129.230 Y102.544 E1.08329
G1 X129.230 Y112.038 E0.29769
G1 X129.087 Y113.017 E0.03104
G1 X128.224 Y182.026 E2.16390
G1 X127.882 Y183.834 E0.05768
G1 X126.876 Y185.888 E0.07172
G1 X125.318 Y187.569 E0.07186
G1 X107.825 Y199.478 E0.66350
G1 X105.080 Y200.230 E0.08927
G1 X97.780 Y200.230 E0.22888
G1 X95.391 Y199.573 E0.07769
G1 X94.670 Y199.248 E0.02479
G1 X92.488 Y197.392 E0.08982
G1 X91.127 Y194.927 E0.08827
G1 X86.032 Y172.851 E0.71038
G1 X49.889 Y163.815 E1.16812
G1 X47.153 Y162.090 E0.10141
G1 X46.845 Y161.818 E0.01291
G1 X45.685 Y160.191 E0.06264
G1 X44.967 Y158.357 E0.06176
G1 X44.780 Y157.040 E0.04170
G1 X44.770 Y16.707 E4.40004
G1 X45.851 Y13.469 E0.10704
G1 X46.861 Y12.202 E0.05078
G1 X48.455 Y10.867 E0.06520
G1 X49.918 Y10.186 E0.05060
G1 X51.816 Y9.770 E0.06094
G1 X198.127 Y9.774 E4.58746
G1 X199.724 Y10.061 E0.05090
G1 X201.213 Y10.669 E0.05041
G1 X203.147 Y12.198 E0.07732
G1 X204.581 Y14.316 E0.08019
G1 X205.230 Y16.794 E0.08033
G1 X205.230 Y62.184 E1.42315
G1 X204.814 Y64.083 E0.06096
G1 X204.113 Y65.583 E0.05191
G1 X202.047 Y67.786 E0.09470
G1 X200.194 Y68.780 E0.06591
G1 X198.185 Y69.230 E0.06455
G1 X138.451 Y69.230 E1.87292
G1 X138.104 Y68.853 F10800.000
G1 F1800
G1 X128.853 Y102.493 E1.09390
G1 X128.853 Y112.024 E0.29884
G1 X128.710 Y112.987 E0.03053
G1 X127.847 Y182.006 E2.16420
G1 X127.532 Y183.692 E0.05381
G1 X126.580 Y185.653 E0.06834
G1 X125.088 Y187.270 E0.06897
G1 X107.695 Y199.123 E0.65994
G1 X105.054 Y199.853 E0.08591
G1 X97.806 Y199.853 E0.22726
G1 X95.506 Y199.213 E0.07483
G1 X94.849 Y198.916 E0.02262
G1 X92.801 Y197.178 E0.08421
G1 X91.488 Y194.817 E0.08472
G1 X86.348 Y172.541 E0.71678
G1 X50.010 Y163.457 E1.17441
M73 Q2 S169
G1 X47.369 Y161.781 E0.09809
G1 X47.112 Y161.551 E0.01081
G1 X46.027 Y160.031 E0.05855
G1 X45.337 Y158.281 E0.05897
G1 X45.157 Y157.026 E0.03975
G1 X45.147 Y16.738 E4.39864
M73 P2 R164
G1 X46.197 Y13.621 E0.10312
G1 X47.117 Y12.479 E0.04599
G1 X48.638 Y11.198 E0.06234
G1 X50.020 Y10.549 E0.04787
G1 X51.837 Y10.147 E0.05835
G1 X198.110 Y10.151 E4.58628
G1 X199.600 Y10.418 E0.04748
G1 X201.045 Y11.008 E0.04893
G1 X202.890 Y12.475 E0.07391
G1 X204.224 Y14.444 E0.07457
G1 X204.853 Y16.819 E0.07704
G1 X204.853 Y62.163 E1.42173
G1 X204.451 Y63.981 E0.05837
G1 X203.785 Y65.396 E0.04903
G1 X201.840 Y67.469 E0.08912
G1 X200.085 Y68.418 E0.06255
G1 X198.164 Y68.853 E0.06177
G1 X138.164 Y68.853 E1.88126
G1 X137.817 Y68.476 F10800.000
G1 F1800
G1 X128.476 Y102.442 E1.10451
G1 X128.476 Y112.009 E0.29999
G1 X128.333 Y112.956 E0.03002
G1 X127.470 Y181.985 E2.16452
G1 X127.181 Y183.551 E0.04992
G1 X126.253 Y185.463 E0.06666
G1 X124.858 Y186.970 E0.06438
G1 X107.563 Y198.768 E0.65641
G1 X105.028 Y199.476 E0.08254
G1 X97.832 Y199.476 E0.22563
G1 X95.623 Y198.854 E0.07195
G1 X95.030 Y198.584 E0.02044
G1 X93.072 Y196.914 E0.08070
G1 X91.850 Y194.706 E0.07911
G1 X86.663 Y172.231 E0.72320
G1 X50.132 Y163.099 E1.18068
G1 X47.584 Y161.470 E0.09480
G1 X47.406 Y161.314 E0.00744
G1 X46.348 Y159.831 E0.05711
G1 X45.696 Y158.165 E0.05609
G1 X45.534 Y157.013 E0.03646
G1 X45.524 Y16.769 E4.39728
G1 X46.512 Y13.831 E0.09717
G1 X47.375 Y12.755 E0.04326
G1 X48.822 Y11.528 E0.05947
G1 X50.123 Y10.913 E0.04514
G1 X51.858 Y10.524 E0.05574
G1 X198.093 Y10.528 E4.58509
G1 X199.513 Y10.785 E0.04526
G1 X200.877 Y11.346 E0.04622
G1 X202.632 Y12.751 E0.07050
G1 X203.894 Y14.627 E0.07090
G1 X204.476 Y16.843 E0.07183
G1 X204.476 Y62.142 E1.42031
G1 X204.087 Y63.877 E0.05576
G1 X203.457 Y65.207 E0.04615
G1 X201.633 Y67.152 E0.08360
G1 X199.975 Y68.056 E0.05920
G1 X198.143 Y68.476 E0.05895
G1 X137.877 Y68.476 E1.88960
G1 X137.529 Y68.099 F10800.000
G1 F1800
G1 X128.099 Y102.391 E1.11511
G1 X128.099 Y111.995 E0.30113
G1 X127.957 Y112.925 E0.02950
G1 X127.094 Y181.965 E2.16486
G1 X126.830 Y183.411 E0.04608
G1 X125.956 Y185.229 E0.06325
G1 X124.627 Y186.671 E0.06149
G1 X107.431 Y198.413 E0.65288
G1 X105.002 Y199.099 E0.07915
G1 X97.858 Y199.099 E0.22397
G1 X95.741 Y198.496 E0.06903
G1 X95.211 Y198.252 E0.01828
G1 X93.384 Y196.700 E0.07516
G1 X92.211 Y194.595 E0.07556
G1 X86.979 Y171.922 E0.72960
G1 X50.253 Y162.740 E1.18694
G1 X47.801 Y161.162 E0.09143
G1 X47.673 Y161.047 E0.00539
G1 X46.690 Y159.671 E0.05304
G1 X46.066 Y158.089 E0.05330
G1 X45.911 Y157.000 E0.03451
G1 X45.901 Y16.799 E4.39590
G1 X46.828 Y14.040 E0.09125
G1 X47.634 Y13.029 E0.04055
G1 X49.007 Y11.857 E0.05659
G1 X50.228 Y11.275 E0.04240
G1 X51.879 Y10.901 E0.05310
G1 X198.075 Y10.905 E4.58388
G1 X199.425 Y11.152 E0.04302
G1 X200.707 Y11.684 E0.04350
G1 X202.372 Y13.026 E0.06707
G1 X203.562 Y14.810 E0.06724
G1 X204.099 Y16.867 E0.06666
G1 X204.099 Y62.121 E1.41890
G1 X203.724 Y63.773 E0.05312
G1 X203.129 Y65.018 E0.04328
G1 X201.425 Y66.837 E0.07813
G1 X199.864 Y67.695 E0.05584
G1 X198.121 Y68.099 E0.05612
G1 X137.589 Y68.099 E1.89793
G1 X137.242 Y67.722 F10800.000
G1 F1800
G1 X127.722 Y102.340 E1.12572
G1 X127.722 Y111.980 E0.30226
G1 X127.580 Y112.893 E0.02897
G1 X126.717 Y181.945 E2.16523
M73 Q2 S168
G1 X126.479 Y183.272 E0.04228
G1 X125.659 Y184.995 E0.05983
G1 X124.396 Y186.372 E0.05857
G1 X107.298 Y198.059 E0.64937
G1 X104.975 Y198.722 E0.07574
G1 X97.885 Y198.722 E0.22230
G1 X95.860 Y198.138 E0.06609
G1 X95.394 Y197.921 E0.01611
G1 X93.655 Y196.436 E0.07170
G1 X92.573 Y194.485 E0.06996
G1 X87.294 Y171.612 E0.73602
G1 X50.375 Y162.382 E1.19319
M73 P2 R163
G1 X48.021 Y160.855 E0.08798
G1 X47.944 Y160.784 E0.00329
G1 X47.011 Y159.471 E0.05051
G1 X46.436 Y158.014 E0.04911
G1 X46.289 Y156.986 E0.03255
G1 X46.278 Y16.830 E4.39449
G1 X47.174 Y14.194 E0.08730
G1 X47.893 Y13.304 E0.03587
G1 X49.193 Y12.186 E0.05377
G1 X50.333 Y11.638 E0.03966
G1 X51.901 Y11.278 E0.05044
G1 X198.058 Y11.282 E4.58265
G1 X199.336 Y11.519 E0.04076
G1 X200.536 Y12.021 E0.04078
G1 X202.112 Y13.301 E0.06367
G1 X203.206 Y14.937 E0.06170
G1 X203.722 Y16.892 E0.06339
G1 X203.722 Y62.099 E1.41745
G1 X203.362 Y63.667 E0.05045
G1 X202.802 Y64.829 E0.04042
G1 X201.216 Y66.521 E0.07273
G1 X199.752 Y67.334 E0.05249
G1 X198.099 Y67.722 E0.05325
G1 X137.302 Y67.722 E1.90625
G1 X136.954 Y67.345 F10800.000
G1 F1800
G1 X127.345 Y102.289 E1.13633
G1 X127.345 Y111.965 E0.30339
G1 X127.203 Y112.861 E0.02844
G1 X126.340 Y181.925 E2.16562
G1 X126.127 Y183.135 E0.03851
G1 X125.361 Y184.762 E0.05641
G1 X124.165 Y186.073 E0.05563
G1 X107.165 Y197.706 E0.64587
G1 X104.948 Y198.345 E0.07232
G1 X97.912 Y198.345 E0.22061
G1 X95.980 Y197.780 E0.06311
