; generated by Slic3r Prusa Edition 1.42.0-beta2+win64 on 2019-04-17 at 10:17:17

; 

; external perimeters extrusion width = 0.45mm
; perimeters extrusion width = 0.45mm
; infill extrusion width = 0.45mm
; solid infill extrusion width = 0.45mm
; top infill extrusion width = 0.40mm
; first layer extrusion width = 0.42mm

M73 P0 R69
M73 Q0 S70
M201 X1000 Y1000 Z1000 E8000 ; sets maximum accelerations, mm/sec^2
M203 X200 Y200 Z12 E120 ; sets maximum feedrates, mm/sec
M204 P1250 R1250 T1250 ; sets acceleration (P, T) and retract acceleration (R), mm/sec^2
M205 X8.00 Y8.00 Z0.40 E1.50 ; sets the jerk limits, mm/sec
M205 S0 T0 ; sets the minimum extruding and travel feed rate, mm/sec
M107
M107
M115 U3.6.0 ; tell printer latest fw version
M83  ; extruder relative mode
M104 S220 ; set extruder temp
M140 S55 ; set bed temp
M190 S55 ; wait for bed temp
M109 S220 ; wait for extruder temp
G28 W ; home all without mesh bed level
G80 ; mesh bed leveling
G21 ; set units to millimeters

; Send the filament type to the MMU2.0 unit.
; E stands for extruder number, F stands for filament type (0: default; 1:flex; 2: PVA)
M403 E0 F0
M403 E1 F0
M403 E2 F1
M403 E3 F0
M403 E4 F0


;go outside print area
G1 Y-3.0 F1000.0
G1 Z0.4 F1000.0
; select extruder
T2
; initial load
G1 X55.0 E29.0 F1073.0
M73 Q0 S70
M73 P0 R69
G1 X5.0 E29.0 F1800.0
G1 X55.0 E8.0 F2000.0
G1 Z0.3 F1000.0
G92 E0.0
G1 X240.0 E25.0  F2200.0
G1 Y-2.0 F1000.0
G1 X55.0 E25 F1400.0
G1 Z0.20 F1000.0
G1 X5.0 E4.0 F1000.0
G92 E0.0


M221 S95
G90 ; use absolute coordinates
M83 ; use relative distances for extrusion
G92 E0.0
M900 K30 ; Filament gcode
G21 ; set units to millimeters
G90 ; use absolute coordinates
M83 ; use relative distances for extrusion
T2
M900 K30 ; Filament gcode
;BEFORE_LAYER_CHANGE
G92 E0.0
;0.2


G1 E-0.80000 F2100.00000
G1 Z0.600 F10800.000
;AFTER_LAYER_CHANGE
;0.2
G1 X89.131 Y72.473
G1 Z0.200
G1 E0.80000 F2100.00000
M204 S1000
G1 F1800
G1 X89.980 Y72.293 E0.02721
G1 X160.004 Y72.293 E2.19556
G1 X160.817 Y72.451 E0.02597
G1 X161.513 Y72.900 E0.02597
G1 X161.992 Y73.575 E0.02597
G1 X162.186 Y74.380 E0.02597
G1 X162.173 Y118.744 E1.39098
G1 X161.918 Y119.536 E0.02608
G1 X152.458 Y136.587 E0.61139
G1 X152.129 Y137.032 E0.01737
G1 X151.410 Y137.531 E0.02743
G1 X150.553 Y137.707 E0.02743
G1 X99.439 Y137.700 E1.60266
G1 X98.637 Y137.537 E0.02563
G1 X97.952 Y137.092 E0.02563
G1 X97.557 Y136.583 E0.02021
G1 X88.085 Y119.541 E0.61131
G1 X87.835 Y118.804 E0.02439
G1 X87.812 Y74.452 E1.39064
G1 X87.974 Y73.654 E0.02552
G1 X88.418 Y72.968 E0.02563
G1 X89.081 Y72.507 E0.02533
G1 F8640
G1 X89.980 Y72.293 E-0.21319
G1 X92.348 Y72.293 E-0.54681
G1 E-0.04000 F2100.00000
G1 Z0.800 F10800.000
G1 X118.863 Y77.894
G1 Z0.200
G1 E0.80000 F2100.00000
G1 F900
G1 X129.720 Y77.894 E0.34043
G1 X129.987 Y78.811 E0.02995
G1 X129.453 Y79.150 E0.01981
G1 X127.152 Y81.600 E0.10538
G1 X124.847 Y85.793 E0.15004
G1 X123.750 Y83.022 E0.09347
G1 X121.774 Y80.303 E0.10538
G1 X118.909 Y77.932 E0.11659
G1 F8640
G1 X122.200 Y77.921 E-0.76000
G1 E-0.04000 F2100.00000
G1 Z0.800 F10800.000
G1 X119.910 Y78.271
G1 Z0.200
G1 E0.80000 F2100.00000
G1 F900
G1 X129.437 Y78.271 E0.29871
G1 X129.546 Y78.645 E0.01219
G1 X129.211 Y78.857 E0.01243
G1 X126.845 Y81.377 E0.10837
G1 X124.903 Y84.910 E0.12641
G1 X124.083 Y82.839 E0.06984
G1 X122.051 Y80.042 E0.10837
G1 X119.956 Y78.309 E0.08524
G1 X119.813 Y77.883 F10800.000
G1 F8640
G1 X123.248 Y78.296 E-0.76000
G1 E-0.04000 F2100.00000
G1 Z0.800 F10800.000
G1 X144.863 Y77.894
G1 Z0.200
G1 E0.80000 F2100.00000
G1 F2160
G1 X147.774 Y80.303 E0.11847
G1 X149.750 Y83.022 E0.10538
G1 X150.987 Y86.147 E0.10538
G1 X151.408 Y89.481 E0.10538
G1 X150.987 Y92.816 E0.10538
G1 X149.750 Y95.941 E0.10538
G1 X147.774 Y98.660 E0.10538
G1 X145.185 Y100.802 E0.10538
G1 X142.143 Y102.233 E0.10538
G1 X138.842 Y102.863 E0.10538
G1 X135.488 Y102.652 E0.10538
G1 X132.291 Y101.613 E0.10538
G1 X129.453 Y99.813 E0.10538
G1 X127.152 Y97.362 E0.10538
G1 X124.847 Y93.169 E0.15004
G1 X123.750 Y95.941 E0.09347
G1 X121.774 Y98.660 E0.10538
G1 X119.184 Y100.802 E0.10538
G1 X116.143 Y102.233 E0.10538
G1 X112.842 Y102.863 E0.10538
G1 X109.488 Y102.652 E0.10538
G1 X106.291 Y101.613 E0.10538
G1 X103.453 Y99.813 E0.10538
G1 X101.153 Y97.362 E0.10538
G1 X99.533 Y94.417 E0.10538
G1 X98.697 Y91.162 E0.10538
G1 X98.697 Y87.801 E0.10538
G1 X99.533 Y84.545 E0.10538
G1 X101.153 Y81.600 E0.10538
G1 X103.453 Y79.150 E0.10538
G1 X103.987 Y78.811 E0.01981
G1 X103.720 Y77.894 E0.02995
G1 X90.587 Y77.894 E0.41178
G1 X90.587 Y75.068 E0.08860
G1 X159.413 Y75.068 E2.15799
G1 X159.413 Y77.894 E0.08860
G1 X144.923 Y77.894 E0.45433
G1 F8640
G1 X147.437 Y80.018 E-0.76000
G1 E-0.04000 F2100.00000
G1 Z0.800 F10800.000
G1 X145.910 Y78.271
G1 Z0.200
G1 E0.80000 F2100.00000
G1 F1260
G1 X148.051 Y80.042 E0.08713
G1 X150.083 Y82.839 E0.10837
G1 X151.355 Y86.052 E0.10837
G1 X151.788 Y89.481 E0.10837
G1 X151.355 Y92.910 E0.10837
G1 X150.083 Y96.124 E0.10837
G1 X148.051 Y98.920 E0.10837
G1 X145.388 Y101.123 E0.10837
G1 X142.261 Y102.595 E0.10837
G1 X138.866 Y103.242 E0.10837
G1 X135.416 Y103.025 E0.10837
G1 X132.129 Y101.957 E0.10837
G1 X129.211 Y100.105 E0.10837
G1 X126.845 Y97.586 E0.10837
G1 X124.903 Y94.053 E0.12641
G1 X124.083 Y96.124 E0.06984
G1 X122.051 Y98.920 E0.10837
G1 X119.388 Y101.123 E0.10837
G1 X116.261 Y102.595 E0.10837
G1 X112.866 Y103.242 E0.10837
G1 X109.416 Y103.025 E0.10837
G1 X106.129 Y101.957 E0.10837
G1 X103.211 Y100.105 E0.10837
G1 X100.845 Y97.586 E0.10837
G1 X99.180 Y94.557 E0.10837
G1 X98.320 Y91.209 E0.10837
G1 X98.320 Y87.753 E0.10837
G1 X99.180 Y84.405 E0.10837
G1 X100.845 Y81.377 E0.10837
G1 X103.211 Y78.857 E0.10837
G1 X103.546 Y78.645 E0.01243
G1 X103.437 Y78.271 E0.01219
G1 X90.210 Y78.271 E0.41473
G1 X90.210 Y74.691 E0.11225
G1 X159.790 Y74.691 E2.18163
G1 X159.790 Y78.271 E0.11225
G1 X145.970 Y78.271 E0.43331
G1 X145.597 Y78.520 F10800.000
G1 F8640
G1 X148.051 Y80.042 E-0.63101
G1 X148.380 Y80.494 E-0.12899
G1 E-0.04000 F2100.00000
G1 Z0.800 F10800.000
G1 X149.207 Y82.466
G1 Z0.200
G1 E0.80000 F2100.00000
G1 F7200
G1 X142.091 Y75.351 E0.31705
G1 X142.627 Y75.351 E0.01688
G1 X144.887 Y77.611 E0.10071
G1 X145.423 Y77.611 E0.01688
G1 X143.163 Y75.351 E0.10071
G1 X143.699 Y75.351 E0.01688
G1 X145.959 Y77.611 E0.10071
G1 X146.495 Y77.611 E0.01688
G1 X144.235 Y75.351 E0.10071
G1 X144.771 Y75.351 E0.01688
G1 X147.031 Y77.611 E0.10071
G1 X147.567 Y77.611 E0.01688
G1 X145.306 Y75.351 E0.10071
G1 X145.842 Y75.351 E0.01688
G1 X148.103 Y77.611 E0.10071
G1 X148.638 Y77.611 E0.01688
G1 X146.378 Y75.351 E0.10071
G1 X146.914 Y75.351 E0.01688
G1 X149.174 Y77.611 E0.10071
G1 X149.710 Y77.611 E0.01688
G1 X147.450 Y75.351 E0.10071
G1 X147.986 Y75.351 E0.01688
G1 X150.246 Y77.611 E0.10071
G1 X150.782 Y77.611 E0.01688
G1 X148.522 Y75.351 E0.10071
G1 X149.058 Y75.351 E0.01688
G1 X151.318 Y77.611 E0.10071
G1 X151.854 Y77.611 E0.01688
G1 X149.593 Y75.351 E0.10071
G1 X150.129 Y75.351 E0.01688
G1 X152.390 Y77.611 E0.10071
G1 X152.925 Y77.611 E0.01688
G1 X150.665 Y75.351 E0.10071
G1 X151.201 Y75.351 E0.01688
G1 X153.461 Y77.611 E0.10071
G1 X153.997 Y77.611 E0.01688
G1 X151.737 Y75.351 E0.10071
G1 X152.273 Y75.351 E0.01688
G1 X154.533 Y77.611 E0.10071
G1 X155.069 Y77.611 E0.01688
G1 X152.809 Y75.351 E0.10071
G1 X153.345 Y75.351 E0.01688
G1 X155.605 Y77.611 E0.10071
G1 X156.141 Y77.611 E0.01688
G1 X153.880 Y75.351 E0.10071
G1 X154.416 Y75.351 E0.01688
G1 X156.677 Y77.611 E0.10071
G1 X157.212 Y77.611 E0.01688
G1 X154.952 Y75.351 E0.10071
G1 X155.488 Y75.351 E0.01688
G1 X157.748 Y77.611 E0.10071
G1 X158.284 Y77.611 E0.01688
G1 X156.024 Y75.351 E0.10071
G1 X156.560 Y75.351 E0.01688
G1 X158.820 Y77.611 E0.10071
G1 X159.130 Y77.611 E0.00977
G1 X159.130 Y77.386 E0.00712
G1 X157.096 Y75.351 E0.09065
G1 X157.632 Y75.351 E0.01688
G1 X159.130 Y76.850 E0.06677
G1 X159.130 Y76.314 E0.01688
G1 X158.167 Y75.351 E0.04290
G1 X158.703 Y75.351 E0.01688
G1 X159.300 Y75.948 E0.02658
G1 F8640
G1 X158.703 Y75.351 E-0.19478
G1 X158.167 Y75.351 E-0.12374
G1 X159.130 Y76.314 E-0.31436
G1 X159.130 Y76.850 E-0.12374
G1 X159.120 Y76.839 E-0.00339
G1 E-0.04000 F2100.00000
G1 Z0.800 F10800.000
G1 X149.892 Y83.688
G1 Z0.200
G1 E0.80000 F2100.00000
G1 F7200
G1 X141.555 Y75.351 E0.37146
G1 X141.019 Y75.351 E0.01688
G1 X149.941 Y84.273 E0.39752
G1 X150.292 Y85.160 E0.03006
G1 X140.484 Y75.351 E0.43705
G1 X139.948 Y75.351 E0.01688
G1 X150.643 Y86.047 E0.47658
G1 X150.711 Y86.218 E0.00579
G1 X150.774 Y86.713 E0.01573
G1 X139.412 Y75.351 E0.50626
G1 X138.876 Y75.351 E0.01688
G1 X150.851 Y87.326 E0.53359
G1 X150.928 Y87.940 E0.01948
G1 X138.340 Y75.351 E0.56092
G1 X137.804 Y75.351 E0.01688
G1 X151.006 Y88.553 E0.58825
G1 X151.083 Y89.166 E0.01948
G1 X137.268 Y75.351 E0.61558
G1 X136.732 Y75.351 E0.01688
G1 X151.094 Y89.713 E0.63993
G1 X151.034 Y90.188 E0.01511
G1 X136.197 Y75.351 E0.66113
G1 X135.661 Y75.351 E0.01688
G1 X150.974 Y90.664 E0.68233
G1 X150.914 Y91.140 E0.01511
G1 X135.125 Y75.351 E0.70353
G1 X134.589 Y75.351 E0.01688
G1 X150.854 Y91.616 E0.72473
G1 X150.793 Y92.092 E0.01511
G1 X134.053 Y75.351 E0.74593
M73 Q2 S69
G1 X133.517 Y75.351 E0.01688
G1 X150.733 Y92.567 E0.76713
M73 P2 R68
G1 X150.711 Y92.745 E0.00564
G1 X150.616 Y92.986 E0.00816
G1 X132.981 Y75.351 E0.78576
G1 X132.445 Y75.351 E0.01688
G1 X150.464 Y93.369 E0.80287
G1 X150.312 Y93.753 E0.01301
G1 X131.909 Y75.351 E0.81997
G1 X131.374 Y75.351 E0.01688
G1 X150.160 Y94.137 E0.83708
G1 X150.008 Y94.521 E0.01301
G1 X130.838 Y75.351 E0.85418
G1 X130.302 Y75.351 E0.01688
G1 X149.856 Y94.905 E0.87129
G1 X149.704 Y95.289 E0.01301
G1 X129.766 Y75.351 E0.88839
G1 X129.230 Y75.351 E0.01688
G1 X149.552 Y95.673 E0.90550
G1 X149.500 Y95.803 E0.00443
G1 X149.351 Y96.008 E0.00797
G1 X128.694 Y75.351 E0.92044
G1 X128.158 Y75.351 E0.01688
G1 X149.126 Y96.319 E0.93427
G1 X148.900 Y96.629 E0.01209
G1 X127.622 Y75.351 E0.94810
G1 X127.087 Y75.351 E0.01688
G1 X129.347 Y77.611 E0.10071
G1 X128.811 Y77.611 E0.01688
G1 X126.551 Y75.351 E0.10071
G1 X126.015 Y75.351 E0.01688
G1 X128.275 Y77.611 E0.10071
G1 X127.739 Y77.611 E0.01688
G1 X125.479 Y75.351 E0.10071
G1 X124.943 Y75.351 E0.01688
G1 X127.203 Y77.611 E0.10071
G1 X126.667 Y77.611 E0.01688
G1 X124.407 Y75.351 E0.10071
G1 X123.871 Y75.351 E0.01688
G1 X126.132 Y77.611 E0.10071
G1 X125.596 Y77.611 E0.01688
G1 X123.335 Y75.351 E0.10071
G1 X122.800 Y75.351 E0.01688
G1 X125.060 Y77.611 E0.10071
G1 X124.524 Y77.611 E0.01688
G1 X122.264 Y75.351 E0.10071
G1 X121.728 Y75.351 E0.01688
G1 X123.988 Y77.611 E0.10071
G1 X123.452 Y77.611 E0.01688
G1 X121.192 Y75.351 E0.10071
G1 X120.656 Y75.351 E0.01688
G1 X122.916 Y77.611 E0.10071
G1 X122.380 Y77.611 E0.01688
G1 X120.120 Y75.351 E0.10071
G1 X119.584 Y75.351 E0.01688
G1 X121.845 Y77.611 E0.10071
G1 X121.309 Y77.611 E0.01688
G1 X119.048 Y75.351 E0.10071
G1 X118.513 Y75.351 E0.01688
G1 X120.773 Y77.611 E0.10071
G1 X120.237 Y77.611 E0.01688
G1 X117.977 Y75.351 E0.10071
G1 X117.441 Y75.351 E0.01688
G1 X119.701 Y77.611 E0.10071
G1 X119.165 Y77.611 E0.01688
G1 X116.905 Y75.351 E0.10071
G1 X116.369 Y75.351 E0.01688
G1 X118.799 Y77.781 E0.10827
G1 F8640
G1 X116.472 Y75.454 E-0.76000
G1 E-0.04000 F2100.00000
G1 Z0.800 F10800.000
G1 X119.998 Y78.980
G1 Z0.200
G1 E0.80000 F2100.00000
G1 F7200
G1 X122.468 Y81.450 E0.11006
G1 F8640
G1 X120.141 Y79.123 E-0.76000
G1 E-0.04000 F2100.00000
G1 Z0.800 F10800.000
G1 X123.710 Y83.227
G1 Z0.200
G1 E0.80000 F2100.00000
G1 F7200
G1 X115.833 Y75.351 E0.35096
G1 X115.297 Y75.351 E0.01688
G1 X123.759 Y83.812 E0.37702
G1 X124.110 Y84.700 E0.03006
G1 X114.761 Y75.351 E0.41655
G1 X114.226 Y75.351 E0.01688
G1 X124.461 Y85.587 E0.45608
G1 X124.992 Y86.117 F10800.000
G1 F7200
G1 X141.032 Y102.157 E0.71472
G1 X141.482 Y102.072 E0.01443
G1 X125.182 Y85.772 E0.72630
G1 X125.372 Y85.426 E0.01243
G1 X141.932 Y101.986 E0.73788
G1 X142.055 Y101.962 E0.00396
G1 X142.320 Y101.838 E0.00921
G1 X125.562 Y85.080 E0.74670
G1 X125.752 Y84.734 E0.01243
G1 X142.684 Y101.666 E0.75446
G1 X143.049 Y101.495 E0.01269
G1 X125.942 Y84.388 E0.76223
G1 X126.132 Y84.043 E0.01243
G1 X143.413 Y101.323 E0.77000
G1 X143.777 Y101.152 E0.01269
G1 X126.322 Y83.697 E0.77776
G1 X126.513 Y83.351 E0.01243
G1 X144.142 Y100.980 E0.78553
G1 X144.506 Y100.809 E0.01269
G1 X126.703 Y83.005 E0.79330
G1 X126.893 Y82.660 E0.01243
G1 X144.871 Y100.637 E0.80106
G1 X145.032 Y100.562 E0.00561
G1 X145.195 Y100.426 E0.00669
G1 X127.083 Y82.314 E0.80706
G1 X127.273 Y81.968 E0.01243
G1 X145.489 Y100.184 E0.81166
G1 X145.782 Y99.941 E0.01199
G1 X127.492 Y81.651 E0.81496
G1 X127.752 Y81.375 E0.01194
G1 X146.075 Y99.698 E0.81646
G1 X146.368 Y99.456 E0.01199
G1 X128.011 Y81.099 E0.81796
G1 X128.271 Y80.822 E0.01194
G1 X146.662 Y99.213 E0.81947
G1 X146.955 Y98.971 E0.01199
G1 X128.530 Y80.546 E0.82097
G1 X128.790 Y80.270 E0.01194
G1 X147.248 Y98.728 E0.82248
G1 X147.541 Y98.485 E0.01199
G1 X129.049 Y79.993 E0.82398
G1 X129.309 Y79.717 E0.01194
G1 X147.773 Y98.181 E0.82272
G1 X147.998 Y97.870 E0.01209
G1 X129.568 Y79.441 E0.82120
G1 X129.635 Y79.370 E0.00306
G1 X129.879 Y79.215 E0.00910
G1 X148.224 Y97.560 E0.81743
G1 X148.449 Y97.250 E0.01209
G1 X130.207 Y79.007 E0.81286
G1 X130.318 Y78.936 E0.00414
G1 X130.173 Y78.437 E0.01639
G1 X148.796 Y97.061 E0.82984
G1 F8640
G1 X146.469 Y94.733 E-0.76000
G1 E-0.04000 F2100.00000
G1 Z0.800 F10800.000
G1 X140.727 Y102.388
G1 Z0.200
G1 E0.80000 F2100.00000
G1 F7200
G1 X113.690 Y75.351 E1.20473
G1 X113.154 Y75.351 E0.01688
G1 X140.132 Y102.329 E1.20209
G1 X139.682 Y102.415 E0.01443
G1 X112.618 Y75.351 E1.20592
G1 X112.082 Y75.351 E0.01688
G1 X139.232 Y102.501 E1.20975
G1 X138.770 Y102.575 E0.01473
G1 X111.546 Y75.351 E1.21306
G1 X111.010 Y75.351 E0.01688
G1 X138.198 Y102.539 E1.21146
G1 X137.627 Y102.503 E0.01805
G1 X110.474 Y75.351 E1.20985
G1 X109.939 Y75.351 E0.01688
G1 X137.055 Y102.467 E1.20825
G1 X136.483 Y102.431 E0.01805
G1 X109.403 Y75.351 E1.20665
G1 X108.867 Y75.351 E0.01688
G1 X135.911 Y102.395 E1.20504
G1 X135.541 Y102.372 E0.01168
G1 X135.261 Y102.281 E0.00928
G1 X108.331 Y75.351 E1.19995
G1 X107.795 Y75.351 E0.01688
G1 X134.467 Y102.023 E1.18846
G1 X133.673 Y101.765 E0.02630
G1 X124.853 Y92.945 E0.39301
G1 X124.825 Y92.917 F10800.000
G1 F7200
G1 X107.259 Y75.351 E0.78271
G1 X106.723 Y75.351 E0.01688
G1 X124.542 Y93.170 E0.79399
G1 X124.390 Y93.554 E0.01301
G1 X106.187 Y75.351 E0.81110
G1 X105.652 Y75.351 E0.01688
G1 X124.239 Y93.938 E0.82820
G1 X124.087 Y94.322 E0.01301
G1 X105.116 Y75.351 E0.84531
G1 X104.580 Y75.351 E0.01688
G1 X123.935 Y94.706 E0.86241
G1 X123.783 Y95.090 E0.01301
G1 X104.044 Y75.351 E0.87952
G1 X103.508 Y75.351 E0.01688
G1 X123.631 Y95.474 E0.89663
G1 X123.468 Y95.847 E0.01283
G1 X102.972 Y75.351 E0.91327
G1 X102.436 Y75.351 E0.01688
G1 X123.243 Y96.158 E0.92710
G1 X123.017 Y96.468 E0.01209
G1 X101.900 Y75.351 E0.94093
G1 X101.365 Y75.351 E0.01688
G1 X103.625 Y77.611 E0.10071
G1 X103.089 Y77.611 E0.01688
G1 X100.829 Y75.351 E0.10071
G1 X100.293 Y75.351 E0.01688
G1 X102.553 Y77.611 E0.10071
G1 X102.017 Y77.611 E0.01688
G1 X99.757 Y75.351 E0.10071
G1 X99.221 Y75.351 E0.01688
G1 X101.481 Y77.611 E0.10071
G1 X100.945 Y77.611 E0.01688
G1 X98.685 Y75.351 E0.10071
G1 X98.149 Y75.351 E0.01688
G1 X100.410 Y77.611 E0.10071
G1 X99.874 Y77.611 E0.01688
G1 X97.613 Y75.351 E0.10071
G1 X97.078 Y75.351 E0.01688
G1 X99.338 Y77.611 E0.10071
G1 X98.802 Y77.611 E0.01688
G1 X96.542 Y75.351 E0.10071
G1 X96.006 Y75.351 E0.01688
G1 X98.266 Y77.611 E0.10071
G1 X97.730 Y77.611 E0.01688
G1 X95.470 Y75.351 E0.10071
G1 X94.934 Y75.351 E0.01688
G1 X97.194 Y77.611 E0.10071
G1 X96.658 Y77.611 E0.01688
G1 X94.398 Y75.351 E0.10071
G1 X93.862 Y75.351 E0.01688
G1 X96.123 Y77.611 E0.10071
G1 X95.587 Y77.611 E0.01688
G1 X93.326 Y75.351 E0.10071
G1 X92.791 Y75.351 E0.01688
G1 X95.051 Y77.611 E0.10071
G1 X94.515 Y77.611 E0.01688
G1 X92.255 Y75.351 E0.10071
G1 X91.719 Y75.351 E0.01688
G1 X93.979 Y77.611 E0.10071
G1 X93.443 Y77.611 E0.01688
G1 X91.183 Y75.351 E0.10071
G1 X90.870 Y75.351 E0.00986
G1 X90.870 Y75.574 E0.00702
G1 X92.907 Y77.611 E0.09078
G1 X92.371 Y77.611 E0.01688
G1 X90.870 Y76.110 E0.06691
