; generated by Slic3r Prusa Edition 1.42.0-beta2+win64 on 2019-04-16 at 17:00:07

; 

; external perimeters extrusion width = 0.45mm
; perimeters extrusion width = 0.45mm
; infill extrusion width = 0.45mm
; solid infill extrusion width = 0.45mm
; top infill extrusion width = 0.40mm
; first layer extrusion width = 0.42mm

M73 P0 R56
M73 Q0 S56
M201 X1000 Y1000 Z1000 E8000 ; sets maximum accelerations, mm/sec^2
M203 X200 Y200 Z12 E120 ; sets maximum feedrates, mm/sec
M204 P1250 R1250 T1250 ; sets acceleration (P, T) and retract acceleration (R), mm/sec^2
M205 X8.00 Y8.00 Z0.40 E1.50 ; sets the jerk limits, mm/sec
M205 S0 T0 ; sets the minimum extruding and travel feed rate, mm/sec
M107
M107
M115 U3.6.0 ; tell printer latest fw version
M83  ; extruder relative mode
M104 S220 ; set extruder temp
M140 S55 ; set bed temp
M190 S55 ; wait for bed temp
M109 S220 ; wait for extruder temp
G28 W ; home all without mesh bed level
G80 ; mesh bed leveling
G21 ; set units to millimeters

; Send the filament type to the MMU2.0 unit.
; E stands for extruder number, F stands for filament type (0: default; 1:flex; 2: PVA)
M403 E0 F0
M403 E1 F0
M403 E2 F1
M403 E3 F0
M403 E4 F0


;go outside print area
G1 Y-3.0 F1000.0
G1 Z0.4 F1000.0
; select extruder
T2
; initial load
G1 X55.0 E29.0 F1073.0
M73 Q0 S56
M73 P0 R55
G1 X5.0 E29.0 F1800.0
G1 X55.0 E8.0 F2000.0
G1 Z0.3 F1000.0
G92 E0.0
G1 X240.0 E25.0  F2200.0
G1 Y-2.0 F1000.0
G1 X55.0 E25 F1400.0
G1 Z0.20 F1000.0
G1 X5.0 E4.0 F1000.0
G92 E0.0


M221 S95
G90 ; use absolute coordinates
M83 ; use relative distances for extrusion
G92 E0.0
M900 K30 ; Filament gcode
G21 ; set units to millimeters
G90 ; use absolute coordinates
M83 ; use relative distances for extrusion
T2
M900 K30 ; Filament gcode
;BEFORE_LAYER_CHANGE
G92 E0.0
;0.2


G1 E-0.80000 F2100.00000
G1 Z0.600 F10800.000
;AFTER_LAYER_CHANGE
;0.2
G1 X88.628 Y92.776
G1 Z0.200
G1 E0.80000 F2100.00000
M204 S1000
G1 F1800
G1 X89.185 Y92.450 E0.02021
G1 X89.808 Y92.301 E0.02010
G1 X160.004 Y92.293 E2.20094
G1 X160.693 Y92.405 E0.02191
G1 X161.312 Y92.730 E0.02191
G1 X161.795 Y93.230 E0.02179
G1 X162.098 Y93.859 E0.02191
G1 X162.188 Y94.439 E0.01839
G1 X162.188 Y98.500 E0.12732
G1 X162.057 Y99.230 E0.02326
G1 X152.414 Y116.663 E0.62464
G1 X152.101 Y117.061 E0.01589
G1 X151.701 Y117.379 E0.01601
G1 X151.239 Y117.595 E0.01601
G1 X150.739 Y117.699 E0.01601
G1 X99.460 Y117.700 E1.60781
G1 X98.830 Y117.606 E0.01998
G1 X98.106 Y117.227 E0.02563
G1 X97.573 Y116.611 E0.02552
G1 X88.076 Y99.525 E0.61291
G1 X87.820 Y98.674 E0.02788
G1 X87.812 Y94.441 E0.13272
G1 X87.911 Y93.830 E0.01942
G1 X88.191 Y93.249 E0.02021
G1 X88.588 Y92.820 E0.01833
G1 F8640
G1 X89.185 Y92.450 E-0.16213
G1 X89.808 Y92.301 E-0.14799
G1 X91.756 Y92.301 E-0.44987
G1 E-0.04000 F2100.00000
G1 Z0.800 F10800.000
G1 X118.863 Y97.894
G1 Z0.200
G1 E0.80000 F2100.00000
G1 F900
G1 X129.720 Y97.894 E0.34043
G1 X129.987 Y98.811 E0.02995
G1 X129.453 Y99.150 E0.01981
G1 X127.153 Y101.600 E0.10538
G1 X124.847 Y105.794 E0.15004
G1 X123.750 Y103.022 E0.09347
G1 X121.774 Y100.303 E0.10538
G1 X118.909 Y97.932 E0.11659
G1 F8640
G1 X122.201 Y97.921 E-0.76000
G1 E-0.04000 F2100.00000
G1 Z0.800 F10800.000
G1 X119.910 Y98.271
G1 Z0.200
G1 E0.80000 F2100.00000
G1 F900
G1 X129.437 Y98.271 E0.29871
G1 X129.546 Y98.645 E0.01219
G1 X129.211 Y98.857 E0.01243
G1 X126.845 Y101.377 E0.10837
G1 X124.903 Y104.910 E0.12641
G1 X124.083 Y102.839 E0.06984
G1 X122.051 Y100.043 E0.10837
G1 X119.956 Y98.309 E0.08524
G1 X119.813 Y97.883 F10800.000
G1 F8640
G1 X123.248 Y98.296 E-0.76000
G1 E-0.04000 F2100.00000
G1 Z0.800 F10800.000
G1 X144.863 Y97.894
G1 Z0.200
G1 E0.80000 F2100.00000
G1 F2160
G1 X147.774 Y100.303 E0.11847
G1 X149.750 Y103.022 E0.10538
G1 X150.987 Y106.147 E0.10538
G1 X151.408 Y109.481 E0.10538
G1 X150.987 Y112.816 E0.10538
G1 X150.253 Y114.670 E0.06254
G1 X148.675 Y113.759 E0.05712
G1 X149.228 Y112.364 E0.04706
G1 X149.592 Y109.481 E0.09111
G1 X149.228 Y106.598 E0.09111
G1 X148.158 Y103.897 E0.09110
G1 X146.450 Y101.546 E0.09111
G1 X144.211 Y99.694 E0.09110
G1 X141.582 Y98.457 E0.09110
G1 X138.728 Y97.912 E0.09111
G1 X135.828 Y98.095 E0.09111
G1 X133.064 Y98.993 E0.09110
G1 X130.611 Y100.550 E0.09111
G1 X128.622 Y102.668 E0.09110
G1 X127.222 Y105.214 E0.09110
G1 X126.500 Y108.028 E0.09110
G1 X126.500 Y110.934 E0.09111
G1 X127.222 Y113.749 E0.09111
G1 X127.252 Y113.802 E0.00190
G1 X125.690 Y114.703 E0.05652
G1 X124.847 Y113.169 E0.05489
G1 X124.253 Y114.670 E0.05063
G1 X122.675 Y113.759 E0.05712
G1 X123.228 Y112.364 E0.04706
G1 X123.592 Y109.481 E0.09111
G1 X123.228 Y106.598 E0.09111
G1 X122.158 Y103.897 E0.09110
G1 X120.450 Y101.546 E0.09112
G1 X118.194 Y99.686 E0.09166
G1 X115.582 Y98.457 E0.09051
G1 X112.728 Y97.912 E0.09111
G1 X109.828 Y98.095 E0.09111
G1 X107.064 Y98.993 E0.09110
G1 X104.611 Y100.550 E0.09111
G1 X102.622 Y102.668 E0.09110
G1 X101.222 Y105.214 E0.09110
G1 X100.500 Y108.028 E0.09111
G1 X100.500 Y110.934 E0.09111
G1 X101.222 Y113.749 E0.09111
G1 X101.252 Y113.802 E0.00190
G1 X99.690 Y114.703 E0.05652
G1 X99.533 Y114.417 E0.01023
G1 X98.697 Y111.162 E0.10538
G1 X98.697 Y107.801 E0.10538
G1 X99.533 Y104.545 E0.10538
G1 X101.153 Y101.600 E0.10538
G1 X103.453 Y99.150 E0.10538
G1 X103.987 Y98.811 E0.01981
G1 X103.720 Y97.894 E0.02995
G1 X90.587 Y97.894 E0.41178
G1 X90.587 Y95.068 E0.08860
G1 X159.413 Y95.068 E2.15799
G1 X159.413 Y97.894 E0.08860
G1 X144.923 Y97.894 E0.45433
G1 F8640
G1 X147.437 Y100.018 E-0.76000
G1 E-0.04000 F2100.00000
G1 Z0.800 F10800.000
G1 X145.910 Y98.271
G1 Z0.200
G1 E0.80000 F2100.00000
G1 F1260
G1 X148.051 Y100.043 E0.08713
G1 X150.083 Y102.839 E0.10837
G1 X151.355 Y106.052 E0.10837
G1 X151.788 Y109.481 E0.10837
G1 X151.355 Y112.910 E0.10837
G1 X150.443 Y115.215 E0.07773
G1 X148.205 Y113.923 E0.08102
G1 X148.859 Y112.269 E0.05577
G1 X149.212 Y109.481 E0.08812
G1 X148.859 Y106.693 E0.08812
G1 X147.825 Y104.080 E0.08812
G1 X146.173 Y101.806 E0.08812
G1 X144.008 Y100.015 E0.08812
G1 X141.465 Y98.818 E0.08812
G1 X138.704 Y98.292 E0.08812
G1 X135.899 Y98.468 E0.08812
G1 X133.226 Y99.337 E0.08812
G1 X130.853 Y100.843 E0.08812
G1 X128.930 Y102.891 E0.08812
G1 X127.576 Y105.354 E0.08812
G1 X126.877 Y108.076 E0.08812
G1 X126.877 Y110.886 E0.08812
G1 X127.576 Y113.609 E0.08812
G1 X127.760 Y113.944 E0.01199
G1 X125.546 Y115.222 E0.08017
G1 X124.903 Y114.053 E0.04184
G1 X124.443 Y115.215 E0.03920
G1 X122.205 Y113.923 E0.08102
G1 X122.859 Y112.269 E0.05577
G1 X123.212 Y109.481 E0.08812
G1 X122.859 Y106.693 E0.08812
G1 X121.825 Y104.080 E0.08812
G1 X120.173 Y101.806 E0.08812
G1 X117.991 Y100.007 E0.08868
G1 X115.465 Y98.818 E0.08754
G1 X112.704 Y98.292 E0.08812
G1 X109.899 Y98.468 E0.08812
G1 X107.226 Y99.337 E0.08812
G1 X104.853 Y100.843 E0.08812
G1 X102.930 Y102.891 E0.08812
G1 X101.576 Y105.354 E0.08811
G1 X100.877 Y108.076 E0.08812
G1 X100.877 Y110.886 E0.08812
G1 X101.576 Y113.609 E0.08812
G1 X101.760 Y113.944 E0.01199
G1 X99.546 Y115.222 E0.08017
G1 X99.180 Y114.557 E0.02379
G1 X98.320 Y111.209 E0.10837
G1 X98.320 Y107.753 E0.10837
G1 X99.180 Y104.405 E0.10837
G1 X100.845 Y101.377 E0.10837
G1 X103.211 Y98.857 E0.10837
G1 X103.546 Y98.645 E0.01243
G1 X103.437 Y98.271 E0.01219
G1 X90.210 Y98.271 E0.41473
G1 X90.210 Y94.691 E0.11225
G1 X159.790 Y94.691 E2.18163
G1 X159.790 Y98.271 E0.11225
G1 X145.970 Y98.271 E0.43331
G1 X145.597 Y98.520 F10800.000
G1 X146.055 Y99.247
G1 F7200
G1 X149.027 Y102.220 E0.13193
G1 F8640
G1 X146.700 Y99.892 E-0.76000
G1 E-0.04000 F2100.00000
G1 Z0.800 F10800.000
G1 X149.846 Y103.572
G1 Z0.200
G1 E0.80000 F2100.00000
G1 F7200
G1 X141.625 Y95.351 E0.36491
G1 X141.091 Y95.351 E0.01675
G1 X149.894 Y104.154 E0.39072
G1 X150.244 Y105.038 E0.02983
G1 X140.557 Y95.351 E0.42994
G1 X140.023 Y95.351 E0.01675
G1 X143.914 Y99.242 E0.17268
G1 X142.906 Y98.767 E0.03497
G1 X139.490 Y95.351 E0.15162
G1 X138.956 Y95.351 E0.01675
G1 X141.897 Y98.293 E0.13057
G1 X141.670 Y98.186 E0.00788
G1 X141.159 Y98.088 E0.01632
G1 X138.422 Y95.351 E0.12149
G1 X137.888 Y95.351 E0.01675
G1 X140.500 Y97.962 E0.11591
G1 X139.840 Y97.837 E0.02108
G1 X137.354 Y95.351 E0.11032
G1 X136.821 Y95.351 E0.01675
G1 X139.180 Y97.711 E0.10474
G1 X138.746 Y97.628 E0.01388
G1 X138.574 Y97.639 E0.00539
G1 X136.287 Y95.351 E0.10154
G1 X135.753 Y95.351 E0.01675
G1 X138.072 Y97.670 E0.10294
G1 X137.570 Y97.702 E0.01579
G1 X135.219 Y95.351 E0.10434
G1 X134.685 Y95.351 E0.01675
G1 X137.068 Y97.734 E0.10574
G1 X136.566 Y97.765 E0.01579
G1 X134.152 Y95.351 E0.10715
G1 X133.618 Y95.351 E0.01675
G1 X136.063 Y97.797 E0.10855
G1 X135.775 Y97.815 E0.00909
G1 X135.603 Y97.870 E0.00565
G1 X133.084 Y95.351 E0.11182
G1 X132.550 Y95.351 E0.01675
G1 X135.200 Y98.001 E0.11763
G1 X134.798 Y98.132 E0.01330
G1 X132.016 Y95.351 E0.12344
G1 X131.483 Y95.351 E0.01675
G1 X134.395 Y98.263 E0.12926
G1 X133.992 Y98.394 E0.01330
G1 X130.949 Y95.351 E0.13507
G1 X130.415 Y95.351 E0.01675
G1 X133.589 Y98.525 E0.14088
G1 X133.186 Y98.656 E0.01330
G1 X129.881 Y95.351 E0.14669
G1 X129.347 Y95.351 E0.01675
G1 X132.813 Y98.817 E0.15384
G1 X132.487 Y99.024 E0.01214
G1 X128.814 Y95.351 E0.16304
G1 X128.280 Y95.351 E0.01675
G1 X132.160 Y99.232 E0.17224
G1 X131.834 Y99.439 E0.01214
G1 X127.746 Y95.351 E0.18144
G1 X127.212 Y95.351 E0.01675
G1 X129.472 Y97.611 E0.10032
G1 X128.939 Y97.611 E0.01675
G1 X126.678 Y95.351 E0.10032
G1 X126.145 Y95.351 E0.01675
G1 X128.405 Y97.611 E0.10032
G1 X127.871 Y97.611 E0.01675
G1 X125.611 Y95.351 E0.10032
G1 X125.077 Y95.351 E0.01675
G1 X127.337 Y97.611 E0.10032
G1 X126.803 Y97.611 E0.01675
G1 X124.543 Y95.351 E0.10032
G1 X124.009 Y95.351 E0.01675
G1 X126.270 Y97.611 E0.10032
G1 X125.736 Y97.611 E0.01675
G1 X123.476 Y95.351 E0.10032
G1 X122.942 Y95.351 E0.01675
G1 X125.202 Y97.611 E0.10032
G1 X124.668 Y97.611 E0.01675
G1 X122.408 Y95.351 E0.10032
G1 X121.874 Y95.351 E0.01675
G1 X124.134 Y97.611 E0.10032
G1 X123.601 Y97.611 E0.01675
G1 X121.340 Y95.351 E0.10032
G1 X120.807 Y95.351 E0.01675
G1 X123.067 Y97.611 E0.10032
G1 X122.533 Y97.611 E0.01675
G1 X120.273 Y95.351 E0.10032
G1 X119.739 Y95.351 E0.01675
G1 X121.999 Y97.611 E0.10032
G1 X121.465 Y97.611 E0.01675
G1 X119.205 Y95.351 E0.10032
G1 X118.671 Y95.351 E0.01675
G1 X120.932 Y97.611 E0.10032
G1 X120.398 Y97.611 E0.01675
G1 X118.138 Y95.351 E0.10032
G1 X117.604 Y95.351 E0.01675
G1 X119.864 Y97.611 E0.10032
G1 X119.330 Y97.611 E0.01675
G1 X117.070 Y95.351 E0.10032
G1 X116.536 Y95.351 E0.01675
G1 X118.966 Y97.781 E0.10786
G1 F8640
G1 X116.639 Y95.454 E-0.76000
G1 E-0.04000 F2100.00000
G1 Z0.800 F10800.000
G1 X117.973 Y99.457
G1 Z0.200
G1 E0.80000 F2100.00000
G1 F7200
G1 X113.867 Y95.351 E0.18224
G1 X113.333 Y95.351 E0.01675
G1 X116.611 Y98.628 E0.14546
G1 X115.626 Y98.177 E0.03400
G1 X112.800 Y95.351 E0.12544
G1 X112.266 Y95.351 E0.01675
G1 X114.966 Y98.051 E0.11986
G1 X114.307 Y97.926 E0.02108
G1 X111.732 Y95.351 E0.11427
G1 X111.198 Y95.351 E0.01675
G1 X113.647 Y97.800 E0.10869
G1 X112.987 Y97.674 E0.02108
G1 X110.664 Y95.351 E0.10310
G1 X110.131 Y95.351 E0.01675
G1 X112.427 Y97.648 E0.10195
M73 Q2 S55
G1 X111.925 Y97.680 E0.01579
G1 X109.597 Y95.351 E0.10335
G1 X109.063 Y95.351 E0.01675
G1 X111.423 Y97.711 E0.10475
M73 P2 R54
G1 X110.921 Y97.743 E0.01579
G1 X108.529 Y95.351 E0.10615
G1 X107.995 Y95.351 E0.01675
G1 X110.419 Y97.774 E0.10756
G1 X109.916 Y97.806 E0.01579
G1 X107.462 Y95.351 E0.10896
G1 X106.928 Y95.351 E0.01675
G1 X109.485 Y97.909 E0.11352
G1 X109.083 Y98.040 E0.01330
G1 X106.394 Y95.351 E0.11934
G1 X105.860 Y95.351 E0.01675
G1 X108.680 Y98.171 E0.12515
G1 X108.277 Y98.302 E0.01330
G1 X105.326 Y95.351 E0.13096
G1 X104.793 Y95.351 E0.01675
G1 X107.874 Y98.432 E0.13677
G1 X107.471 Y98.563 E0.01330
G1 X104.259 Y95.351 E0.14258
G1 X103.725 Y95.351 E0.01675
G1 X107.068 Y98.694 E0.14839
G1 X106.943 Y98.735 E0.00412
G1 X106.718 Y98.878 E0.00837
G1 X103.191 Y95.351 E0.15653
G1 X102.657 Y95.351 E0.01675
G1 X106.391 Y99.085 E0.16573
G1 X106.065 Y99.292 E0.01214
G1 X102.124 Y95.351 E0.17493
G1 X101.590 Y95.351 E0.01675
G1 X105.738 Y99.500 E0.18413
G1 X105.412 Y99.707 E0.01214
G1 X104.185 Y98.480 E0.05444
G1 X104.318 Y98.936 E0.01491
G1 X104.189 Y99.018 E0.00478
G1 X105.085 Y99.914 E0.03977
G1 X104.758 Y100.121 E0.01214
G1 X103.862 Y99.225 E0.03977
G1 X103.635 Y99.370 E0.00846
G1 X103.557 Y99.453 E0.00360
G1 X104.432 Y100.328 E0.03885
G1 X104.173 Y100.603 E0.01185
G1 X103.298 Y99.728 E0.03883
G1 X103.040 Y100.004 E0.01185
G1 X103.914 Y100.879 E0.03883
G1 X103.656 Y101.154 E0.01185
G1 X102.781 Y100.279 E0.03883
G1 X102.523 Y100.554 E0.01185
G1 X103.397 Y101.429 E0.03883
G1 X103.139 Y101.704 E0.01185
G1 X102.264 Y100.830 E0.03883
G1 X102.006 Y101.105 E0.01185
G1 X102.880 Y101.980 E0.03883
G1 X102.622 Y102.255 E0.01185
G1 X101.747 Y101.380 E0.03883
G1 X101.488 Y101.655 E0.01185
G1 X102.371 Y102.538 E0.03916
G1 X102.181 Y102.882 E0.01234
G1 X101.271 Y101.972 E0.04042
G1 X101.082 Y102.316 E0.01234
G1 X101.992 Y103.227 E0.04042
G1 X101.803 Y103.571 E0.01234
G1 X100.892 Y102.661 E0.04042
G1 X100.703 Y103.005 E0.01234
G1 X101.613 Y103.916 E0.04042
G1 X101.424 Y104.260 E0.01234
G1 X100.513 Y103.349 E0.04042
G1 X100.324 Y103.694 E0.01234
G1 X101.235 Y104.604 E0.04042
G1 X101.045 Y104.949 E0.01234
G1 X100.135 Y104.038 E0.04042
G1 X99.945 Y104.383 E0.01234
G1 X100.899 Y105.336 E0.04232
G1 X100.790 Y105.761 E0.01376
G1 X99.774 Y104.745 E0.04509
G1 X99.665 Y105.170 E0.01376
G1 X100.681 Y106.186 E0.04509
G1 X100.572 Y106.611 E0.01376
G1 X99.556 Y105.595 E0.04509
G1 X99.447 Y106.019 E0.01376
G1 X100.463 Y107.035 E0.04509
G1 X100.354 Y107.460 E0.01376
G1 X99.338 Y106.444 E0.04509
G1 X99.229 Y106.869 E0.01376
G1 X100.245 Y107.885 E0.04509
G1 X100.217 Y107.993 E0.00350
G1 X100.217 Y108.391 E0.01250
G1 X99.120 Y107.294 E0.04870
G1 X99.011 Y107.718 E0.01376
G1 X100.217 Y108.925 E0.05354
G1 X100.217 Y109.458 E0.01675
G1 X98.980 Y108.222 E0.05489
G1 X98.980 Y108.756 E0.01675
G1 X100.217 Y109.992 E0.05489
G1 X100.217 Y110.526 E0.01675
G1 X98.980 Y109.289 E0.05489
G1 X98.980 Y109.823 E0.01675
G1 X100.248 Y111.091 E0.05627
G1 X100.432 Y111.809 E0.02327
G1 X98.980 Y110.357 E0.06445
G1 X98.980 Y110.891 E0.01675
G1 X100.617 Y112.527 E0.07264
G1 X100.801 Y113.246 E0.02327
G1 X99.083 Y111.528 E0.07625
G1 X99.268 Y112.246 E0.02327
G1 X100.773 Y113.751 E0.06682
G1 X100.435 Y113.947 E0.01226
G1 X99.452 Y112.964 E0.04361
G1 X99.637 Y113.682 E0.02327
G1 X100.221 Y114.266 E0.02592
G1 F8640
G1 X99.637 Y113.682 E-0.19069
G1 X99.452 Y112.964 E-0.17121
G1 X100.435 Y113.947 E-0.32085
G1 X100.724 Y113.779 E-0.07724
G1 E-0.04000 F2100.00000
G1 Z0.800 F10800.000
G1 X103.486 Y97.781
G1 Z0.200
G1 E0.80000 F2100.00000
G1 F7200
G1 X101.056 Y95.351 E0.10786
G1 X100.522 Y95.351 E0.01675
G1 X102.782 Y97.611 E0.10032
G1 X102.249 Y97.611 E0.01675
G1 X99.988 Y95.351 E0.10032
G1 X99.455 Y95.351 E0.01675
G1 X101.715 Y97.611 E0.10032
G1 X101.181 Y97.611 E0.01675
G1 X98.921 Y95.351 E0.10032
G1 X98.387 Y95.351 E0.01675
G1 X100.647 Y97.611 E0.10032
G1 X100.113 Y97.611 E0.01675
G1 X97.853 Y95.351 E0.10032
G1 X97.319 Y95.351 E0.01675
G1 X99.580 Y97.611 E0.10032
G1 X99.046 Y97.611 E0.01675
G1 X96.786 Y95.351 E0.10032
G1 X96.252 Y95.351 E0.01675
G1 X98.512 Y97.611 E0.10032
G1 X97.978 Y97.611 E0.01675
G1 X95.718 Y95.351 E0.10032
G1 X95.184 Y95.351 E0.01675
G1 X97.444 Y97.611 E0.10032
G1 X96.911 Y97.611 E0.01675
G1 X94.650 Y95.351 E0.10032
G1 X94.117 Y95.351 E0.01675
G1 X96.377 Y97.611 E0.10032
G1 X95.843 Y97.611 E0.01675
G1 X93.583 Y95.351 E0.10032
G1 X93.049 Y95.351 E0.01675
G1 X95.309 Y97.611 E0.10032
G1 X94.775 Y97.611 E0.01675
G1 X92.515 Y95.351 E0.10032
G1 X91.981 Y95.351 E0.01675
G1 X94.242 Y97.611 E0.10032
G1 X93.708 Y97.611 E0.01675
G1 X91.448 Y95.351 E0.10032
G1 X90.914 Y95.351 E0.01675
G1 X93.174 Y97.611 E0.10032
G1 X92.640 Y97.611 E0.01675
G1 X90.870 Y95.841 E0.07858
G1 X90.870 Y96.375 E0.01675
G1 X92.106 Y97.611 E0.05489
G1 X91.573 Y97.611 E0.01675
G1 X90.870 Y96.909 E0.03119
G1 X90.870 Y97.442 E0.01675
G1 X91.209 Y97.781 E0.01503
G1 F8640
G1 X90.870 Y97.442 E-0.11059
G1 X90.870 Y96.909 E-0.12326
G1 X91.573 Y97.611 E-0.22949
G1 X92.106 Y97.611 E-0.12326
G1 X91.575 Y97.080 E-0.17342
