; generated by Slic3r Prusa Edition 1.42.0-beta2+win64 on 2019-04-16 at 17:00:58

; 

; external perimeters extrusion width = 0.45mm
; perimeters extrusion width = 0.45mm
; infill extrusion width = 0.45mm
; solid infill extrusion width = 0.45mm
; top infill extrusion width = 0.40mm
; first layer extrusion width = 0.42mm

M73 P0 R72
M73 Q0 S72
M201 X1000 Y1000 Z1000 E8000 ; sets maximum accelerations, mm/sec^2
M203 X200 Y200 Z12 E120 ; sets maximum feedrates, mm/sec
M204 P1250 R1250 T1250 ; sets acceleration (P, T) and retract acceleration (R), mm/sec^2
M205 X8.00 Y8.00 Z0.40 E1.50 ; sets the jerk limits, mm/sec
M205 S0 T0 ; sets the minimum extruding and travel feed rate, mm/sec
M107
M107
M115 U3.6.0 ; tell printer latest fw version
M83  ; extruder relative mode
M104 S220 ; set extruder temp
M140 S55 ; set bed temp
M190 S55 ; wait for bed temp
M109 S220 ; wait for extruder temp
G28 W ; home all without mesh bed level
G80 ; mesh bed leveling
G21 ; set units to millimeters

; Send the filament type to the MMU2.0 unit.
; E stands for extruder number, F stands for filament type (0: default; 1:flex; 2: PVA)
M403 E0 F0
M403 E1 F0
M403 E2 F1
M403 E3 F0
M403 E4 F0


;go outside print area
G1 Y-3.0 F1000.0
G1 Z0.4 F1000.0
; select extruder
T2
; initial load
G1 X55.0 E29.0 F1073.0
M73 Q0 S72
M73 P0 R71
G1 X5.0 E29.0 F1800.0
G1 X55.0 E8.0 F2000.0
G1 Z0.3 F1000.0
G92 E0.0
G1 X240.0 E25.0  F2200.0
G1 Y-2.0 F1000.0
G1 X55.0 E25 F1400.0
G1 Z0.20 F1000.0
G1 X5.0 E4.0 F1000.0
G92 E0.0


M221 S95
G90 ; use absolute coordinates
M83 ; use relative distances for extrusion
G92 E0.0
M900 K30 ; Filament gcode
G21 ; set units to millimeters
G90 ; use absolute coordinates
M83 ; use relative distances for extrusion
T2
M900 K30 ; Filament gcode
;BEFORE_LAYER_CHANGE
G92 E0.0
;0.2


G1 E-0.80000 F2100.00000
G1 Z0.600 F10800.000
;AFTER_LAYER_CHANGE
;0.2
G1 X88.191 Y78.249
G1 Z0.200
G1 E0.80000 F2100.00000
M204 S1000
G1 F1800
G1 X88.628 Y77.776 E0.02021
G1 X89.185 Y77.450 E0.02021
G1 X89.808 Y77.301 E0.02010
G1 X160.004 Y77.293 E2.20094
G1 X160.690 Y77.404 E0.02179
G1 X161.306 Y77.725 E0.02179
G1 X161.791 Y78.224 E0.02179
G1 X162.094 Y78.845 E0.02168
G1 X162.188 Y79.435 E0.01873
G1 X162.189 Y83.485 E0.12698
G1 X162.088 Y84.136 E0.02066
G1 X152.122 Y102.388 E0.65203
G1 X149.797 Y105.568 E0.12351
G1 X146.672 Y108.151 E0.12712
G1 X143.007 Y109.876 E0.12701
G1 X139.072 Y110.634 E0.12564
G1 X112.780 Y110.640 E0.82436
G1 X108.946 Y110.379 E0.12051
G1 X105.020 Y109.086 E0.12961
G1 X101.673 Y106.948 E0.12450
G1 X98.862 Y103.938 E0.12916
G1 X88.078 Y84.527 E0.69621
G1 X87.820 Y83.673 E0.02799
G1 X87.812 Y79.441 E0.13268
G1 X87.911 Y78.830 E0.01942
G1 X88.165 Y78.303 E0.01833
G1 F8640
G1 X88.628 Y77.776 E-0.16213
G1 X89.185 Y77.450 E-0.14883
G1 X89.808 Y77.301 E-0.14799
G1 X91.112 Y77.301 E-0.30104
G1 E-0.04000 F2100.00000
G1 Z0.800 F10800.000
G1 X118.863 Y82.894
G1 Z0.200
G1 E0.80000 F2100.00000
G1 F900
G1 X129.720 Y82.894 E0.34043
G1 X129.987 Y83.811 E0.02995
G1 X129.453 Y84.150 E0.01981
G1 X127.152 Y86.600 E0.10538
G1 X124.847 Y90.793 E0.15004
G1 X123.750 Y88.022 E0.09347
G1 X121.774 Y85.303 E0.10538
G1 X118.909 Y82.932 E0.11659
G1 F8640
G1 X122.200 Y82.921 E-0.76000
G1 E-0.04000 F2100.00000
G1 Z0.800 F10800.000
G1 X119.910 Y83.271
G1 Z0.200
G1 E0.80000 F2100.00000
G1 F900
G1 X129.437 Y83.271 E0.29871
G1 X129.546 Y83.645 E0.01219
G1 X129.211 Y83.857 E0.01243
G1 X126.845 Y86.377 E0.10837
G1 X124.903 Y89.910 E0.12641
G1 X124.083 Y87.839 E0.06984
G1 X122.051 Y85.042 E0.10837
G1 X119.956 Y83.309 E0.08524
G1 X119.813 Y82.883 F10800.000
G1 F8640
G1 X123.248 Y83.296 E-0.76000
G1 E-0.04000 F2100.00000
G1 Z0.800 F10800.000
G1 X144.863 Y82.894
G1 Z0.200
G1 E0.80000 F2100.00000
G1 F2160
G1 X147.774 Y85.303 E0.11847
G1 X149.750 Y88.022 E0.10538
G1 X150.987 Y91.147 E0.10538
G1 X151.408 Y94.481 E0.10538
G1 X150.987 Y97.816 E0.10538
G1 X149.750 Y100.941 E0.10538
G1 X147.774 Y103.660 E0.10538
G1 X145.185 Y105.802 E0.10538
G1 X142.143 Y107.233 E0.10538
G1 X138.842 Y107.863 E0.10538
G1 X135.488 Y107.652 E0.10538
G1 X132.291 Y106.613 E0.10538
G1 X129.453 Y104.813 E0.10538
G1 X127.152 Y102.362 E0.10538
G1 X124.847 Y98.169 E0.15004
G1 X123.750 Y100.941 E0.09347
G1 X121.774 Y103.660 E0.10538
G1 X119.184 Y105.802 E0.10538
G1 X116.143 Y107.233 E0.10538
G1 X112.842 Y107.863 E0.10538
G1 X109.488 Y107.652 E0.10538
G1 X106.291 Y106.613 E0.10538
G1 X103.453 Y104.813 E0.10538
G1 X101.153 Y102.362 E0.10538
G1 X99.533 Y99.417 E0.10538
G1 X98.697 Y96.162 E0.10538
G1 X98.697 Y92.801 E0.10538
G1 X99.533 Y89.545 E0.10538
G1 X101.153 Y86.600 E0.10538
G1 X103.453 Y84.150 E0.10538
G1 X103.987 Y83.811 E0.01981
G1 X103.720 Y82.894 E0.02995
G1 X90.587 Y82.894 E0.41178
G1 X90.587 Y80.068 E0.08860
G1 X159.413 Y80.068 E2.15799
G1 X159.413 Y82.894 E0.08860
G1 X144.923 Y82.894 E0.45433
G1 F8640
G1 X147.437 Y85.018 E-0.76000
G1 E-0.04000 F2100.00000
G1 Z0.800 F10800.000
G1 X145.910 Y83.271
G1 Z0.200
G1 E0.80000 F2100.00000
G1 F1260
G1 X148.051 Y85.042 E0.08713
G1 X150.083 Y87.839 E0.10837
G1 X151.355 Y91.052 E0.10837
G1 X151.788 Y94.481 E0.10837
G1 X151.355 Y97.910 E0.10837
G1 X150.083 Y101.124 E0.10837
G1 X148.051 Y103.920 E0.10837
G1 X145.388 Y106.123 E0.10837
G1 X142.261 Y107.595 E0.10837
G1 X138.866 Y108.242 E0.10837
G1 X135.416 Y108.025 E0.10837
G1 X132.129 Y106.957 E0.10837
G1 X129.211 Y105.105 E0.10837
G1 X126.845 Y102.586 E0.10837
G1 X124.903 Y99.053 E0.12641
G1 X124.083 Y101.124 E0.06984
G1 X122.051 Y103.920 E0.10837
G1 X119.388 Y106.123 E0.10837
G1 X116.261 Y107.595 E0.10837
G1 X112.866 Y108.242 E0.10837
G1 X109.416 Y108.025 E0.10837
G1 X106.129 Y106.957 E0.10837
G1 X103.211 Y105.105 E0.10837
G1 X100.845 Y102.586 E0.10837
G1 X99.180 Y99.557 E0.10837
G1 X98.320 Y96.209 E0.10837
G1 X98.320 Y92.753 E0.10837
G1 X99.180 Y89.405 E0.10837
G1 X100.845 Y86.377 E0.10837
G1 X103.211 Y83.857 E0.10837
G1 X103.546 Y83.645 E0.01243
G1 X103.437 Y83.271 E0.01219
G1 X90.210 Y83.271 E0.41473
G1 X90.210 Y79.691 E0.11225
G1 X159.790 Y79.691 E2.18163
G1 X159.790 Y83.271 E0.11225
G1 X145.970 Y83.271 E0.43331
G1 X145.597 Y83.520 F10800.000
G1 F8640
G1 X148.051 Y85.042 E-0.63101
G1 X148.380 Y85.494 E-0.12899
G1 E-0.04000 F2100.00000
G1 Z0.800 F10800.000
G1 X149.207 Y87.466
G1 Z0.200
G1 E0.80000 F2100.00000
G1 F7200
G1 X142.091 Y80.351 E0.31705
G1 X142.627 Y80.351 E0.01688
G1 X144.887 Y82.611 E0.10071
G1 X145.423 Y82.611 E0.01688
G1 X143.163 Y80.351 E0.10071
G1 X143.699 Y80.351 E0.01688
G1 X145.959 Y82.611 E0.10071
G1 X146.495 Y82.611 E0.01688
G1 X144.235 Y80.351 E0.10071
G1 X144.771 Y80.351 E0.01688
G1 X147.031 Y82.611 E0.10071
G1 X147.567 Y82.611 E0.01688
G1 X145.306 Y80.351 E0.10071
G1 X145.842 Y80.351 E0.01688
G1 X148.103 Y82.611 E0.10071
G1 X148.638 Y82.611 E0.01688
G1 X146.378 Y80.351 E0.10071
G1 X146.914 Y80.351 E0.01688
G1 X149.174 Y82.611 E0.10071
G1 X149.710 Y82.611 E0.01688
G1 X147.450 Y80.351 E0.10071
G1 X147.986 Y80.351 E0.01688
G1 X150.246 Y82.611 E0.10071
G1 X150.782 Y82.611 E0.01688
G1 X148.522 Y80.351 E0.10071
G1 X149.058 Y80.351 E0.01688
G1 X151.318 Y82.611 E0.10071
G1 X151.854 Y82.611 E0.01688
G1 X149.593 Y80.351 E0.10071
G1 X150.129 Y80.351 E0.01688
G1 X152.390 Y82.611 E0.10071
G1 X152.925 Y82.611 E0.01688
G1 X150.665 Y80.351 E0.10071
G1 X151.201 Y80.351 E0.01688
G1 X153.461 Y82.611 E0.10071
G1 X153.997 Y82.611 E0.01688
G1 X151.737 Y80.351 E0.10071
G1 X152.273 Y80.351 E0.01688
G1 X154.533 Y82.611 E0.10071
G1 X155.069 Y82.611 E0.01688
G1 X152.809 Y80.351 E0.10071
G1 X153.345 Y80.351 E0.01688
G1 X155.605 Y82.611 E0.10071
G1 X156.141 Y82.611 E0.01688
G1 X153.880 Y80.351 E0.10071
G1 X154.416 Y80.351 E0.01688
G1 X156.677 Y82.611 E0.10071
G1 X157.212 Y82.611 E0.01688
G1 X154.952 Y80.351 E0.10071
G1 X155.488 Y80.351 E0.01688
G1 X157.748 Y82.611 E0.10071
G1 X158.284 Y82.611 E0.01688
G1 X156.024 Y80.351 E0.10071
G1 X156.560 Y80.351 E0.01688
G1 X158.820 Y82.611 E0.10071
G1 X159.130 Y82.611 E0.00977
G1 X159.130 Y82.386 E0.00712
G1 X157.096 Y80.351 E0.09065
G1 X157.632 Y80.351 E0.01688
G1 X159.130 Y81.850 E0.06677
G1 X159.130 Y81.314 E0.01688
G1 X158.167 Y80.351 E0.04290
G1 X158.703 Y80.351 E0.01688
G1 X159.300 Y80.948 E0.02658
G1 F8640
G1 X158.703 Y80.351 E-0.19478
G1 X158.167 Y80.351 E-0.12374
G1 X159.130 Y81.314 E-0.31436
G1 X159.130 Y81.850 E-0.12374
G1 X159.120 Y81.839 E-0.00339
G1 E-0.04000 F2100.00000
G1 Z0.800 F10800.000
G1 X149.892 Y88.688
G1 Z0.200
G1 E0.80000 F2100.00000
G1 F7200
G1 X141.555 Y80.351 E0.37146
G1 X141.019 Y80.351 E0.01688
G1 X149.941 Y89.273 E0.39752
G1 X150.292 Y90.160 E0.03006
G1 X140.484 Y80.351 E0.43705
G1 X139.948 Y80.351 E0.01688
G1 X150.643 Y91.047 E0.47658
G1 X150.711 Y91.218 E0.00579
G1 X150.774 Y91.713 E0.01573
G1 X139.412 Y80.351 E0.50626
G1 X138.876 Y80.351 E0.01688
G1 X150.851 Y92.326 E0.53359
G1 X150.928 Y92.940 E0.01948
G1 X138.340 Y80.351 E0.56092
G1 X137.804 Y80.351 E0.01688
G1 X151.006 Y93.553 E0.58825
G1 X151.083 Y94.166 E0.01948
G1 X137.268 Y80.351 E0.61558
G1 X136.732 Y80.351 E0.01688
G1 X151.094 Y94.713 E0.63993
G1 X151.034 Y95.188 E0.01511
G1 X136.197 Y80.351 E0.66113
G1 X135.661 Y80.351 E0.01688
G1 X150.974 Y95.664 E0.68233
G1 X150.914 Y96.140 E0.01511
G1 X135.125 Y80.351 E0.70353
G1 X134.589 Y80.351 E0.01688
G1 X150.854 Y96.616 E0.72473
G1 X150.793 Y97.092 E0.01511
G1 X134.053 Y80.351 E0.74593
G1 X133.517 Y80.351 E0.01688
G1 X150.733 Y97.567 E0.76713
G1 X150.711 Y97.745 E0.00564
G1 X150.616 Y97.986 E0.00816
G1 X132.981 Y80.351 E0.78576
G1 X132.445 Y80.351 E0.01688
G1 X150.464 Y98.369 E0.80287
G1 X150.312 Y98.753 E0.01301
G1 X131.909 Y80.351 E0.81997
G1 X131.374 Y80.351 E0.01688
G1 X150.160 Y99.137 E0.83708
G1 X150.008 Y99.521 E0.01301
G1 X130.838 Y80.351 E0.85418
G1 X130.302 Y80.351 E0.01688
G1 X149.856 Y99.905 E0.87129
M73 Q2 S71
G1 X149.704 Y100.289 E0.01301
G1 X129.766 Y80.351 E0.88839
M73 P2 R70
G1 X129.230 Y80.351 E0.01688
G1 X149.552 Y100.673 E0.90550
G1 X149.500 Y100.803 E0.00443
G1 X149.351 Y101.008 E0.00797
G1 X128.694 Y80.351 E0.92044
G1 X128.158 Y80.351 E0.01688
G1 X149.126 Y101.319 E0.93427
G1 X148.900 Y101.629 E0.01209
G1 X127.622 Y80.351 E0.94810
G1 X127.087 Y80.351 E0.01688
G1 X129.347 Y82.611 E0.10071
G1 X128.811 Y82.611 E0.01688
G1 X126.551 Y80.351 E0.10071
G1 X126.015 Y80.351 E0.01688
G1 X128.275 Y82.611 E0.10071
G1 X127.739 Y82.611 E0.01688
G1 X125.479 Y80.351 E0.10071
G1 X124.943 Y80.351 E0.01688
G1 X127.203 Y82.611 E0.10071
G1 X126.667 Y82.611 E0.01688
G1 X124.407 Y80.351 E0.10071
G1 X123.871 Y80.351 E0.01688
G1 X126.132 Y82.611 E0.10071
G1 X125.596 Y82.611 E0.01688
G1 X123.335 Y80.351 E0.10071
G1 X122.800 Y80.351 E0.01688
G1 X125.060 Y82.611 E0.10071
G1 X124.524 Y82.611 E0.01688
G1 X122.264 Y80.351 E0.10071
G1 X121.728 Y80.351 E0.01688
G1 X123.988 Y82.611 E0.10071
G1 X123.452 Y82.611 E0.01688
G1 X121.192 Y80.351 E0.10071
G1 X120.656 Y80.351 E0.01688
G1 X122.916 Y82.611 E0.10071
G1 X122.380 Y82.611 E0.01688
G1 X120.120 Y80.351 E0.10071
G1 X119.584 Y80.351 E0.01688
G1 X121.845 Y82.611 E0.10071
G1 X121.309 Y82.611 E0.01688
G1 X119.048 Y80.351 E0.10071
G1 X118.513 Y80.351 E0.01688
G1 X120.773 Y82.611 E0.10071
G1 X120.237 Y82.611 E0.01688
G1 X117.977 Y80.351 E0.10071
G1 X117.441 Y80.351 E0.01688
G1 X119.701 Y82.611 E0.10071
G1 X119.165 Y82.611 E0.01688
G1 X116.905 Y80.351 E0.10071
G1 X116.369 Y80.351 E0.01688
G1 X118.799 Y82.781 E0.10827
G1 F8640
G1 X116.472 Y80.454 E-0.76000
G1 E-0.04000 F2100.00000
G1 Z0.800 F10800.000
G1 X119.998 Y83.980
G1 Z0.200
G1 E0.80000 F2100.00000
G1 F7200
G1 X122.468 Y86.450 E0.11006
G1 F8640
G1 X120.141 Y84.123 E-0.76000
G1 E-0.04000 F2100.00000
G1 Z0.800 F10800.000
G1 X123.710 Y88.227
G1 Z0.200
G1 E0.80000 F2100.00000
G1 F7200
G1 X115.833 Y80.351 E0.35096
G1 X115.297 Y80.351 E0.01688
G1 X123.759 Y88.812 E0.37702
G1 X124.110 Y89.700 E0.03006
G1 X114.761 Y80.351 E0.41655
G1 X114.226 Y80.351 E0.01688
G1 X124.461 Y90.587 E0.45608
G1 X124.992 Y91.117 F10800.000
G1 F7200
G1 X141.032 Y107.157 E0.71472
G1 X141.482 Y107.072 E0.01443
G1 X125.182 Y90.772 E0.72630
G1 X125.372 Y90.426 E0.01243
G1 X141.932 Y106.986 E0.73788
G1 X142.055 Y106.962 E0.00396
G1 X142.320 Y106.838 E0.00921
G1 X125.562 Y90.080 E0.74670
G1 X125.752 Y89.734 E0.01243
G1 X142.684 Y106.666 E0.75446
G1 X143.049 Y106.495 E0.01269
G1 X125.942 Y89.388 E0.76223
G1 X126.132 Y89.043 E0.01243
G1 X143.413 Y106.323 E0.77000
G1 X143.777 Y106.152 E0.01269
G1 X126.322 Y88.697 E0.77776
G1 X126.513 Y88.351 E0.01243
G1 X144.142 Y105.980 E0.78553
G1 X144.506 Y105.809 E0.01269
G1 X126.703 Y88.005 E0.79330
G1 X126.893 Y87.660 E0.01243
G1 X144.871 Y105.637 E0.80106
G1 X145.032 Y105.562 E0.00561
G1 X145.195 Y105.426 E0.00669
G1 X127.083 Y87.314 E0.80706
G1 X127.273 Y86.968 E0.01243
G1 X145.489 Y105.184 E0.81166
G1 X145.782 Y104.941 E0.01199
G1 X127.492 Y86.651 E0.81496
G1 X127.752 Y86.375 E0.01194
G1 X146.075 Y104.698 E0.81646
G1 X146.368 Y104.456 E0.01199
G1 X128.011 Y86.099 E0.81796
G1 X128.271 Y85.822 E0.01194
G1 X146.662 Y104.213 E0.81947
G1 X146.955 Y103.971 E0.01199
G1 X128.530 Y85.546 E0.82097
G1 X128.790 Y85.270 E0.01194
G1 X147.248 Y103.728 E0.82248
G1 X147.541 Y103.485 E0.01199
G1 X129.049 Y84.993 E0.82398
G1 X129.309 Y84.717 E0.01194
G1 X147.773 Y103.181 E0.82272
G1 X147.998 Y102.870 E0.01209
G1 X129.568 Y84.441 E0.82120
G1 X129.635 Y84.370 E0.00306
G1 X129.879 Y84.215 E0.00910
G1 X148.224 Y102.560 E0.81743
G1 X148.449 Y102.250 E0.01209
G1 X130.207 Y84.007 E0.81286
G1 X130.318 Y83.936 E0.00414
G1 X130.173 Y83.437 E0.01639
G1 X148.796 Y102.061 E0.82984
G1 F8640
G1 X146.469 Y99.733 E-0.76000
G1 E-0.04000 F2100.00000
G1 Z0.800 F10800.000
G1 X140.727 Y107.388
G1 Z0.200
G1 E0.80000 F2100.00000
G1 F7200
G1 X113.690 Y80.351 E1.20473
G1 X113.154 Y80.351 E0.01688
G1 X140.132 Y107.329 E1.20209
G1 X139.682 Y107.415 E0.01443
G1 X112.618 Y80.351 E1.20592
G1 X112.082 Y80.351 E0.01688
G1 X139.232 Y107.501 E1.20975
G1 X138.770 Y107.575 E0.01473
G1 X111.546 Y80.351 E1.21306
G1 X111.010 Y80.351 E0.01688
G1 X138.198 Y107.539 E1.21146
G1 X137.627 Y107.503 E0.01805
G1 X110.474 Y80.351 E1.20985
G1 X109.939 Y80.351 E0.01688
G1 X137.055 Y107.467 E1.20825
G1 X136.483 Y107.431 E0.01805
G1 X109.403 Y80.351 E1.20665
G1 X108.867 Y80.351 E0.01688
G1 X135.911 Y107.395 E1.20504
G1 X135.541 Y107.372 E0.01168
G1 X135.261 Y107.281 E0.00928
G1 X108.331 Y80.351 E1.19995
G1 X107.795 Y80.351 E0.01688
G1 X134.467 Y107.023 E1.18846
G1 X133.673 Y106.765 E0.02630
G1 X124.853 Y97.945 E0.39301
G1 X124.825 Y97.917 F10800.000
G1 F7200
G1 X107.259 Y80.351 E0.78271
G1 X106.723 Y80.351 E0.01688
G1 X124.542 Y98.170 E0.79399
G1 X124.390 Y98.554 E0.01301
G1 X106.187 Y80.351 E0.81110
G1 X105.652 Y80.351 E0.01688
G1 X124.239 Y98.938 E0.82820
G1 X124.087 Y99.322 E0.01301
G1 X105.116 Y80.351 E0.84531
G1 X104.580 Y80.351 E0.01688
G1 X123.935 Y99.706 E0.86241
G1 X123.783 Y100.090 E0.01301
G1 X104.044 Y80.351 E0.87952
G1 X103.508 Y80.351 E0.01688
G1 X123.631 Y100.474 E0.89663
G1 X123.468 Y100.847 E0.01283
G1 X102.972 Y80.351 E0.91327
G1 X102.436 Y80.351 E0.01688
G1 X123.243 Y101.158 E0.92710
G1 X123.017 Y101.468 E0.01209
G1 X101.900 Y80.351 E0.94093
G1 X101.365 Y80.351 E0.01688
G1 X103.625 Y82.611 E0.10071
G1 X103.089 Y82.611 E0.01688
G1 X100.829 Y80.351 E0.10071
G1 X100.293 Y80.351 E0.01688
G1 X102.553 Y82.611 E0.10071
G1 X102.017 Y82.611 E0.01688
G1 X99.757 Y80.351 E0.10071
G1 X99.221 Y80.351 E0.01688
G1 X101.481 Y82.611 E0.10071
G1 X100.945 Y82.611 E0.01688
G1 X98.685 Y80.351 E0.10071
G1 X98.149 Y80.351 E0.01688
G1 X100.410 Y82.611 E0.10071
G1 X99.874 Y82.611 E0.01688
G1 X97.613 Y80.351 E0.10071
G1 X97.078 Y80.351 E0.01688
G1 X99.338 Y82.611 E0.10071
G1 X98.802 Y82.611 E0.01688
G1 X96.542 Y80.351 E0.10071
G1 X96.006 Y80.351 E0.01688
G1 X98.266 Y82.611 E0.10071
G1 X97.730 Y82.611 E0.01688
G1 X95.470 Y80.351 E0.10071
G1 X94.934 Y80.351 E0.01688
G1 X97.194 Y82.611 E0.10071
G1 X96.658 Y82.611 E0.01688
G1 X94.398 Y80.351 E0.10071
G1 X93.862 Y80.351 E0.01688
G1 X96.123 Y82.611 E0.10071
G1 X95.587 Y82.611 E0.01688
G1 X93.326 Y80.351 E0.10071
G1 X92.791 Y80.351 E0.01688
G1 X95.051 Y82.611 E0.10071
G1 X94.515 Y82.611 E0.01688
G1 X92.255 Y80.351 E0.10071
G1 X91.719 Y80.351 E0.01688
