; generated by Slic3r Prusa Edition 1.42.0-beta2+win64 on 2019-04-16 at 10:03:11

; 

; external perimeters extrusion width = 0.45mm
; perimeters extrusion width = 0.45mm
; infill extrusion width = 0.45mm
; solid infill extrusion width = 0.45mm
; top infill extrusion width = 0.40mm
; support material extrusion width = 0.35mm
; first layer extrusion width = 0.42mm

; external perimeters extrusion width = 0.45mm
; perimeters extrusion width = 0.45mm
; infill extrusion width = 0.45mm
; solid infill extrusion width = 0.45mm
; top infill extrusion width = 0.40mm
; support material extrusion width = 0.35mm
; first layer extrusion width = 0.42mm

M73 P0 R238
M73 Q0 S248
M201 X1000 Y1000 Z1000 E8000 ; sets maximum accelerations, mm/sec^2
M203 X200 Y200 Z12 E120 ; sets maximum feedrates, mm/sec
M204 P1250 R1250 T1250 ; sets acceleration (P, T) and retract acceleration (R), mm/sec^2
M205 X8.00 Y8.00 Z0.40 E1.50 ; sets the jerk limits, mm/sec
M205 S0 T0 ; sets the minimum extruding and travel feed rate, mm/sec
M107
M107
M115 U3.6.0 ; tell printer latest fw version
M83  ; extruder relative mode
M104 S255 ; set extruder temp
M140 S100 ; set bed temp
M190 S100 ; wait for bed temp
M109 S255 ; wait for extruder temp
G28 W ; home all without mesh bed level
G80 ; mesh bed leveling
G21 ; set units to millimeters

; Send the filament type to the MMU2.0 unit.
; E stands for extruder number, F stands for filament type (0: default; 1:flex; 2: PVA)
M403 E0 F0
M403 E1 F0
M403 E2 F0
M403 E3 F0
M403 E4 F0


;go outside print area
G1 Y-3.0 F1000.0
G1 Z0.4 F1000.0
; select extruder
T3
; initial load
G1 X55.0 E29.0 F1073.0
M73 Q0 S247
M73 P0 R238
G1 X5.0 E29.0 F1800.0
G1 X55.0 E8.0 F2000.0
G1 Z0.3 F1000.0
G92 E0.0
G1 X240.0 E25.0  F2200.0
G1 Y-2.0 F1000.0
G1 X55.0 E25 F1400.0
G1 Z0.20 F1000.0
G1 X5.0 E4.0 F1000.0
G92 E0.0


M221 S95
G90 ; use absolute coordinates
M83 ; use relative distances for extrusion
G92 E0.0
M900 K30 ; Filament gcode
G21 ; set units to millimeters
G90 ; use absolute coordinates
M83 ; use relative distances for extrusion
T3
M900 K30 ; Filament gcode
;BEFORE_LAYER_CHANGE
G92 E0.0
;0.2


G1 E-0.80000 F2100.00000
G1 Z0.600 F10800.000
;AFTER_LAYER_CHANGE
;0.2
G1 X23.029 Y17.570
G1 Z0.200
G1 E0.80000 F2100.00000
M204 S1000
G1 F1800
G1 X23.360 Y16.149 E0.04575
G1 X23.894 Y14.791 E0.04575
G1 X24.620 Y13.525 E0.04575
G1 X25.518 Y12.385 E0.04550
G1 X26.577 Y11.381 E0.04575
G1 X27.764 Y10.547 E0.04550
G1 X29.067 Y9.890 E0.04575
G1 X30.444 Y9.432 E0.04550
G1 X31.610 Y9.209 E0.03720
G1 X32.785 Y9.126 E0.03695
G1 X56.280 Y9.125 E0.73667
G1 X123.113 Y14.500 E2.10227
G1 X124.735 Y14.782 E0.05161
G1 X126.720 Y15.437 E0.06555
G1 X127.810 Y15.962 E0.03793
G1 X129.116 Y16.775 E0.04824
G1 X214.119 Y73.710 E3.20782
G1 X215.190 Y74.678 E0.04526
G1 X216.595 Y76.296 E0.06718
G1 X217.687 Y78.133 E0.06699
G1 X218.280 Y79.491 E0.04648
G1 X224.311 Y101.345 E0.71082
G1 X224.678 Y102.895 E0.04993
G1 X224.822 Y104.253 E0.04282
G1 X224.796 Y106.187 E0.06066
G1 X224.535 Y107.781 E0.05063
G1 X218.461 Y129.936 E0.72028
G1 X217.737 Y131.771 E0.06185
G1 X217.018 Y133.064 E0.04640
G1 X216.378 Y133.988 E0.03524
G1 X214.894 Y135.619 E0.06914
G1 X213.552 Y136.701 E0.05405
G1 X129.105 Y193.233 E3.18631
G1 X127.557 Y194.174 E0.05680
G1 X126.128 Y194.781 E0.04868
G1 X124.489 Y195.275 E0.05367
G1 X122.984 Y195.499 E0.04770
G1 X56.573 Y199.781 E2.08660
G1 X32.199 Y199.760 E0.76423
G1 X30.740 Y199.548 E0.04624
G1 X29.320 Y199.121 E0.04648
G1 X27.979 Y198.489 E0.04648
G1 X26.753 Y197.670 E0.04624
G1 X25.918 Y196.940 E0.03475
G1 X25.170 Y196.123 E0.03475
G1 X24.516 Y195.228 E0.03475
G1 X23.969 Y194.273 E0.03451
G1 X23.528 Y193.256 E0.03475
G1 X23.202 Y192.196 E0.03475
G1 X22.996 Y191.108 E0.03475
G1 X22.911 Y190.002 E0.03475
G1 X22.909 Y19.110 E5.35821
G1 X23.025 Y17.630 E0.04655
G1 F8640
G1 X23.360 Y16.149 E-0.35061
G1 X23.894 Y14.791 E-0.33691
G1 X24.050 Y14.519 E-0.07248
G1 E-0.04000 F2100.00000
G1 Z0.800 F10800.000
G1 X65.105 Y14.790
G1 Z0.200
G1 E0.80000 F2100.00000
G1 F1800
G1 X121.665 Y14.790 E1.77339
G1 X124.009 Y15.006 E0.07382
G1 X126.238 Y15.638 E0.07262
G1 X129.289 Y17.354 E0.10977
G1 X131.757 Y19.824 E0.10950
G1 X155.995 Y54.712 E1.33196
G1 X210.751 Y72.182 E1.80209
G1 X213.794 Y73.936 E0.11013
G1 X216.308 Y76.543 E0.11355
G1 X217.977 Y79.724 E0.11263
G1 X223.960 Y101.489 E0.70774
G1 X224.459 Y104.263 E0.08838
G1 X224.393 Y106.439 E0.06825
G1 X223.950 Y108.548 E0.06759
G1 X217.985 Y130.246 E0.70554
G1 X216.110 Y133.725 E0.12393
G1 X213.710 Y136.131 E0.10657
G1 X210.783 Y137.808 E0.10576
G1 X155.995 Y155.288 E1.80314
G1 X131.759 Y190.173 E1.33186
G1 X129.300 Y192.637 E0.10916
G1 X126.243 Y194.361 E0.11004
G1 X124.011 Y194.994 E0.07273
G1 X121.665 Y195.210 E0.07387
G1 X64.391 Y195.210 E1.79580
G1 X64.046 Y195.754 E0.02019
G1 X62.039 Y197.666 E0.08694
G1 X59.861 Y198.825 E0.07735
G1 X57.463 Y199.385 E0.07719
G1 X56.407 Y199.394 E0.03311
G1 X55.989 Y199.427 E0.01314
G1 X33.199 Y199.427 E0.71457
G1 X30.201 Y199.103 E0.09456
G1 X27.422 Y197.881 E0.09517
G1 X26.020 Y196.703 E0.05743
G1 X24.420 Y194.739 E0.07942
G1 X23.578 Y192.874 E0.06417
G1 X23.097 Y190.577 E0.07358
G1 X23.097 Y168.987 E0.67694
G1 X23.879 Y165.900 E0.09983
G1 X24.576 Y164.688 E0.04385
G1 X23.635 Y162.756 E0.06737
G1 X23.097 Y160.130 E0.08407
G1 X23.097 Y129.409 E0.96322
M73 Q0 S246
M73 P0 R237
G1 X23.693 Y126.782 E0.08448
G1 X24.527 Y125.168 E0.05696
G1 X23.639 Y123.363 E0.06307
G1 X23.097 Y120.729 E0.08432
G1 X23.097 Y90.014 E0.96306
G1 X23.663 Y87.456 E0.08214
G1 X24.713 Y85.408 E0.07217
G1 X25.430 Y84.620 E0.03337
G1 X24.738 Y83.836 E0.03278
G1 X23.706 Y81.825 E0.07087
G1 X23.101 Y79.070 E0.08845
G1 X23.097 Y50.562 E0.89385
G1 X23.681 Y47.954 E0.08378
G1 X24.714 Y45.955 E0.07058
G1 X25.351 Y45.251 E0.02976
G1 X24.797 Y44.646 E0.02572
G1 X23.747 Y42.699 E0.06936
G1 X23.096 Y39.913 E0.08972
G1 X23.213 Y17.498 E0.70280
G1 X24.105 Y14.748 E0.09064
G1 X25.776 Y12.365 E0.09128
G1 X27.911 Y10.646 E0.08594
G1 X29.534 Y9.889 E0.05615
G1 X31.236 Y9.431 E0.05525
G1 X57.739 Y9.405 E0.83101
G1 X59.812 Y9.952 E0.06722
G1 X61.800 Y10.993 E0.07037
G1 X63.728 Y12.723 E0.08121
G1 X65.072 Y14.740 E0.07601
G1 X64.847 Y15.167 F10800.000
G1 F1800
G1 X121.656 Y15.167 E1.78122
G1 X123.923 Y15.373 E0.07138
G1 X126.114 Y15.994 E0.07138
G1 X129.041 Y17.639 E0.10528
G1 X131.457 Y20.054 E0.10711
G1 X155.759 Y55.033 E1.33545
G1 X210.617 Y72.535 E1.80548
G1 X213.542 Y74.217 E0.10578
G1 X215.987 Y76.743 E0.11021
G1 X217.619 Y79.844 E0.10987
G1 X223.594 Y101.581 E0.70683
G1 X224.081 Y104.272 E0.08575
G1 X224.020 Y106.378 E0.06605
G1 X223.584 Y108.454 E0.06652
G1 X217.627 Y130.125 E0.70470
G1 X215.823 Y133.479 E0.11939
G1 X213.500 Y135.817 E0.10336
G1 X210.649 Y137.455 E0.10308
G1 X155.759 Y154.967 E1.80652
G1 X131.459 Y189.944 E1.33535
G1 X129.052 Y192.353 E0.10677
G1 X126.119 Y194.004 E0.10554
G1 X123.925 Y194.626 E0.07148
G1 X121.657 Y194.833 E0.07143
G1 X64.179 Y194.833 E1.80216
G1 X63.768 Y195.499 E0.02455
G1 X61.838 Y197.346 E0.08376
G1 X59.750 Y198.463 E0.07425
G1 X57.439 Y199.008 E0.07444
G1 X56.390 Y199.017 E0.03287
G1 X55.982 Y199.050 E0.01286
G1 X33.209 Y199.050 E0.71403
G1 X30.325 Y198.745 E0.09093
G1 X27.643 Y197.574 E0.09175
G1 X26.300 Y196.450 E0.05493
G1 X24.753 Y194.561 E0.07657
G1 X23.942 Y192.776 E0.06146
G1 X23.474 Y190.557 E0.07108
G1 X23.474 Y169.011 E0.67558
G1 X24.237 Y166.020 E0.09679
G1 X25.004 Y164.704 E0.04775
G1 X24.000 Y162.656 E0.07150
G1 X23.474 Y160.110 E0.08151
G1 X23.474 Y129.431 E0.96194
G1 X24.055 Y126.890 E0.08173
G1 X24.951 Y125.172 E0.06074
G1 X24.003 Y123.262 E0.06685
G1 X23.474 Y120.710 E0.08174
G1 X23.474 Y90.034 E0.96181
G1 X24.010 Y87.606 E0.07796
G1 X25.037 Y85.603 E0.07058
G1 X25.941 Y84.624 E0.04177
G1 X25.062 Y83.642 E0.04133
G1 X24.052 Y81.675 E0.06932
G1 X23.478 Y79.050 E0.08426
G1 X23.474 Y50.582 E0.89256
G1 X24.027 Y48.106 E0.07956
G1 X25.037 Y46.151 E0.06900
G1 X25.868 Y45.249 E0.03844
G1 X25.117 Y44.445 E0.03448
G1 X24.090 Y42.543 E0.06778
G1 X23.473 Y39.893 E0.08530
G1 X23.581 Y17.586 E0.69943
G1 X24.430 Y14.941 E0.08711
G1 X26.035 Y12.641 E0.08791
G1 X28.092 Y10.977 E0.08296
G1 X29.648 Y10.249 E0.05387
G1 X31.310 Y9.802 E0.05395
G1 X57.668 Y9.776 E0.82643
G1 X59.657 Y10.296 E0.06449
G1 X61.566 Y11.290 E0.06748
G1 X63.458 Y12.987 E0.07969
G1 X64.751 Y14.939 E0.07339
G1 X64.824 Y15.112 E0.00590
G1 X64.583 Y15.545 F10800.000
G1 F1800
G1 X121.648 Y15.545 E1.78922
G1 X123.872 Y15.747 E0.07001
G1 X125.989 Y16.351 E0.06902
G1 X128.833 Y17.954 E0.10239
G1 X131.157 Y20.282 E0.10314
G1 X155.522 Y55.353 E1.33894
G1 X210.484 Y72.888 E1.80887
G1 X213.290 Y74.499 E0.10146
G1 X215.666 Y76.943 E0.10687
G1 X217.261 Y79.964 E0.10710
G1 X223.228 Y101.673 E0.70593
G1 X223.704 Y104.281 E0.08312
G1 X223.644 Y106.350 E0.06490
G1 X223.219 Y108.359 E0.06440
G1 X217.269 Y130.005 E0.70386
G1 X215.536 Y133.233 E0.11488
G1 X213.289 Y135.503 E0.10014
G1 X210.515 Y137.102 E0.10039
G1 X155.522 Y154.647 E1.80990
G1 X131.159 Y189.715 E1.33884
G1 X128.844 Y192.037 E0.10281
G1 X125.993 Y193.648 E0.10265
G1 X123.873 Y194.252 E0.06913
G1 X121.648 Y194.455 E0.07006
G1 X63.966 Y194.455 E1.80859
G1 X63.488 Y195.245 E0.02893
G1 X61.636 Y197.027 E0.08057
G1 X59.638 Y198.102 E0.07114
G1 X57.414 Y198.631 E0.07168
G1 X56.373 Y198.640 E0.03264
G1 X55.974 Y198.673 E0.01256
G1 X33.218 Y198.673 E0.71349
G1 X30.448 Y198.388 E0.08733
G1 X27.864 Y197.267 E0.08831
G1 X26.580 Y196.196 E0.05243
G1 X25.085 Y194.381 E0.07372
G1 X24.307 Y192.677 E0.05876
G1 X23.851 Y190.537 E0.06858
G1 X23.851 Y169.035 E0.67420
G1 X24.596 Y166.140 E0.09372
G1 X25.471 Y164.656 E0.05403
G1 X25.286 Y164.422 E0.00935
G1 X24.364 Y162.556 E0.06525
G1 X23.851 Y160.091 E0.07894
G1 X23.851 Y129.452 E0.96065
G1 X24.417 Y126.998 E0.07895
G1 X25.375 Y125.177 E0.06454
G1 X24.367 Y123.161 E0.07065
G1 X23.851 Y120.690 E0.07915
G1 X23.851 Y90.054 E0.96056
G1 X24.356 Y87.757 E0.07377
G1 X25.360 Y85.799 E0.06898
G1 X26.454 Y84.629 E0.05023
G1 X25.386 Y83.447 E0.04994
G1 X24.399 Y81.524 E0.06776
G1 X23.855 Y79.029 E0.08007
G1 X23.851 Y50.603 E0.89129
G1 X24.374 Y48.257 E0.07535
G1 X25.360 Y46.347 E0.06740
G1 X26.387 Y45.247 E0.04718
G1 X25.437 Y44.244 E0.04332
G1 X24.434 Y42.386 E0.06619
G1 X23.851 Y39.873 E0.08089
G1 X23.958 Y17.617 E0.69782
G1 X24.780 Y15.084 E0.08351
G1 X26.293 Y12.917 E0.08286
G1 X28.273 Y11.309 E0.07998
G1 X29.793 Y10.597 E0.05262
G1 X31.383 Y10.172 E0.05161
G1 X57.596 Y10.147 E0.82190
G1 X59.503 Y10.641 E0.06176
G1 X61.333 Y11.587 E0.06459
G1 X63.157 Y13.216 E0.07667
G1 X64.423 Y15.127 E0.07188
G1 X64.562 Y15.489 E0.01214
G1 X64.317 Y15.922 F10800.000
G1 F1800
G1 X121.639 Y15.922 E1.79729
G1 X123.785 Y16.115 E0.06756
G1 X125.863 Y16.707 E0.06776
G1 X128.625 Y18.270 E0.09948
G1 X130.857 Y20.511 E0.09918
G1 X155.285 Y55.673 E1.34244
G1 X210.350 Y73.241 E1.81226
G1 X213.039 Y74.781 E0.09715
G1 X215.346 Y77.144 E0.10352
G1 X216.903 Y80.083 E0.10431
G1 X222.862 Y101.765 E0.70503
G1 X223.326 Y104.291 E0.08051
G1 X223.271 Y106.289 E0.06267
G1 X222.854 Y108.265 E0.06332
G1 X216.911 Y129.885 E0.70303
G1 X215.249 Y132.988 E0.11038
G1 X213.078 Y135.189 E0.09693
G1 X210.381 Y136.749 E0.09769
G1 X155.285 Y154.327 E1.81327
M73 Q1 S245
M73 P1 R236
G1 X130.859 Y189.486 E1.34234
G1 X128.635 Y191.722 E0.09886
G1 X125.868 Y193.291 E0.09974
G1 X123.787 Y193.885 E0.06786
G1 X121.640 Y194.078 E0.06760
G1 X63.750 Y194.078 E1.81508
G1 X63.207 Y194.992 E0.03333
G1 X61.434 Y196.707 E0.07733
G1 X59.481 Y197.759 E0.06954
G1 X57.390 Y198.254 E0.06739
G1 X56.356 Y198.263 E0.03242
G1 X55.966 Y198.296 E0.01227
G1 X33.227 Y198.296 E0.71295
G1 X30.570 Y198.030 E0.08375
G1 X28.083 Y196.960 E0.08487
G1 X26.858 Y195.942 E0.04993
G1 X25.417 Y194.201 E0.07087
G1 X24.671 Y192.577 E0.05604
G1 X24.228 Y190.517 E0.06605
G1 X24.228 Y169.059 E0.67282
G1 X24.954 Y166.261 E0.09062
G1 X25.934 Y164.615 E0.06006
G1 X25.613 Y164.232 E0.01570
G1 X24.713 Y162.410 E0.06370
G1 X24.228 Y160.072 E0.07488
G1 X24.228 Y129.474 E0.95937
G1 X24.778 Y127.108 E0.07616
G1 X25.690 Y125.387 E0.06108
G1 X25.884 Y125.157 E0.00941
G1 X25.615 Y124.834 E0.01319
G1 X24.731 Y123.060 E0.06214
G1 X24.228 Y120.670 E0.07656
G1 X24.228 Y90.075 E0.95930
G1 X24.703 Y87.907 E0.06958
G1 X25.683 Y85.995 E0.06736
G1 X26.970 Y84.633 E0.05874
G1 X25.710 Y83.252 E0.05861
G1 X24.746 Y81.374 E0.06619
G1 X24.232 Y79.009 E0.07588
G1 X24.228 Y50.624 E0.89001
G1 X24.720 Y48.409 E0.07114
G1 X25.683 Y46.544 E0.06579
G1 X26.908 Y45.245 E0.05600
G1 X25.756 Y44.042 E0.05223
G1 X24.778 Y42.229 E0.06459
G1 X24.228 Y39.852 E0.07648
G1 X24.326 Y17.704 E0.69444
G1 X25.106 Y15.275 E0.08000
G1 X26.552 Y13.192 E0.07951
G1 X28.455 Y11.640 E0.07699
G1 X29.906 Y10.957 E0.05031
G1 X31.457 Y10.543 E0.05031
G1 X57.526 Y10.518 E0.81739
G1 X59.350 Y10.986 E0.05905
G1 X61.101 Y11.885 E0.06171
G1 X62.857 Y13.445 E0.07362
G1 X64.096 Y15.316 E0.07036
G1 X64.297 Y15.865 E0.01835
G1 X64.049 Y16.299 F10800.000
G1 F1800
G1 X121.631 Y16.299 E1.80544
G1 X123.733 Y16.489 E0.06619
G1 X125.738 Y17.064 E0.06539
G1 X128.376 Y18.554 E0.09501
G1 X130.557 Y20.740 E0.09680
G1 X155.049 Y55.994 E1.34593
G1 X210.217 Y73.595 E1.81566
G1 X212.787 Y75.064 E0.09284
G1 X215.057 Y77.388 E0.10184
G1 X216.544 Y80.203 E0.09985
G1 X222.497 Y101.857 E0.70414
G1 X222.949 Y104.300 E0.07790
G1 X222.895 Y106.261 E0.06151
G1 X222.489 Y108.170 E0.06119
G1 X216.553 Y129.765 E0.70220
G1 X214.961 Y132.743 E0.10588
G1 X212.828 Y134.907 E0.09528
G1 X210.247 Y136.396 E0.09342
G1 X155.049 Y154.006 E1.81666
G1 X130.558 Y189.258 E1.34583
G1 X128.386 Y191.438 E0.09649
G1 X125.743 Y192.935 E0.09526
G1 X123.735 Y193.511 E0.06549
G1 X121.631 Y193.701 E0.06624
G1 X63.533 Y193.701 E1.82162
G1 X62.925 Y194.740 E0.03774
G1 X61.231 Y196.388 E0.07410
G1 X59.369 Y197.398 E0.06641
G1 X57.365 Y197.877 E0.06461
G1 X56.338 Y197.886 E0.03220
G1 X55.958 Y197.919 E0.01197
G1 X33.236 Y197.919 E0.71242
G1 X30.691 Y197.671 E0.08019
G1 X28.303 Y196.652 E0.08142
G1 X27.137 Y195.687 E0.04744
G1 X25.749 Y194.020 E0.06802
G1 X25.035 Y192.476 E0.05333
G1 X24.606 Y190.497 E0.06350
G1 X24.606 Y169.083 E0.67141
G1 X25.311 Y166.383 E0.08750
G1 X26.400 Y164.574 E0.06621
G1 X25.939 Y164.042 E0.02206
G1 X25.062 Y162.265 E0.06214
G1 X24.606 Y160.053 E0.07083
G1 X24.606 Y129.496 E0.95808
G1 X25.140 Y127.219 E0.07334
G1 X26.010 Y125.588 E0.05796
G1 X26.393 Y125.165 E0.01789
G1 X25.941 Y124.642 E0.02166
G1 X25.079 Y122.913 E0.06057
G1 X24.606 Y120.651 E0.07248
G1 X24.606 Y90.095 E0.95806
G1 X25.050 Y88.057 E0.06539
G1 X26.006 Y86.192 E0.06572
G1 X27.487 Y84.638 E0.06730
G1 X26.034 Y83.057 E0.06734
G1 X25.092 Y81.224 E0.06461
G1 X24.609 Y78.989 E0.07169
G1 X24.605 Y50.644 E0.88874
G1 X25.066 Y48.560 E0.06693
G1 X26.005 Y46.741 E0.06417
G1 X27.432 Y45.243 E0.06487
G1 X26.076 Y43.839 E0.06119
G1 X25.122 Y42.072 E0.06297
G1 X24.605 Y39.832 E0.07207
G1 X24.703 Y17.735 E0.69285
G1 X25.432 Y15.466 E0.07472
G1 X26.812 Y13.467 E0.07617
G1 X28.636 Y11.971 E0.07397
G1 X30.051 Y11.306 E0.04903
G1 X31.530 Y10.914 E0.04795
G1 X57.456 Y10.889 E0.81291
G1 X59.198 Y11.332 E0.05636
G1 X60.870 Y12.184 E0.05882
G1 X62.556 Y13.674 E0.07055
G1 X63.768 Y15.504 E0.06882
G1 X64.029 Y16.242 E0.02456
G1 X63.779 Y16.676 F10800.000
G1 F1800
G1 X121.623 Y16.676 E1.81365
G1 X123.647 Y16.856 E0.06372
G1 X125.613 Y17.420 E0.06412
G1 X128.168 Y18.869 E0.09211
G1 X130.256 Y20.969 E0.09285
G1 X154.812 Y56.314 E1.34943
G1 X210.083 Y73.948 E1.81905
G1 X212.537 Y75.347 E0.08855
G1 X214.737 Y77.589 E0.09848
G1 X216.186 Y80.323 E0.09705
G1 X222.131 Y101.950 E0.70324
G1 X222.571 Y104.311 E0.07530
G1 X222.523 Y106.200 E0.05926
G1 X222.124 Y108.076 E0.06012
G1 X216.195 Y129.645 E0.70137
G1 X214.673 Y132.498 E0.10140
G1 X212.616 Y134.593 E0.09205
G1 X210.113 Y136.043 E0.09070
G1 X154.812 Y153.686 E1.82003
G1 X130.258 Y189.029 E1.34933
G1 X128.177 Y191.123 E0.09255
G1 X125.617 Y192.579 E0.09235
G1 X123.649 Y193.144 E0.06421
G1 X121.623 Y193.324 E0.06376
G1 X63.315 Y193.324 E1.82821
G1 X62.642 Y194.489 E0.04218
G1 X61.027 Y196.070 E0.07086
G1 X59.256 Y197.037 E0.06328
G1 X57.340 Y197.500 E0.06180
G1 X56.320 Y197.509 E0.03198
G1 X55.949 Y197.542 E0.01166
