; generated by Slic3r Prusa Edition 1.41.0+win64 on 2019-03-29 at 20:11:20

; 

; external perimeters extrusion width = 0.45mm
; perimeters extrusion width = 0.45mm
; infill extrusion width = 0.45mm
; solid infill extrusion width = 0.45mm
; top infill extrusion width = 0.40mm
; first layer extrusion width = 0.42mm

M201 X1000 Y1000 Z1000 E8000 ; sets maximum accelerations, mm/sec^2
M203 X200 Y200 Z12 E120 ; sets maximum feedrates, mm/sec
M204 P1250 R1250 T1250 ; sets acceleration (P, T) and retract acceleration (R), mm/sec^2
M205 X8.00 Y8.00 Z0.40 E1.50 ; sets the jerk limits, mm/sec
M205 S0 T0 ; sets the minimum extruding and travel feed rate, mm/sec
M107
M107
M115 U3.4.1 ; tell printer latest fw version
M83  ; extruder relative mode
M104 S215 ; set extruder temp
M140 S60 ; set bed temp
M190 S60 ; wait for bed temp
M109 S215 ; wait for extruder temp
G28 W ; home all without mesh bed level
G80 ; mesh bed leveling
G21 ; set units to millimeters

; Send the filament type to the MMU2.0 unit.
; E stands for extruder number, F stands for filament type (0: default; 1:flex; 2: PVA)
M403 E0 F0
M403 E1 F0
M403 E2 F0
M403 E3 F0
M403 E4 F0


;go outside print area
G1 Y-3.0 F1000.0
G1 Z0.4 F1000.0
; select extruder
T0
; initial load
G1 X55.0 E32.0 F1073.0
M73 Q0 S86
M73 P0 R83
G1 X5.0 E32.0 F1800.0
G1 X55.0 E8.0 F2000.0
G1 Z0.3 F1000.0
G92 E0.0
G1 X240.0 E25.0  F2200.0
G1 Y-2.0 F1000.0
G1 X55.0 E25 F1400.0
G1 Z0.20 F1000.0
G1 X5.0 E4.0 F1000.0
G92 E0.0


M221 S95
G90 ; use absolute coordinates
M83 ; use relative distances for extrusion
G92 E0.0
M900 K30; Filament gcode
G21 ; set units to millimeters
G90 ; use absolute coordinates
M83 ; use relative distances for extrusion
;BEFORE_LAYER_CHANGE
G92 E0.0
;0.2


G1 E-0.80000 F2100.00000
G1 Z0.600 F10800.000
;AFTER_LAYER_CHANGE
;0.2
G1 X78.859 Y22.460
G1 Z0.200
G1 E0.80000 F2100.00000
M204 S1000
G1 F1200
G1 X87.230 Y22.415 E0.26247
G1 X88.421 Y22.625 E0.03794
G1 X89.531 Y23.196 E0.03912
G1 X171.788 Y89.370 E3.31009
G1 X172.484 Y90.421 E0.03954
G1 X172.766 Y91.195 E0.02582
G1 X172.887 Y92.115 E0.02908
G1 X172.886 Y117.906 E0.80866
G1 X172.753 Y118.856 E0.03007
G1 X172.389 Y119.783 E0.03124
G1 X171.802 Y120.613 E0.03188
G1 X171.167 Y121.175 E0.02657
G1 X89.480 Y186.844 E3.28627
G1 X88.443 Y187.367 E0.03641
G1 X87.383 Y187.579 E0.03391
G1 X79.194 Y187.582 E0.25675
G1 X78.396 Y187.389 E0.02574
G1 X77.725 Y186.916 E0.02574
G1 X77.276 Y186.228 E0.02574
G1 X77.112 Y185.424 E0.02574
G1 X77.114 Y24.498 E5.04571
G1 X77.265 Y23.797 E0.02247
G1 X77.638 Y23.181 E0.02259
G1 X78.187 Y22.720 E0.02247
G1 X78.803 Y22.482 E0.02071
; PURGING FINISHED
G1 F8640
G1 X82.094 Y22.456 E-0.76000
G1 E-0.04000 F2100.00000
G1 Z0.800 F10800.000
G1 X102.627 Y141.472
G1 Z0.200
G1 E0.80000 F2100.00000
G1 F1200
G1 X103.525 Y141.415 E0.02821
G1 X104.410 Y141.584 E0.02824
G1 X105.224 Y141.967 E0.02821
G1 X105.918 Y142.541 E0.02824
G1 X106.448 Y143.270 E0.02823
G1 X106.779 Y144.107 E0.02824
G1 X106.892 Y145.000 E0.02823
G1 X106.779 Y145.893 E0.02823
G1 X106.448 Y146.730 E0.02824
G1 X105.918 Y147.459 E0.02823
G1 X105.224 Y148.033 E0.02824
G1 X104.410 Y148.416 E0.02821
G1 X103.525 Y148.585 E0.02824
G1 X102.627 Y148.528 E0.02821
G1 X101.771 Y148.250 E0.02822
G1 X101.011 Y147.767 E0.02823
G1 X100.394 Y147.111 E0.02824
G1 X99.961 Y146.322 E0.02823
G1 X99.737 Y145.450 E0.02823
G1 X99.737 Y144.550 E0.02823
G1 X99.961 Y143.678 E0.02823
G1 X100.394 Y142.889 E0.02823
G1 X101.011 Y142.233 E0.02824
G1 X101.771 Y141.750 E0.02823
G1 X102.570 Y141.490 E0.02634
G1 X102.687 Y141.849 F10800.000
G1 F1200
G1 X103.501 Y141.795 E0.02560
G1 X104.292 Y141.945 E0.02525
G1 X105.020 Y142.288 E0.02523
G1 X105.641 Y142.801 E0.02526
G1 X106.114 Y143.453 E0.02524
G1 X106.411 Y144.201 E0.02525
G1 X106.512 Y145.000 E0.02524
G1 X106.411 Y145.799 E0.02524
G1 X106.114 Y146.547 E0.02525
G1 X105.641 Y147.199 E0.02524
G1 X105.020 Y147.712 E0.02526
G1 X104.292 Y148.055 E0.02523
G1 X103.501 Y148.205 E0.02525
G1 X102.698 Y148.155 E0.02523
G1 X101.933 Y147.906 E0.02524
G1 X101.253 Y147.475 E0.02524
G1 X100.702 Y146.888 E0.02525
G1 X100.314 Y146.182 E0.02524
G1 X100.114 Y145.403 E0.02524
G1 X100.114 Y144.597 E0.02524
G1 X100.314 Y143.818 E0.02524
G1 X100.702 Y143.112 E0.02524
G1 X101.253 Y142.525 E0.02525
G1 X101.933 Y142.094 E0.02524
G1 X102.630 Y141.868 E0.02297
G1 X102.817 Y141.471 F10800.000
G1 F8640
G1 X103.501 Y141.795 E-0.20199
G1 X104.292 Y141.945 E-0.18597
G1 X105.020 Y142.288 E-0.18579
G1 X105.641 Y142.801 E-0.18600
G1 X105.642 Y142.802 E-0.00024
G1 E-0.04000 F2100.00000
G1 Z0.800 F10800.000
G1 X100.918 Y139.959
G1 Z0.200
G1 E0.80000 F2100.00000
G1 F1200
G1 X100.224 Y140.533 E0.02824
G1 X99.410 Y140.916 E0.02821
G1 X98.525 Y141.085 E0.02824
G1 X97.627 Y141.028 E0.02821
G1 X96.771 Y140.750 E0.02822
G1 X96.011 Y140.267 E0.02823
G1 X95.394 Y139.611 E0.02824
G1 X94.961 Y138.822 E0.02823
G1 X94.737 Y137.950 E0.02823
G1 X94.737 Y137.050 E0.02823
G1 X94.961 Y136.178 E0.02823
G1 X95.394 Y135.389 E0.02823
G1 X96.011 Y134.733 E0.02824
G1 X96.771 Y134.250 E0.02823
G1 X97.627 Y133.972 E0.02822
G1 X98.525 Y133.915 E0.02821
G1 X99.410 Y134.084 E0.02824
G1 X100.224 Y134.467 E0.02821
G1 X100.918 Y135.041 E0.02824
G1 X101.448 Y135.770 E0.02823
G1 X101.779 Y136.607 E0.02824
G1 X101.892 Y137.500 E0.02823
G1 X101.779 Y138.393 E0.02823
G1 X101.448 Y139.230 E0.02824
G1 X100.954 Y139.910 E0.02635
G1 X100.649 Y139.689 F10800.000
G1 F1200
G1 X100.020 Y140.212 E0.02563
G1 X99.292 Y140.555 E0.02523
G1 X98.501 Y140.705 E0.02525
G1 X97.698 Y140.655 E0.02523
G1 X96.933 Y140.406 E0.02524
G1 X96.253 Y139.975 E0.02524
G1 X95.702 Y139.388 E0.02525
G1 X95.314 Y138.682 E0.02524
G1 X95.114 Y137.903 E0.02524
G1 X95.114 Y137.097 E0.02524
G1 X95.314 Y136.318 E0.02524
G1 X95.702 Y135.612 E0.02524
G1 X96.253 Y135.025 E0.02525
G1 X96.933 Y134.594 E0.02524
G1 X97.698 Y134.345 E0.02524
G1 X98.501 Y134.295 E0.02523
G1 X99.292 Y134.445 E0.02525
G1 X100.020 Y134.788 E0.02523
G1 X100.641 Y135.301 E0.02526
G1 X101.114 Y135.953 E0.02524
G1 X101.411 Y136.701 E0.02525
G1 X101.512 Y137.500 E0.02524
G1 X101.411 Y138.299 E0.02524
G1 X101.114 Y139.047 E0.02525
G1 X100.684 Y139.640 E0.02297
G1 X100.765 Y140.071 F10800.000
G1 F8640
G1 X100.020 Y140.212 E-0.20220
G1 X99.292 Y140.555 E-0.18579
G1 X98.501 Y140.705 E-0.18597
G1 X97.698 Y140.655 E-0.18577
G1 X97.697 Y140.654 E-0.00026
G1 E-0.04000 F2100.00000
G1 Z0.800 F10800.000
G1 X98.525 Y118.085
G1 Z0.200
G1 E0.80000 F2100.00000
G1 F1200
G1 X97.627 Y118.028 E0.02821
G1 X96.771 Y117.750 E0.02822
G1 X96.011 Y117.267 E0.02823
G1 X95.394 Y116.611 E0.02824
G1 X94.961 Y115.822 E0.02823
G1 X94.737 Y114.950 E0.02823
G1 X94.737 Y114.050 E0.02823
G1 X94.961 Y113.178 E0.02823
G1 X95.394 Y112.389 E0.02823
G1 X96.011 Y111.732 E0.02824
G1 X96.771 Y111.250 E0.02823
G1 X97.627 Y110.972 E0.02822
G1 X98.525 Y110.915 E0.02821
G1 X99.410 Y111.084 E0.02824
G1 X100.224 Y111.467 E0.02821
G1 X100.918 Y112.041 E0.02824
G1 X101.448 Y112.770 E0.02823
G1 X101.779 Y113.607 E0.02823
G1 X101.892 Y114.500 E0.02823
G1 X101.779 Y115.393 E0.02823
G1 X101.448 Y116.230 E0.02824
G1 X100.918 Y116.959 E0.02823
G1 X100.224 Y117.533 E0.02824
G1 X99.410 Y117.916 E0.02821
G1 X98.584 Y118.073 E0.02636
G1 X98.513 Y117.703 F10800.000
G1 F1200
G1 X97.698 Y117.655 E0.02560
G1 X96.933 Y117.406 E0.02524
G1 X96.253 Y116.975 E0.02524
G1 X95.702 Y116.388 E0.02525
G1 X95.314 Y115.682 E0.02524
G1 X95.114 Y114.903 E0.02524
G1 X95.114 Y114.097 E0.02524
G1 X95.314 Y113.318 E0.02524
G1 X95.702 Y112.612 E0.02524
G1 X96.253 Y112.025 E0.02525
G1 X96.933 Y111.594 E0.02524
G1 X97.698 Y111.345 E0.02524
G1 X98.501 Y111.295 E0.02523
G1 X99.292 Y111.446 E0.02525
G1 X100.020 Y111.788 E0.02523
G1 X100.641 Y112.301 E0.02526
G1 X101.114 Y112.953 E0.02524
G1 X101.411 Y113.701 E0.02525
G1 X101.512 Y114.500 E0.02524
G1 X101.411 Y115.299 E0.02524
G1 X101.114 Y116.047 E0.02525
G1 X100.641 Y116.699 E0.02524
G1 X100.020 Y117.212 E0.02526
G1 X99.292 Y117.555 E0.02523
G1 X98.572 Y117.692 E0.02298
G1 X98.337 Y118.062 F10800.000
G1 F8640
G1 X97.698 Y117.655 E-0.20200
G1 X96.933 Y117.406 E-0.18585
G1 X96.253 Y116.975 E-0.18590
G1 X95.702 Y116.388 E-0.18592
G1 X95.701 Y116.387 E-0.00033
G1 E-0.04000 F2100.00000
G1 Z0.800 F10800.000
G1 X96.525 Y96.085
G1 Z0.200
G1 E0.80000 F2100.00000
G1 F1200
G1 X95.627 Y96.028 E0.02821
G1 X94.771 Y95.750 E0.02822
G1 X94.011 Y95.267 E0.02823
G1 X93.394 Y94.611 E0.02824
G1 X92.961 Y93.822 E0.02823
G1 X92.737 Y92.950 E0.02823
G1 X92.737 Y92.050 E0.02823
G1 X92.961 Y91.178 E0.02823
G1 X93.394 Y90.389 E0.02823
G1 X94.011 Y89.733 E0.02824
G1 X94.771 Y89.250 E0.02823
G1 X95.627 Y88.972 E0.02822
G1 X96.525 Y88.915 E0.02821
G1 X97.410 Y89.084 E0.02824
G1 X98.224 Y89.467 E0.02821
G1 X98.918 Y90.041 E0.02824
G1 X99.448 Y90.770 E0.02823
G1 X99.779 Y91.607 E0.02823
G1 X99.892 Y92.500 E0.02823
G1 X99.779 Y93.393 E0.02823
G1 X99.448 Y94.230 E0.02824
G1 X98.918 Y94.959 E0.02823
G1 X98.224 Y95.533 E0.02824
G1 X97.410 Y95.916 E0.02821
G1 X96.584 Y96.073 E0.02636
G1 X96.513 Y95.703 F10800.000
G1 F1200
G1 X95.698 Y95.655 E0.02560
G1 X94.933 Y95.406 E0.02524
G1 X94.253 Y94.975 E0.02524
G1 X93.702 Y94.388 E0.02525
G1 X93.314 Y93.682 E0.02524
G1 X93.114 Y92.903 E0.02524
G1 X93.114 Y92.097 E0.02524
G1 X93.314 Y91.318 E0.02524
G1 X93.702 Y90.612 E0.02524
G1 X94.253 Y90.025 E0.02525
G1 X94.933 Y89.594 E0.02524
G1 X95.698 Y89.345 E0.02524
G1 X96.501 Y89.295 E0.02523
G1 X97.292 Y89.445 E0.02525
G1 X98.020 Y89.788 E0.02523
G1 X98.641 Y90.301 E0.02526
G1 X99.114 Y90.953 E0.02524
G1 X99.411 Y91.701 E0.02525
G1 X99.512 Y92.500 E0.02524
G1 X99.411 Y93.299 E0.02524
G1 X99.114 Y94.047 E0.02525
G1 X98.641 Y94.699 E0.02524
G1 X98.020 Y95.212 E0.02526
G1 X97.292 Y95.554 E0.02523
G1 X96.572 Y95.692 E0.02298
G1 X96.337 Y96.062 F10800.000
G1 F8640
G1 X95.698 Y95.655 E-0.20200
G1 X94.933 Y95.406 E-0.18584
G1 X94.253 Y94.975 E-0.18590
G1 X93.702 Y94.388 E-0.18592
G1 X93.701 Y94.387 E-0.00034
G1 E-0.04000 F2100.00000
G1 Z0.800 F10800.000
G1 X130.237 Y88.950
G1 Z0.200
G1 E0.80000 F2100.00000
G1 F1200
G1 X130.237 Y88.050 E0.02823
G1 X130.461 Y87.178 E0.02823
G1 X130.894 Y86.389 E0.02823
G1 X131.511 Y85.733 E0.02824
G1 X132.271 Y85.250 E0.02823
G1 X133.127 Y84.972 E0.02822
G1 X134.025 Y84.915 E0.02821
G1 X134.910 Y85.084 E0.02824
G1 X135.724 Y85.467 E0.02821
G1 X136.418 Y86.041 E0.02824
G1 X136.948 Y86.770 E0.02823
G1 X137.279 Y87.607 E0.02823
G1 X137.392 Y88.500 E0.02823
G1 X137.279 Y89.393 E0.02823
G1 X136.948 Y90.230 E0.02823
G1 X136.418 Y90.959 E0.02823
G1 X135.724 Y91.533 E0.02824
G1 X134.910 Y91.916 E0.02821
G1 X134.025 Y92.085 E0.02824
G1 X133.127 Y92.028 E0.02821
G1 X132.271 Y91.750 E0.02822
G1 X131.511 Y91.267 E0.02823
G1 X130.894 Y90.611 E0.02824
G1 X130.461 Y89.822 E0.02823
G1 X130.252 Y89.008 E0.02635
G1 X130.617 Y88.915 F10800.000
G1 F1200
G1 X130.614 Y88.097 E0.02562
G1 X130.814 Y87.318 E0.02524
G1 X131.202 Y86.612 E0.02524
G1 X131.753 Y86.025 E0.02525
G1 X132.433 Y85.594 E0.02524
G1 X133.198 Y85.345 E0.02524
G1 X134.001 Y85.295 E0.02523
G1 X134.792 Y85.445 E0.02525
G1 X135.520 Y85.788 E0.02523
G1 X136.141 Y86.301 E0.02526
G1 X136.614 Y86.953 E0.02524
G1 X136.911 Y87.701 E0.02525
G1 X137.012 Y88.500 E0.02524
G1 X136.911 Y89.299 E0.02524
G1 X136.614 Y90.047 E0.02525
G1 X136.141 Y90.699 E0.02524
G1 X135.520 Y91.212 E0.02526
G1 X134.792 Y91.555 E0.02523
G1 X134.001 Y91.705 E0.02525
G1 X133.198 Y91.655 E0.02523
G1 X132.433 Y91.406 E0.02524
G1 X131.753 Y90.975 E0.02524
G1 X131.202 Y90.388 E0.02525
G1 X130.814 Y89.682 E0.02524
G1 X130.632 Y88.973 E0.02297
G1 X130.248 Y88.761 F10800.000
G1 F8640
G1 X130.614 Y88.097 E-0.20212
G1 X130.814 Y87.318 E-0.18589
G1 X131.202 Y86.612 E-0.18587
G1 X131.753 Y86.025 E-0.18592
G1 X131.754 Y86.025 E-0.00021
G1 E-0.04000 F2100.00000
G1 Z0.800 F10800.000
G1 X141.237 Y88.950
G1 Z0.200
G1 E0.80000 F2100.00000
G1 F1200
G1 X141.237 Y88.050 E0.02823
G1 X141.461 Y87.178 E0.02823
G1 X141.894 Y86.389 E0.02823
G1 X142.511 Y85.733 E0.02824
G1 X143.271 Y85.250 E0.02823
G1 X144.127 Y84.972 E0.02822
G1 X145.025 Y84.915 E0.02821
G1 X145.910 Y85.084 E0.02824
G1 X146.724 Y85.467 E0.02821
G1 X147.418 Y86.041 E0.02824
G1 X147.948 Y86.770 E0.02823
G1 X148.279 Y87.607 E0.02823
G1 X148.392 Y88.500 E0.02823
G1 X148.279 Y89.393 E0.02823
G1 X147.948 Y90.230 E0.02824
G1 X147.418 Y90.959 E0.02823
G1 X146.724 Y91.533 E0.02824
G1 X145.910 Y91.916 E0.02821
G1 X145.025 Y92.085 E0.02824
G1 X144.127 Y92.028 E0.02821
G1 X143.271 Y91.750 E0.02822
G1 X142.511 Y91.267 E0.02823
G1 X141.894 Y90.611 E0.02824
G1 X141.461 Y89.822 E0.02823
G1 X141.252 Y89.008 E0.02635
G1 X141.617 Y88.915 F10800.000
G1 F1200
G1 X141.614 Y88.097 E0.02562
G1 X141.814 Y87.318 E0.02524
G1 X142.202 Y86.612 E0.02524
G1 X142.753 Y86.025 E0.02525
G1 X143.433 Y85.594 E0.02524
G1 X144.198 Y85.345 E0.02524
G1 X145.001 Y85.295 E0.02523
G1 X145.792 Y85.445 E0.02525
G1 X146.520 Y85.788 E0.02523
G1 X147.141 Y86.301 E0.02526
G1 X147.614 Y86.953 E0.02524
G1 X147.911 Y87.701 E0.02525
G1 X148.012 Y88.500 E0.02524
G1 X147.911 Y89.299 E0.02524
G1 X147.614 Y90.047 E0.02525
G1 X147.141 Y90.699 E0.02524
G1 X146.520 Y91.212 E0.02526
G1 X145.792 Y91.555 E0.02523
G1 X145.001 Y91.705 E0.02525
G1 X144.198 Y91.655 E0.02523
G1 X143.433 Y91.406 E0.02524
G1 X142.753 Y90.975 E0.02524
G1 X142.202 Y90.388 E0.02525
G1 X141.814 Y89.682 E0.02524
G1 X141.632 Y88.973 E0.02297
G1 X141.248 Y88.761 F10800.000
G1 F8640
G1 X141.614 Y88.097 E-0.20212
G1 X141.814 Y87.318 E-0.18589
G1 X142.202 Y86.612 E-0.18587
G1 X142.753 Y86.025 E-0.18592
G1 X142.754 Y86.025 E-0.00021
G1 E-0.04000 F2100.00000
G1 Z0.800 F10800.000
G1 X148.733 Y88.888
G1 Z0.200
G1 E0.80000 F2100.00000
M73 Q1 S85
G1 F1200
G1 X148.733 Y88.112 E0.02430
G1 X148.926 Y87.362 E0.02429
G1 X149.298 Y86.683 E0.02429
G1 X149.829 Y86.118 E0.02432
G1 X150.484 Y85.702 E0.02432
G1 X151.221 Y85.463 E0.02429
G1 X151.936 Y85.418 E0.02245
G1 X152.751 Y85.557 E0.02592
G1 X153.457 Y85.890 E0.02449
G1 X154.053 Y86.384 E0.02427
G1 X154.510 Y87.011 E0.02431
G1 X154.794 Y87.731 E0.02429
G1 X154.892 Y88.500 E0.02430
G1 X154.794 Y89.269 E0.02430
G1 X154.510 Y89.989 E0.02429
G1 X154.053 Y90.616 E0.02431
G1 X153.457 Y91.110 E0.02427
G1 X152.756 Y91.440 E0.02431
G1 X151.994 Y91.586 E0.02431
G1 X151.221 Y91.537 E0.02429
M73 P1 R82
G1 X150.484 Y91.298 E0.02429
G1 X149.829 Y90.882 E0.02432
G1 X149.298 Y90.317 E0.02432
G1 X148.926 Y89.638 E0.02429
G1 X148.748 Y88.946 E0.02241
G1 X149.113 Y88.852 F10800.000
G1 F1200
G1 X149.110 Y88.160 E0.02169
G1 X149.279 Y87.502 E0.02131
G1 X149.606 Y86.906 E0.02130
G1 X150.071 Y86.411 E0.02132
G1 X150.646 Y86.046 E0.02134
G1 X151.292 Y85.836 E0.02131
G1 X151.916 Y85.797 E0.01958
G1 X152.637 Y85.920 E0.02293
G1 X153.253 Y86.211 E0.02138
G1 X153.776 Y86.644 E0.02129
G1 X154.177 Y87.194 E0.02133
G1 X154.426 Y87.826 E0.02131
G1 X154.512 Y88.500 E0.02131
G1 X154.426 Y89.174 E0.02131
G1 X154.177 Y89.806 E0.02131
G1 X153.776 Y90.356 E0.02133
G1 X153.253 Y90.789 E0.02129
G1 X152.638 Y91.079 E0.02131
G1 X151.970 Y91.206 E0.02133
G1 X151.292 Y91.164 E0.02130
G1 X150.646 Y90.954 E0.02131
G1 X150.071 Y90.589 E0.02134
G1 X149.606 Y90.094 E0.02132
G1 X149.279 Y89.498 E0.02130
G1 X149.128 Y88.910 E0.01904
G1 X148.744 Y88.698 F10800.000
G1 F8640
G1 X149.110 Y88.160 E-0.17317
G1 X149.279 Y87.502 E-0.15693
G1 X149.606 Y86.906 E-0.15686
G1 X150.071 Y86.411 E-0.15700
G1 X150.496 Y86.142 E-0.11604
G1 E-0.04000 F2100.00000
G1 Z0.800 F10800.000
G1 X162.961 Y92.678
G1 Z0.200
G1 E0.80000 F2100.00000
G1 F1200
G1 X163.394 Y91.889 E0.02823
G1 X164.011 Y91.233 E0.02824
G1 X164.771 Y90.750 E0.02823
G1 X165.627 Y90.472 E0.02822
G1 X166.525 Y90.415 E0.02821
G1 X167.410 Y90.584 E0.02824
G1 X168.224 Y90.967 E0.02821
G1 X168.918 Y91.541 E0.02824
G1 X169.448 Y92.270 E0.02823
G1 X169.779 Y93.107 E0.02824
G1 X169.892 Y94.000 E0.02823
G1 X169.779 Y94.893 E0.02823
G1 X169.448 Y95.730 E0.02823
G1 X168.918 Y96.459 E0.02823
G1 X168.224 Y97.033 E0.02824
G1 X167.410 Y97.416 E0.02821
G1 X166.525 Y97.585 E0.02824
G1 X165.627 Y97.528 E0.02821
G1 X164.771 Y97.250 E0.02822
G1 X164.011 Y96.768 E0.02823
G1 X163.394 Y96.111 E0.02824
G1 X162.961 Y95.322 E0.02823
