; generated by Slic3r Prusa Edition 1.42.0-beta2+win64 on 2019-04-16 at 09:59:56

; 

; external perimeters extrusion width = 0.45mm
; perimeters extrusion width = 0.45mm
; infill extrusion width = 0.45mm
; solid infill extrusion width = 0.45mm
; top infill extrusion width = 0.40mm
; support material extrusion width = 0.35mm
; first layer extrusion width = 0.42mm

; external perimeters extrusion width = 0.45mm
; perimeters extrusion width = 0.45mm
; infill extrusion width = 0.45mm
; solid infill extrusion width = 0.45mm
; top infill extrusion width = 0.40mm
; support material extrusion width = 0.35mm
; first layer extrusion width = 0.42mm

M73 P0 R237
M73 Q0 S247
M201 X1000 Y1000 Z1000 E8000 ; sets maximum accelerations, mm/sec^2
M203 X200 Y200 Z12 E120 ; sets maximum feedrates, mm/sec
M204 P1250 R1250 T1250 ; sets acceleration (P, T) and retract acceleration (R), mm/sec^2
M205 X8.00 Y8.00 Z0.40 E1.50 ; sets the jerk limits, mm/sec
M205 S0 T0 ; sets the minimum extruding and travel feed rate, mm/sec
M107
M107
M115 U3.6.0 ; tell printer latest fw version
M83  ; extruder relative mode
M104 S255 ; set extruder temp
M140 S100 ; set bed temp
M190 S100 ; wait for bed temp
M109 S255 ; wait for extruder temp
G28 W ; home all without mesh bed level
G80 ; mesh bed leveling
G21 ; set units to millimeters

; Send the filament type to the MMU2.0 unit.
; E stands for extruder number, F stands for filament type (0: default; 1:flex; 2: PVA)
M403 E0 F0
M403 E1 F0
M403 E2 F0
M403 E3 F0
M403 E4 F0


;go outside print area
G1 Y-3.0 F1000.0
G1 Z0.4 F1000.0
; select extruder
T3
; initial load
G1 X55.0 E29.0 F1073.0
M73 Q0 S246
M73 P0 R236
G1 X5.0 E29.0 F1800.0
G1 X55.0 E8.0 F2000.0
G1 Z0.3 F1000.0
G92 E0.0
G1 X240.0 E25.0  F2200.0
G1 Y-2.0 F1000.0
G1 X55.0 E25 F1400.0
G1 Z0.20 F1000.0
G1 X5.0 E4.0 F1000.0
G92 E0.0


M221 S95
G90 ; use absolute coordinates
M83 ; use relative distances for extrusion
G92 E0.0
M900 K30 ; Filament gcode
G21 ; set units to millimeters
G90 ; use absolute coordinates
M83 ; use relative distances for extrusion
T3
M900 K30 ; Filament gcode
;BEFORE_LAYER_CHANGE
G92 E0.0
;0.2


G1 E-0.80000 F2100.00000
G1 Z0.600 F10800.000
;AFTER_LAYER_CHANGE
;0.2
G1 X24.631 Y28.620
G1 Z0.200
G1 E0.80000 F2100.00000
M204 S1000
G1 F1800
G1 X25.086 Y27.014 E0.05234
G1 X28.397 Y19.805 E0.24874
G1 X29.067 Y18.696 E0.04062
G1 X29.874 Y17.683 E0.04062
G1 X30.806 Y16.783 E0.04062
G1 X31.847 Y16.011 E0.04062
G1 X32.978 Y15.381 E0.04062
G1 X34.182 Y14.902 E0.04062
G1 X35.430 Y14.584 E0.04037
G1 X36.716 Y14.429 E0.04062
G1 X126.096 Y14.413 E2.80245
G1 X127.736 Y14.550 E0.05161
G1 X129.960 Y15.058 E0.07153
G1 X132.044 Y15.964 E0.07126
G1 X133.463 Y16.844 E0.05234
G1 X218.040 Y82.378 E3.35476
G1 X219.202 Y83.346 E0.04741
G1 X219.990 Y84.147 E0.03524
G1 X221.503 Y86.227 E0.08064
G1 X221.981 Y87.131 E0.03206
G1 X222.476 Y88.323 E0.04048
G1 X223.003 Y90.087 E0.05771
G1 X223.282 Y92.337 E0.07109
G1 X223.281 Y117.676 E0.79450
G1 X223.092 Y119.404 E0.05450
G1 X222.863 Y120.512 E0.03549
G1 X222.517 Y121.573 E0.03500
G1 X221.806 Y123.229 E0.05651
G1 X221.184 Y124.267 E0.03793
G1 X220.083 Y125.746 E0.05781
G1 X219.254 Y126.606 E0.03744
G1 X218.066 Y127.601 E0.04859
G1 X133.584 Y193.065 E3.35106
G1 X132.241 Y193.933 E0.05014
G1 X130.377 Y194.791 E0.06433
G1 X129.335 Y195.120 E0.03426
G1 X127.970 Y195.408 E0.04374
G1 X126.201 Y195.581 E0.05576
G1 X37.237 Y195.587 E2.78940
G1 X36.052 Y195.513 E0.03720
G1 X34.878 Y195.297 E0.03744
G1 X33.745 Y194.945 E0.03720
G1 X32.661 Y194.462 E0.03720
G1 X31.343 Y193.642 E0.04868
G1 X30.168 Y192.627 E0.04868
G1 X29.165 Y191.442 E0.04868
G1 X28.357 Y190.117 E0.04868
G1 X27.930 Y189.153 E0.03304
G1 X24.949 Y181.168 E0.26724
G1 X24.591 Y179.738 E0.04624
G1 X24.448 Y178.278 E0.04599
G1 X24.448 Y30.287 E4.64014
G1 X24.624 Y28.680 E0.05070
G1 F8640
G1 X25.086 Y27.014 E-0.39911
G1 X25.739 Y25.594 E-0.36089
G1 E-0.04000 F2100.00000
G1 Z0.800 F10800.000
G1 X26.964 Y144.881
G1 Z0.200
G1 E0.80000 F2100.00000
G1 F1800
G1 X26.303 Y144.141 E0.03111
G1 X25.218 Y142.026 E0.07452
G1 X24.633 Y139.278 E0.08809
G1 X24.633 Y110.874 E0.89059
G1 X25.197 Y108.322 E0.08193
G1 X26.234 Y106.291 E0.07151
G1 X26.964 Y105.478 E0.03426
G1 X26.303 Y104.738 E0.03111
G1 X25.218 Y102.623 E0.07452
G1 X24.633 Y99.875 E0.08809
G1 X24.633 Y69.147 E0.96348
G1 X25.227 Y66.526 E0.08426
G1 X26.068 Y64.891 E0.05763
G1 X25.188 Y63.135 E0.06160
G1 X24.633 Y60.476 E0.08517
G1 X24.633 Y29.752 E0.96334
G1 X25.163 Y27.294 E0.07881
G1 X26.233 Y25.170 E0.07458
G1 X27.721 Y23.549 E0.06897
G1 X27.795 Y22.625 E0.02908
G1 X28.774 Y19.819 E0.09317
G1 X30.227 Y17.845 E0.07685
G1 X32.102 Y16.255 E0.07709
G1 X34.235 Y15.244 E0.07400
G1 X36.589 Y14.790 E0.07518
G1 X126.537 Y14.794 E2.82024
G1 X129.281 Y15.246 E0.08719
G1 X131.880 Y16.280 E0.08773
G1 X135.389 Y19.065 E0.14045
G1 X163.008 Y55.255 E1.42740
G1 X206.862 Y75.285 E1.51166
G1 X217.542 Y82.470 E0.40357
G1 X219.927 Y84.642 E0.10116
G1 X221.301 Y86.627 E0.07568
G1 X222.277 Y88.813 E0.07506
G1 X222.916 Y92.431 E0.11521
G1 X222.916 Y117.522 E0.78672
G1 X222.509 Y120.375 E0.09033
G1 X221.461 Y123.080 E0.09095
G1 X219.872 Y125.417 E0.08863
G1 X217.763 Y127.357 E0.08986
G1 X206.863 Y134.714 E0.41233
G1 X163.008 Y154.745 E1.51167
G1 X135.449 Y190.856 E1.42431
G1 X133.221 Y192.874 E0.09425
M73 Q0 S245
G1 X130.570 Y194.324 E0.09472
G1 X126.581 Y195.210 E0.12814
G1 X36.330 Y195.210 E2.82975
M73 P0 R235
G1 X32.365 Y193.919 E0.13073
G1 X30.829 Y192.752 E0.06048
G1 X29.512 Y191.329 E0.06081
G1 X28.487 Y189.601 E0.06299
G1 X27.747 Y187.122 E0.08112
G1 X27.696 Y185.066 E0.06447
G1 X26.262 Y183.483 E0.06697
G1 X25.162 Y181.270 E0.07750
G1 X24.633 Y178.678 E0.08292
G1 X24.633 Y150.277 E0.89051
G1 X25.197 Y147.725 E0.08193
G1 X26.234 Y145.694 E0.07151
G1 X26.924 Y144.926 E0.03237
G1 F8640
G1 X26.303 Y144.141 E-0.23107
G1 X25.258 Y142.103 E-0.52893
G1 E-0.04000 F2100.00000
G1 Z0.800 F10800.000
G1 X28.070 Y184.917
G1 Z0.200
G1 E0.80000 F2100.00000
G1 F1800
G1 X26.588 Y183.292 E0.06896
G1 X25.511 Y181.124 E0.07590
G1 X25.010 Y178.659 E0.07885
G1 X25.010 Y150.297 E0.88928
G1 X25.544 Y147.875 E0.07776
G1 X26.558 Y145.888 E0.06994
G1 X27.475 Y144.881 E0.04270
G1 X26.627 Y143.946 E0.03959
G1 X25.565 Y141.876 E0.07293
G1 X25.010 Y139.258 E0.08390
G1 X25.010 Y110.894 E0.88933
G1 X25.544 Y108.472 E0.07776
G1 X26.558 Y106.486 E0.06994
G1 X27.475 Y105.479 E0.04270
G1 X26.627 Y104.543 E0.03959
G1 X25.565 Y102.473 E0.07293
G1 X25.010 Y99.856 E0.08390
G1 X25.010 Y69.168 E0.96220
G1 X25.589 Y66.633 E0.08151
G1 X26.492 Y64.894 E0.06146
G1 X25.552 Y63.033 E0.06538
G1 X25.010 Y60.456 E0.08255
G1 X25.010 Y29.771 E0.96210
G1 X25.511 Y27.442 E0.07469
G1 X26.558 Y25.363 E0.07299
G1 X28.087 Y23.708 E0.07066
G1 X28.160 Y22.724 E0.03094
G1 X29.095 Y20.019 E0.08975
G1 X30.489 Y18.118 E0.07391
G1 X32.287 Y16.584 E0.07410
G1 X34.331 Y15.610 E0.07099
G1 X36.608 Y15.167 E0.07272
G1 X126.521 Y15.171 E2.81918
G1 X129.199 Y15.615 E0.08509
G1 X131.715 Y16.620 E0.08496
G1 X135.104 Y19.312 E0.13570
G1 X162.765 Y55.559 E1.42963
G1 X206.691 Y75.622 E1.51413
G1 X217.320 Y82.775 E0.40169
G1 X219.630 Y84.875 E0.09788
G1 X220.964 Y86.796 E0.07335
G1 X221.923 Y88.945 E0.07377
G1 X222.538 Y92.448 E0.11150
G1 X222.538 Y117.509 E0.78578
G1 X222.139 Y120.300 E0.08839
G1 X221.118 Y122.922 E0.08825
G1 X219.573 Y125.186 E0.08593
G1 X217.518 Y127.069 E0.08739
G1 X206.692 Y134.378 E0.40956
G1 X162.765 Y154.441 E1.51414
G1 X135.160 Y190.614 E1.42672
G1 X132.985 Y192.579 E0.09191
G1 X130.414 Y193.980 E0.09181
G1 X126.560 Y194.833 E0.12374
G1 X36.360 Y194.833 E2.82817
G1 X32.568 Y193.600 E0.12501
G1 X31.071 Y192.462 E0.05897
G1 X29.803 Y191.088 E0.05862
G1 X28.824 Y189.429 E0.06039
G1 X28.116 Y187.039 E0.07816
G1 X28.071 Y184.977 E0.06469
G1 X28.444 Y184.767 F10800.000
G1 F1800
G1 X26.914 Y183.100 E0.07097
G1 X25.859 Y180.978 E0.07427
G1 X25.388 Y178.641 E0.07477
G1 X25.388 Y150.318 E0.88805
G1 X25.891 Y148.025 E0.07359
G1 X26.882 Y146.083 E0.06836
G1 X27.989 Y144.882 E0.05122
G1 X26.951 Y143.751 E0.04814
G1 X25.912 Y141.727 E0.07133
G1 X25.388 Y139.239 E0.07972
G1 X25.388 Y110.915 E0.88808
G1 X25.891 Y108.622 E0.07359
G1 X26.882 Y106.680 E0.06836
G1 X27.989 Y105.479 E0.05122
G1 X26.951 Y104.348 E0.04814
G1 X25.912 Y102.324 E0.07133
G1 X25.388 Y99.836 E0.07972
G1 X25.388 Y69.189 E0.96091
G1 X25.951 Y66.742 E0.07874
G1 X26.917 Y64.896 E0.06532
G1 X25.916 Y62.930 E0.06919
G1 X25.388 Y60.436 E0.07992
G1 X25.388 Y29.791 E0.96085
G1 X25.858 Y27.590 E0.07057
G1 X26.882 Y25.557 E0.07138
G1 X28.455 Y23.867 E0.07239
G1 X28.525 Y22.823 E0.03280
G1 X29.442 Y20.170 E0.08803
G1 X30.779 Y18.359 E0.07055
G1 X32.512 Y16.888 E0.07128
G1 X34.470 Y15.961 E0.06794
G1 X36.625 Y15.545 E0.06882
G1 X126.506 Y15.548 E2.81813
G1 X129.116 Y15.983 E0.08298
G1 X131.549 Y16.960 E0.08219
G1 X134.818 Y19.560 E0.13096
G1 X162.523 Y55.863 E1.43186
G1 X206.521 Y75.959 E1.51660
G1 X217.098 Y83.080 E0.39981
G1 X219.332 Y85.108 E0.09460
G1 X220.644 Y86.997 E0.07211
G1 X221.569 Y89.077 E0.07137
G1 X222.161 Y92.464 E0.10780
G1 X222.161 Y117.496 E0.78486
G1 X221.780 Y120.184 E0.08513
G1 X220.794 Y122.728 E0.08555
G1 X219.274 Y124.956 E0.08456
G1 X217.274 Y126.782 E0.08491
G1 X206.521 Y134.041 E0.40681
G1 X162.523 Y154.137 E1.51661
G1 X134.871 Y190.371 E1.42913
G1 X132.749 Y192.284 E0.08957
G1 X130.257 Y193.636 E0.08889
G1 X126.540 Y194.455 E0.11935
G1 X36.389 Y194.455 E2.82661
G1 X32.771 Y193.280 E0.11928
G1 X31.313 Y192.172 E0.05744
G1 X30.094 Y190.848 E0.05642
G1 X29.161 Y189.259 E0.05778
G1 X28.485 Y186.958 E0.07519
G1 X28.445 Y184.827 E0.06682
G1 X28.819 Y184.617 F10800.000
G1 F1800
G1 X27.239 Y182.907 E0.07299
G1 X26.208 Y180.833 E0.07264
G1 X25.765 Y178.622 E0.07070
G1 X25.765 Y150.338 E0.88684
G1 X26.238 Y148.175 E0.06942
G1 X27.206 Y146.278 E0.06676
G1 X28.505 Y144.882 E0.05979
G1 X27.274 Y143.555 E0.05675
G1 X26.259 Y141.577 E0.06971
G1 X25.765 Y139.219 E0.07553
G1 X25.765 Y110.935 E0.88684
G1 X26.238 Y108.772 E0.06942
G1 X27.206 Y106.876 E0.06676
G1 X28.505 Y105.479 E0.05979
G1 X27.274 Y104.152 E0.05675
G1 X26.259 Y102.174 E0.06971
G1 X25.765 Y99.817 E0.07553
G1 X25.765 Y69.211 E0.95962
G1 X26.312 Y66.851 E0.07595
G1 X27.213 Y65.143 E0.06054
G1 X27.408 Y64.911 E0.00949
G1 X27.244 Y64.708 E0.00818
G1 X26.279 Y62.826 E0.06630
G1 X25.765 Y60.416 E0.07727
G1 X25.765 Y29.811 E0.95959
G1 X26.222 Y27.694 E0.06792
G1 X27.206 Y25.752 E0.06827
G1 X28.824 Y24.025 E0.07419
G1 X28.890 Y22.921 E0.03468
G1 X29.789 Y20.321 E0.08628
G1 X31.068 Y18.602 E0.06716
G1 X32.736 Y17.192 E0.06848
G1 X34.609 Y16.312 E0.06489
G1 X36.643 Y15.922 E0.06495
G1 X126.490 Y15.925 E2.81709
G1 X128.995 Y16.341 E0.07961
G1 X131.383 Y17.300 E0.08068
G1 X134.532 Y19.807 E0.12622
G1 X162.280 Y56.167 E1.43409
M73 Q1 S244
G1 X206.350 Y76.295 E1.51908
G1 X216.876 Y83.386 E0.39794
G1 X219.035 Y85.341 E0.09133
G1 X220.307 Y87.166 E0.06976
G1 X221.215 Y89.209 E0.07008
G1 X221.784 Y92.480 E0.10411
G1 X221.784 Y117.482 E0.78393
M73 P1 R234
G1 X221.409 Y120.109 E0.08319
G1 X220.451 Y122.571 E0.08284
G1 X218.976 Y124.724 E0.08185
G1 X217.031 Y126.493 E0.08243
G1 X206.350 Y133.705 E0.40407
G1 X162.280 Y153.833 E1.51908
G1 X134.582 Y190.128 E1.43154
G1 X132.549 Y191.963 E0.08587
G1 X130.149 Y193.273 E0.08571
G1 X126.519 Y194.078 E0.11658
G1 X36.419 Y194.078 E2.82503
G1 X32.974 Y192.961 E0.11356
G1 X31.554 Y191.882 E0.05591
G1 X30.386 Y190.608 E0.05420
G1 X29.498 Y189.089 E0.05517
G1 X28.854 Y186.877 E0.07223
G1 X28.820 Y184.677 E0.06900
G1 X29.195 Y184.466 F10800.000
G1 F1800
G1 X27.564 Y182.714 E0.07506
G1 X26.573 Y180.733 E0.06945
G1 X26.142 Y178.603 E0.06814
G1 X26.142 Y150.358 E0.88561
G1 X26.585 Y148.325 E0.06525
G1 X27.530 Y146.474 E0.06515
G1 X29.023 Y144.883 E0.06842
G1 X27.598 Y143.359 E0.06540
G1 X26.607 Y141.427 E0.06808
G1 X26.142 Y139.200 E0.07134
G1 X26.142 Y110.955 E0.88560
G1 X26.585 Y108.922 E0.06525
G1 X27.530 Y107.071 E0.06515
G1 X29.023 Y105.480 E0.06842
G1 X27.598 Y103.957 E0.06540
G1 X26.607 Y102.025 E0.06808
G1 X26.142 Y99.797 E0.07134
G1 X26.142 Y69.233 E0.95833
G1 X26.674 Y66.962 E0.07315
G1 X27.534 Y65.344 E0.05746
G1 X27.919 Y64.912 E0.01814
G1 X27.567 Y64.510 E0.01676
G1 X26.643 Y62.722 E0.06312
G1 X26.142 Y60.396 E0.07460
G1 X26.142 Y29.832 E0.95832
G1 X26.585 Y27.798 E0.06525
G1 X27.530 Y25.948 E0.06515
G1 X29.194 Y24.183 E0.07605
G1 X29.255 Y23.019 E0.03655
G1 X30.136 Y20.472 E0.08449
G1 X31.356 Y18.846 E0.06374
G1 X32.959 Y17.497 E0.06570
G1 X34.747 Y16.664 E0.06183
G1 X36.661 Y16.299 E0.06110
G1 X126.474 Y16.302 E2.81604
G1 X128.912 Y16.709 E0.07749
G1 X131.216 Y17.639 E0.07790
G1 X134.247 Y20.054 E0.12150
G1 X162.038 Y56.471 E1.43633
G1 X206.179 Y76.632 E1.52155
G1 X216.655 Y83.691 E0.39607
G1 X218.738 Y85.574 E0.08807
G1 X219.987 Y87.367 E0.06851
G1 X220.860 Y89.340 E0.06765
G1 X221.407 Y92.496 E0.10043
G1 X221.407 Y117.469 E0.78301
G1 X221.050 Y119.993 E0.07992
G1 X220.127 Y122.376 E0.08011
G1 X218.677 Y124.493 E0.08046
G1 X216.788 Y126.205 E0.07995
G1 X206.179 Y133.368 E0.40135
G1 X162.038 Y153.529 E1.52155
G1 X134.293 Y189.886 E1.43395
G1 X132.313 Y191.668 E0.08352
G1 X129.993 Y192.929 E0.08280
G1 X126.499 Y193.701 E0.11219
G1 X36.449 Y193.701 E2.82344
G1 X33.122 Y192.613 E0.10975
G1 X31.798 Y191.594 E0.05240
G1 X30.678 Y190.369 E0.05203
G1 X29.836 Y188.920 E0.05255
G1 X29.223 Y186.797 E0.06926
G1 X29.196 Y184.526 E0.07121
G1 X29.570 Y184.315 F10800.000
G1 F1800
G1 X27.888 Y182.520 E0.07714
G1 X26.937 Y180.633 E0.06625
G1 X26.519 Y178.584 E0.06556
G1 X26.519 Y150.379 E0.88436
G1 X26.948 Y148.430 E0.06256
G1 X27.852 Y146.670 E0.06203
G1 X29.542 Y144.883 E0.07712
G1 X27.921 Y143.163 E0.07411
G1 X26.954 Y141.278 E0.06643
G1 X26.519 Y139.181 E0.06715
G1 X26.519 Y110.976 E0.88435
G1 X26.948 Y109.027 E0.06256
G1 X27.852 Y107.268 E0.06203
G1 X29.542 Y105.480 E0.07712
G1 X27.921 Y103.760 E0.07411
G1 X26.954 Y101.875 E0.06643
G1 X26.519 Y99.778 E0.06715
G1 X26.519 Y69.255 E0.95705
G1 X27.018 Y67.117 E0.06883
G1 X27.855 Y65.543 E0.05589
G1 X28.433 Y64.914 E0.02680
G1 X27.890 Y64.314 E0.02538
G1 X26.989 Y62.571 E0.06151
G1 X26.519 Y60.376 E0.07039
G1 X26.519 Y29.853 E0.95705
G1 X26.948 Y27.904 E0.06256
G1 X27.852 Y26.145 E0.06203
G1 X29.564 Y24.341 E0.07798
G1 X29.621 Y23.115 E0.03848
G1 X30.456 Y20.674 E0.08089
G1 X31.616 Y19.120 E0.06081
G1 X33.142 Y17.828 E0.06270
G1 X34.842 Y17.030 E0.05885
G1 X36.679 Y16.676 E0.05867
G1 X126.459 Y16.679 E2.81498
G1 X128.829 Y17.078 E0.07536
G1 X131.049 Y17.978 E0.07512
G1 X133.961 Y20.301 E0.11679
G1 X161.795 Y56.774 E1.43856
G1 X206.008 Y76.968 E1.52402
G1 X216.433 Y83.996 E0.39419
G1 X218.442 Y85.808 E0.08482
G1 X219.650 Y87.536 E0.06612
G1 X220.506 Y89.471 E0.06634
G1 X221.030 Y92.512 E0.09674
G1 X221.030 Y117.456 E0.78209
G1 X220.680 Y119.918 E0.07799
G1 X219.784 Y122.218 E0.07739
G1 X218.379 Y124.261 E0.07772
G1 X216.545 Y125.916 E0.07747
G1 X206.008 Y133.032 E0.39865
G1 X161.795 Y153.226 E1.52402
G1 X134.003 Y189.643 E1.43636
G1 X132.112 Y191.348 E0.07983
G1 X129.885 Y192.567 E0.07963
G1 X126.478 Y193.324 E0.10941
G1 X36.479 Y193.324 E2.82186
G1 X33.326 Y192.294 E0.10399
G1 X32.065 Y191.327 E0.04984
G1 X30.971 Y190.130 E0.05085
G1 X30.174 Y188.751 E0.04992
G1 X29.600 Y186.767 E0.06475
G1 X29.571 Y184.375 E0.07501
G1 X29.945 Y184.100 F10800.000
G1 F1800
G1 X29.769 Y183.976 E0.00675
G1 X28.212 Y182.324 E0.07117
G1 X27.301 Y180.532 E0.06305
G1 X26.896 Y178.565 E0.06297
G1 X26.896 Y150.399 E0.88310
G1 X27.310 Y148.536 E0.05985
G1 X28.175 Y146.868 E0.05890
G1 X29.731 Y145.232 E0.07080
G1 X29.914 Y145.104 E0.00700
G1 X29.914 Y144.680 E0.01331
G1 X29.769 Y144.574 E0.00563
G1 X28.244 Y142.967 E0.06946
G1 X27.301 Y141.129 E0.06477
G1 X26.896 Y139.162 E0.06297
G1 X26.896 Y110.997 E0.88310
G1 X27.310 Y109.133 E0.05985
G1 X28.175 Y107.465 E0.05890
G1 X29.731 Y105.829 E0.07080
G1 X29.914 Y105.701 E0.00700
G1 X29.914 Y105.277 E0.01331
G1 X29.769 Y105.171 E0.00563
G1 X28.244 Y103.564 E0.06946
G1 X27.301 Y101.726 E0.06477
G1 X26.896 Y99.759 E0.06297
G1 X26.896 Y69.276 E0.95578
G1 X27.363 Y67.272 E0.06451
G1 X28.176 Y65.743 E0.05431
G1 X28.951 Y64.915 E0.03556
G1 X28.213 Y64.117 E0.03408
