; generated by Slic3r Prusa Edition 1.41.0+win64 on 2019-03-05 at 22:07:17

; 

; external perimeters extrusion width = 0.45mm
; perimeters extrusion width = 0.45mm
; infill extrusion width = 0.45mm
; solid infill extrusion width = 0.45mm
; top infill extrusion width = 0.40mm
; first layer extrusion width = 0.42mm

M201 X1000 Y1000 Z1000 E8000 ; sets maximum accelerations, mm/sec^2
M203 X200 Y200 Z12 E120 ; sets maximum feedrates, mm/sec
M204 P1250 R1250 T1250 ; sets acceleration (P, T) and retract acceleration (R), mm/sec^2
M205 X8.00 Y8.00 Z0.40 E1.50 ; sets the jerk limits, mm/sec
M205 S0 T0 ; sets the minimum extruding and travel feed rate, mm/sec
M107
M107
M115 U3.4.1 ; tell printer latest fw version
M83  ; extruder relative mode
M104 S215 ; set extruder temp
M140 S60 ; set bed temp
M190 S60 ; wait for bed temp
M109 S215 ; wait for extruder temp
G28 W ; home all without mesh bed level
G80 ; mesh bed leveling
G21 ; set units to millimeters

; Send the filament type to the MMU2.0 unit.
; E stands for extruder number, F stands for filament type (0: default; 1:flex; 2: PVA)
M403 E0 F0
M403 E1 F0
M403 E2 F0
M403 E3 F0
M403 E4 F0


;go outside print area
G1 Y-3.0 F1000.0
G1 Z0.4 F1000.0
; select extruder
T0
; initial load
G1 X55.0 E32.0 F1073.0
M73 Q0 S117
M73 P0 R113
G1 X5.0 E32.0 F1800.0
G1 X55.0 E8.0 F2000.0
G1 Z0.3 F1000.0
G92 E0.0
G1 X240.0 E25.0  F2200.0
G1 Y-2.0 F1000.0
G1 X55.0 E25 F1400.0
G1 Z0.20 F1000.0
G1 X5.0 E4.0 F1000.0
G92 E0.0


M221 S95
G90 ; use absolute coordinates
M83 ; use relative distances for extrusion
G92 E0.0
M900 K30; Filament gcode
G21 ; set units to millimeters
G90 ; use absolute coordinates
M83 ; use relative distances for extrusion
;BEFORE_LAYER_CHANGE
G92 E0.0
;0.2


G1 E-0.80000 F2100.00000
G1 Z0.600 F10800.000
;AFTER_LAYER_CHANGE
;0.2
G1 X46.050 Y77.664
G1 Z0.200
G1 E0.80000 F2100.00000
M204 S1000
G1 F1200
G1 X47.113 Y76.501 E0.04941
G1 X48.094 Y75.724 E0.03923
G1 X49.008 Y75.162 E0.03364
G1 X134.622 Y28.654 E3.05488
G1 X135.385 Y28.299 E0.02638
G1 X136.373 Y27.966 E0.03269
G1 X137.487 Y27.722 E0.03576
G1 X138.885 Y27.628 E0.04394
G1 X204.999 Y27.628 E2.07294
G1 X206.334 Y27.758 E0.04208
G1 X207.627 Y28.145 E0.04228
G1 X208.815 Y28.769 E0.04208
G1 X209.866 Y29.613 E0.04228
G1 X210.732 Y30.639 E0.04208
G1 X211.387 Y31.817 E0.04228
G1 X211.803 Y33.094 E0.04208
G1 X211.966 Y34.432 E0.04228
G1 X211.966 Y175.546 E4.42452
G1 X211.898 Y176.384 E0.02638
G1 X211.727 Y177.215 E0.02658
G1 X211.456 Y178.018 E0.02658
G1 X211.094 Y178.777 E0.02638
G1 X210.642 Y179.487 E0.02638
G1 X210.104 Y180.142 E0.02658
G1 X209.496 Y180.723 E0.02638
G1 X208.816 Y181.230 E0.02658
G1 X207.951 Y181.713 E0.03107
G1 X207.026 Y182.069 E0.03107
G1 X206.060 Y182.290 E0.03107
G1 X205.072 Y182.372 E0.03107
G1 X138.885 Y182.372 E2.07526
G1 X137.500 Y182.280 E0.04352
G1 X136.398 Y182.042 E0.03536
G1 X135.397 Y181.705 E0.03312
G1 X134.628 Y181.349 E0.02658
G1 X48.965 Y134.814 E3.05661
G1 X47.940 Y134.172 E0.03791
G1 X47.241 Y133.617 E0.02801
G1 X46.336 Y132.681 E0.04083
G1 X45.756 Y131.917 E0.03005
G1 X45.060 Y130.689 E0.04426
G1 X44.654 Y129.651 E0.03495
G1 X38.417 Y107.624 E0.71781
G1 X38.088 Y106.106 E0.04869
G1 X38.038 Y104.460 E0.05163
G1 X38.142 Y103.514 E0.02985
G1 X38.406 Y102.415 E0.03543
G1 X44.748 Y80.059 E0.72862
G1 X45.202 Y79.034 E0.03515
G1 X46.018 Y77.715 E0.04863
G1 F8640
G1 X47.113 Y76.501 E-0.37748
G1 X48.094 Y75.724 E-0.28889
G1 X48.439 Y75.512 E-0.09362
G1 E-0.04000 F2100.00000
G1 Z0.800 F10800.000
G1 X106.304 Y135.495
G1 Z0.200
G1 E0.80000 F2100.00000
G1 F1200
G1 X53.103 Y135.492 E1.66809
G1 X51.019 Y135.220 E0.06588
G1 X49.012 Y134.414 E0.06780
G1 X47.309 Y133.171 E0.06613
G1 X45.955 Y131.544 E0.06636
G1 X45.067 Y129.730 E0.06334
G1 X38.760 Y107.453 E0.72590
G1 X38.452 Y106.000 E0.04659
G1 X38.404 Y104.505 E0.04689
G1 X38.753 Y102.572 E0.06159
G1 X45.086 Y80.202 E0.72895
G1 X46.568 Y77.605 E0.09377
G1 X47.679 Y76.501 E0.04910
G1 X48.982 Y75.599 E0.04968
G1 X50.973 Y74.792 E0.06737
G1 X53.149 Y74.505 E0.06882
G1 X106.304 Y74.505 E1.66664
G1 X131.687 Y31.740 E1.55927
M73 Q1 S116
M73 P1 R112
G1 X133.746 Y29.628 E0.09247
G1 X135.094 Y28.837 E0.04901
G1 X136.585 Y28.286 E0.04985
G1 X138.753 Y28.005 E0.06854
G1 X205.568 Y28.009 E2.09493
G1 X206.917 Y28.257 E0.04302
G1 X208.199 Y28.788 E0.04350
G1 X209.864 Y30.130 E0.06707
G1 X211.054 Y31.914 E0.06724
G1 X211.591 Y33.971 E0.06666
G1 X211.591 Y175.930 E4.45101
G1 X211.313 Y177.407 E0.04714
G1 X210.713 Y178.759 E0.04638
G1 X209.487 Y180.237 E0.06019
G1 X208.513 Y181.034 E0.03946
G1 X205.693 Y181.995 E0.09343
G1 X138.752 Y181.995 E2.09888
G1 X136.581 Y181.713 E0.06865
G1 X135.089 Y181.160 E0.04989
G1 X133.742 Y180.369 E0.04897
G1 X131.687 Y178.259 E0.09235
G1 X106.335 Y135.546 E1.55737
G1 X106.519 Y135.118 F10800.000
G1 F1200
G1 X53.139 Y135.116 E1.67370
G1 X51.136 Y134.860 E0.06329
G1 X49.215 Y134.095 E0.06483
G1 X47.550 Y132.880 E0.06463
G1 X46.260 Y131.321 E0.06346
G1 X45.425 Y129.611 E0.05967
G1 X39.125 Y107.357 E0.72518
G1 X38.824 Y105.939 E0.04546
G1 X38.782 Y104.514 E0.04468
G1 X39.118 Y102.666 E0.05889
G1 X45.443 Y80.327 E0.72796
G1 X46.852 Y77.854 E0.08924
G1 X47.933 Y76.781 E0.04776
G1 X49.178 Y75.922 E0.04745
G1 X51.091 Y75.151 E0.06467
G1 X53.161 Y74.882 E0.06544
G1 X106.519 Y74.882 E1.67300
G1 X132.000 Y31.952 E1.56530
G1 X133.958 Y29.941 E0.08801
G1 X135.270 Y29.171 E0.04768
G1 X136.695 Y28.647 E0.04760
G1 X138.765 Y28.382 E0.06543
G1 X205.550 Y28.386 E2.09401
G1 X206.828 Y28.623 E0.04075
G1 X208.028 Y29.125 E0.04078
G1 X209.605 Y30.405 E0.06367
G1 X210.698 Y32.041 E0.06170
G1 X211.214 Y33.996 E0.06339
G1 X211.214 Y175.912 E4.44970
G1 X210.959 Y177.275 E0.04345
G1 X210.379 Y178.582 E0.04485
G1 X209.210 Y179.981 E0.05716
G1 X208.302 Y180.720 E0.03672
G1 X205.662 Y181.618 E0.08742
G1 X138.764 Y181.618 E2.09754
G1 X136.691 Y181.352 E0.06553
G1 X135.265 Y180.827 E0.04764
G1 X133.955 Y180.057 E0.04765
G1 X132.000 Y178.048 E0.08790
G1 X106.549 Y135.169 E1.56341
G1 X106.733 Y134.741 F10800.000
G1 F1200
G1 X53.173 Y134.741 E1.67934
G1 X51.252 Y134.501 E0.06071
G1 X49.417 Y133.776 E0.06186
G1 X47.826 Y132.621 E0.06166
G1 X46.565 Y131.098 E0.06199
G1 X45.784 Y129.492 E0.05600
G1 X39.489 Y107.260 E0.72447
G1 X39.201 Y105.910 E0.04328
G1 X39.159 Y104.523 E0.04351
G1 X39.484 Y102.761 E0.05619
G1 X45.799 Y80.452 E0.72697
G1 X47.136 Y78.103 E0.08473
G1 X48.161 Y77.082 E0.04537
G1 X49.375 Y76.244 E0.04624
G1 X51.209 Y75.510 E0.06194
G1 X53.173 Y75.259 E0.06208
G1 X106.733 Y75.259 E1.67936
G1 X132.313 Y32.163 E1.57134
G1 X134.172 Y30.253 E0.08358
G1 X135.417 Y29.519 E0.04530
G1 X136.805 Y29.008 E0.04639
G1 X138.776 Y28.759 E0.06231
G1 X205.532 Y28.763 E2.09308
M73 Q2 S115
M73 P2 R111
G1 X206.738 Y28.990 E0.03847
G1 X207.856 Y29.461 E0.03804
G1 X209.343 Y30.678 E0.06025
G1 X210.366 Y32.223 E0.05808
G1 X210.837 Y34.020 E0.05825
G1 X210.837 Y175.895 E4.44839
G1 X210.593 Y177.182 E0.04109
G1 X210.046 Y178.403 E0.04195
G1 X208.934 Y179.724 E0.05413
G1 X208.091 Y180.406 E0.03400
G1 X205.631 Y181.241 E0.08144
G1 X138.776 Y181.241 E2.09620
G1 X136.801 Y180.991 E0.06241
G1 X135.412 Y180.479 E0.04643
G1 X134.169 Y179.745 E0.04526
G1 X132.313 Y177.836 E0.08347
G1 X106.764 Y134.792 E1.56944
G1 X106.948 Y134.364 F10800.000
G1 F1200
G1 X53.185 Y134.364 E1.68570
G1 X51.323 Y134.130 E0.05884
G1 X49.579 Y133.435 E0.05886
G1 X48.067 Y132.331 E0.05869
G1 X46.870 Y130.876 E0.05907
G1 X46.142 Y129.374 E0.05236
G1 X39.854 Y107.163 E0.72377
G1 X39.573 Y105.848 E0.04215
G1 X39.537 Y104.533 E0.04126
G1 X39.849 Y102.855 E0.05351
G1 X46.156 Y80.576 E0.72599
G1 X47.421 Y78.352 E0.08022
G1 X48.415 Y77.361 E0.04403
G1 X49.571 Y76.567 E0.04398
G1 X51.281 Y75.881 E0.05776
G1 X53.185 Y75.636 E0.06019
G1 X106.948 Y75.636 E1.68571
G1 X132.626 Y32.375 E1.57738
G1 X134.385 Y30.565 E0.07914
G1 X135.593 Y29.853 E0.04396
G1 X136.914 Y29.370 E0.04410
G1 X138.788 Y29.136 E0.05921
G1 X205.515 Y29.140 E2.09218
G1 X206.610 Y29.345 E0.03494
G1 X207.684 Y29.798 E0.03654
G1 X209.082 Y30.951 E0.05681
G1 X210.010 Y32.349 E0.05263
G1 X210.460 Y34.045 E0.05499
G1 X210.460 Y175.876 E4.44704
G1 X210.227 Y177.089 E0.03870
G1 X209.714 Y178.223 E0.03904
G1 X208.659 Y179.465 E0.05111
G1 X207.881 Y180.091 E0.03130
G1 X205.600 Y180.864 E0.07549
G1 X138.787 Y180.864 E2.09488
G1 X136.910 Y180.629 E0.05931
G1 X135.589 Y180.145 E0.04414
G1 X134.382 Y179.433 E0.04393
G1 X132.626 Y177.625 E0.07904
G1 X106.979 Y134.415 E1.57548
G1 X107.163 Y133.987 F10800.000
G1 F1200
G1 X53.197 Y133.987 E1.69206
G1 X51.395 Y133.759 E0.05695
G1 X49.743 Y133.094 E0.05584
G1 X48.310 Y132.042 E0.05573
G1 X47.176 Y130.655 E0.05616
G1 X46.500 Y129.255 E0.04874
G1 X40.218 Y107.066 E0.72307
G1 X39.950 Y105.820 E0.03995
G1 X39.914 Y104.543 E0.04007
G1 X40.214 Y102.950 E0.05082
G1 X46.513 Y80.701 E0.72502
G1 X47.705 Y78.601 E0.07573
G1 X48.643 Y77.662 E0.04160
G1 X49.767 Y76.890 E0.04276
G1 X51.398 Y76.240 E0.05503
G1 X53.197 Y76.013 E0.05685
G1 X107.163 Y76.013 E1.69208
G1 X132.939 Y32.586 E1.58341
G1 X134.598 Y30.877 E0.07470
G1 X135.769 Y30.187 E0.04262
G1 X137.022 Y29.732 E0.04180
G1 X138.799 Y29.513 E0.05614
G1 X205.497 Y29.517 E2.09125
G1 X206.519 Y29.712 E0.03263
G1 X207.510 Y30.134 E0.03378
G1 X208.818 Y31.222 E0.05336
G1 X209.678 Y32.530 E0.04907
G1 X210.083 Y34.069 E0.04988
G1 X210.083 Y175.858 E4.44571
M73 Q3 S113
M73 P3 R110
G1 X209.862 Y176.994 E0.03629
G1 X209.383 Y178.042 E0.03611
G1 X208.384 Y179.206 E0.04809
G1 X207.671 Y179.776 E0.02862
G1 X205.570 Y180.487 E0.06956
G1 X138.799 Y180.487 E2.09355
G1 X137.019 Y180.267 E0.05623
G1 X135.765 Y179.811 E0.04183
G1 X134.595 Y179.121 E0.04258
G1 X132.939 Y177.413 E0.07460
G1 X107.193 Y134.038 E1.58152
G1 X107.378 Y133.609 F10800.000
G1 F1200
G1 X53.209 Y133.609 E1.69843
G1 X51.512 Y133.399 E0.05361
G1 X49.945 Y132.775 E0.05287
G1 X48.586 Y131.783 E0.05276
G1 X47.506 Y130.470 E0.05332
G1 X46.859 Y129.136 E0.04648
G1 X40.583 Y106.969 E0.72236
G1 X40.322 Y105.758 E0.03883
G1 X40.292 Y104.554 E0.03777
G1 X40.579 Y103.045 E0.04817
G1 X46.869 Y80.825 E0.72406
G1 X47.990 Y78.849 E0.07124
G1 X48.897 Y77.941 E0.04024
G1 X49.962 Y77.213 E0.04044
G1 X51.514 Y76.600 E0.05230
G1 X53.208 Y76.391 E0.05353
G1 X107.378 Y76.391 E1.69845
G1 X133.252 Y32.798 E1.58945
G1 X134.812 Y31.188 E0.07029
G1 X135.915 Y30.535 E0.04018
G1 X137.131 Y30.093 E0.04056
G1 X138.810 Y29.891 E0.05305
G1 X205.478 Y29.894 E2.09033
G1 X206.427 Y30.078 E0.03029
G1 X207.335 Y30.469 E0.03101
G1 X208.554 Y31.492 E0.04990
G1 X209.345 Y32.710 E0.04551
G1 X209.706 Y34.093 E0.04481
G1 X209.706 Y175.840 E4.44440
G1 X209.509 Y176.858 E0.03250
G1 X209.051 Y177.860 E0.03454
G1 X208.111 Y178.945 E0.04502
G1 X207.463 Y179.460 E0.02596
G1 X205.539 Y180.109 E0.06366
G1 X138.810 Y180.109 E2.09224
G1 X137.127 Y179.906 E0.05314
G1 X135.911 Y179.463 E0.04059
G1 X134.809 Y178.810 E0.04014
G1 X133.252 Y177.202 E0.07020
G1 X107.408 Y133.661 E1.58756
G1 X107.592 Y133.232 F10800.000
G1 F1200
G1 X53.220 Y133.232 E1.70482
G1 X51.627 Y133.040 E0.05030
G1 X50.147 Y132.456 E0.04989
G1 X48.861 Y131.524 E0.04979
G1 X47.834 Y130.284 E0.05047
G1 X47.217 Y129.017 E0.04419
G1 X40.947 Y106.872 E0.72165
G1 X40.698 Y105.731 E0.03661
G1 X40.669 Y104.565 E0.03656
G1 X40.944 Y103.140 E0.04550
G1 X47.226 Y80.950 E0.72311
G1 X48.275 Y79.097 E0.06674
G1 X49.151 Y78.220 E0.03888
G1 X50.156 Y77.537 E0.03810
G1 X51.628 Y76.960 E0.04958
G1 X53.219 Y76.768 E0.05024
G1 X107.592 Y76.768 E1.70483
G1 X133.565 Y33.009 E1.59550
G1 X135.026 Y31.500 E0.06587
G1 X136.091 Y30.869 E0.03882
G1 X137.238 Y30.456 E0.03820
G1 X138.821 Y30.268 E0.05000
G1 X205.460 Y30.271 E2.08940
G1 X206.333 Y30.444 E0.02791
G1 X207.159 Y30.803 E0.02823
G1 X208.289 Y31.762 E0.04647
G1 X208.988 Y32.836 E0.04018
G1 X209.329 Y34.117 E0.04157
G1 X209.329 Y175.822 E4.44304
G1 X209.144 Y176.762 E0.03006
G1 X208.721 Y177.676 E0.03157
G1 X207.840 Y178.683 E0.04196
G1 X207.255 Y179.144 E0.02332
G1 X205.508 Y179.732 E0.05780
G1 X138.821 Y179.732 E2.09093
M73 Q3 S112
M73 P4 R109
G1 X137.235 Y179.544 E0.05009
G1 X136.087 Y179.130 E0.03824
G1 X135.024 Y178.499 E0.03878
G1 X133.565 Y176.991 E0.06578
G1 X107.623 Y133.284 E1.59360
G1 X107.807 Y132.855 F10800.000
G1 F1200
G1 X53.230 Y132.855 E1.71121
G1 X51.741 Y132.679 E0.04702
G1 X50.347 Y132.135 E0.04692
G1 X49.135 Y131.264 E0.04681
G1 X48.163 Y130.097 E0.04760
G1 X47.575 Y128.898 E0.04188
G1 X41.312 Y106.774 E0.72093
G1 X41.071 Y105.669 E0.03549
G1 X41.047 Y104.578 E0.03422
G1 X41.309 Y103.235 E0.04288
G1 X47.583 Y81.074 E0.72217
G1 X48.561 Y79.345 E0.06228
G1 X49.378 Y78.522 E0.03639
G1 X50.350 Y77.861 E0.03685
G1 X51.742 Y77.320 E0.04682
G1 X53.230 Y77.145 E0.04697
G1 X107.807 Y77.145 E1.71123
G1 X133.878 Y33.220 E1.60154
G1 X135.241 Y31.810 E0.06148
G1 X136.236 Y31.217 E0.03634
G1 X137.345 Y30.818 E0.03694
G1 X138.832 Y30.645 E0.04694
G1 X205.440 Y30.648 E2.08846
G1 X206.238 Y30.809 E0.02550
G1 X206.980 Y31.137 E0.02545
G1 X208.022 Y32.030 E0.04302
G1 X208.655 Y33.014 E0.03669
G1 X208.951 Y34.142 E0.03655
G1 X208.951 Y175.803 E4.44169
G1 X208.779 Y176.665 E0.02758
G1 X208.391 Y177.491 E0.02859
G1 X207.569 Y178.420 E0.03890
G1 X207.049 Y178.827 E0.02071
G1 X205.478 Y179.355 E0.05197
G1 X138.832 Y179.355 E2.08964
G1 X137.342 Y179.181 E0.04702
G1 X136.233 Y178.781 E0.03698
G1 X135.239 Y178.188 E0.03630
G1 X133.878 Y176.779 E0.06140
G1 X107.838 Y132.907 E1.59965
G1 X108.022 Y132.478 F10800.000
G1 F1200
G1 X53.241 Y132.478 E1.71761
G1 X51.854 Y132.319 E0.04378
G1 X50.546 Y131.814 E0.04395
G1 X49.408 Y131.003 E0.04383
G1 X48.491 Y129.910 E0.04473
G1 X47.933 Y128.779 E0.03955
G1 X41.676 Y106.677 E0.72022
G1 X41.447 Y105.642 E0.03324
G1 X41.424 Y104.590 E0.03298
G1 X41.674 Y103.331 E0.04024
G1 X47.939 Y81.198 E0.72124
G1 X48.846 Y79.593 E0.05781
G1 X49.633 Y78.801 E0.03501
G1 X50.544 Y78.185 E0.03447
G1 X51.811 Y77.692 E0.04263
G1 X53.241 Y77.522 E0.04517
G1 X108.022 Y77.522 E1.71761
G1 X134.191 Y33.432 E1.60759
G1 X135.456 Y32.122 E0.05709
G1 X136.413 Y31.551 E0.03496
G1 X137.451 Y31.180 E0.03453
G1 X138.842 Y31.022 E0.04392
G1 X205.421 Y31.025 E2.08752
G1 X206.140 Y31.174 E0.02304
G1 X206.800 Y31.469 E0.02266
G1 X207.754 Y32.296 E0.03960
G1 X208.298 Y33.141 E0.03149
G1 X208.574 Y34.167 E0.03331
G1 X208.574 Y175.783 E4.44028
G1 X208.414 Y176.566 E0.02506
G1 X208.063 Y177.303 E0.02559
G1 X207.300 Y178.155 E0.03585
G1 X206.843 Y178.509 E0.01813
G1 X205.447 Y178.978 E0.04618
G1 X138.842 Y178.978 E2.08835
G1 X137.448 Y178.819 E0.04399
G1 X136.410 Y178.448 E0.03457
G1 X135.453 Y177.877 E0.03493
G1 X134.191 Y176.568 E0.05701
G1 X108.052 Y132.530 E1.60570
M73 Q4 S111
M73 P4 R108
G1 X108.236 Y132.101 F10800.000
G1 F1200
G1 X53.251 Y132.101 E1.72402
G1 X51.965 Y131.958 E0.04057
G1 X50.743 Y131.492 E0.04099
G1 X49.680 Y130.740 E0.04084
G1 X48.818 Y129.721 E0.04184
G1 X48.291 Y128.659 E0.03719
G1 X42.040 Y106.579 E0.71951
G1 X41.824 Y105.614 E0.03100
G1 X41.801 Y104.603 E0.03172
G1 X42.038 Y103.427 E0.03760
G1 X48.296 Y81.322 E0.72032
G1 X49.132 Y79.839 E0.05338
G1 X49.860 Y79.102 E0.03247
G1 X50.737 Y78.510 E0.03319
G1 X51.923 Y78.052 E0.03987
G1 X53.252 Y77.899 E0.04192
G1 X108.236 Y77.899 E1.72401
G1 X134.504 Y33.643 E1.61364
G1 X135.671 Y32.432 E0.05273
G1 X136.558 Y31.899 E0.03243
G1 X137.557 Y31.543 E0.03324
G1 X138.853 Y31.399 E0.04089
G1 X205.402 Y31.402 E2.08660
G1 X206.005 Y31.527 E0.01933
G1 X206.620 Y31.801 E0.02110
G1 X207.484 Y32.561 E0.03609
G1 X207.964 Y33.318 E0.02809
G1 X208.197 Y34.191 E0.02835
G1 X208.197 Y175.763 E4.43889
G1 X208.050 Y176.465 E0.02249
G1 X207.736 Y177.113 E0.02258
G1 X207.033 Y177.888 E0.03280
G1 X206.639 Y178.191 E0.01557
G1 X205.416 Y178.601 E0.04044
G1 X138.852 Y178.601 E2.08707
G1 X137.554 Y178.456 E0.04096
G1 X136.555 Y178.099 E0.03328
G1 X135.669 Y177.567 E0.03240
G1 X134.504 Y176.357 E0.05266
G1 X108.267 Y132.153 E1.61175
G1 X108.451 Y131.724 F10800.000
G1 F1200
G1 X53.262 Y131.724 E1.73042
G1 X52.032 Y131.586 E0.03881
G1 X50.902 Y131.149 E0.03797
G1 X49.918 Y130.447 E0.03790
G1 X49.145 Y129.533 E0.03755
G1 X48.649 Y128.539 E0.03483
G1 X42.404 Y106.481 E0.71879
G1 X42.196 Y105.551 E0.02989
G1 X42.179 Y104.617 E0.02928
