; generated by Slic3r Prusa Edition 1.41.0+win64 on 2019-04-15 at 21:29:12

; 

; external perimeters extrusion width = 0.45mm
; perimeters extrusion width = 0.45mm
; infill extrusion width = 0.45mm
; solid infill extrusion width = 0.45mm
; top infill extrusion width = 0.40mm
; support material extrusion width = 0.35mm
; first layer extrusion width = 0.42mm

M201 X1000 Y1000 Z1000 E8000 ; sets maximum accelerations, mm/sec^2
M203 X200 Y200 Z12 E120 ; sets maximum feedrates, mm/sec
M204 P1250 R1250 T1250 ; sets acceleration (P, T) and retract acceleration (R), mm/sec^2
M205 X8.00 Y8.00 Z0.40 E1.50 ; sets the jerk limits, mm/sec
M205 S0 T0 ; sets the minimum extruding and travel feed rate, mm/sec
M107
M107
M115 U3.4.1 ; tell printer latest fw version
M83  ; extruder relative mode
M104 S255 ; set extruder temp
M140 S100 ; set bed temp
M190 S100 ; wait for bed temp
M109 S255 ; wait for extruder temp
G28 W ; home all without mesh bed level
G80 ; mesh bed leveling
G21 ; set units to millimeters

; Send the filament type to the MMU2.0 unit.
; E stands for extruder number, F stands for filament type (0: default; 1:flex; 2: PVA)
M403 E0 F0
M403 E1 F0
M403 E2 F0
M403 E3 F0
M403 E4 F0


;go outside print area
G1 Y-3.0 F1000.0
G1 Z0.4 F1000.0
; select extruder
T4
; initial load
G1 X55.0 E32.0 F1073.0
M73 Q0 S254
M73 P0 R244
G1 X5.0 E32.0 F1800.0
G1 X55.0 E8.0 F2000.0
G1 Z0.3 F1000.0
G92 E0.0
G1 X240.0 E25.0  F2200.0
G1 Y-2.0 F1000.0
G1 X55.0 E25 F1400.0
G1 Z0.20 F1000.0
G1 X5.0 E4.0 F1000.0
G92 E0.0


M221 S95
G90 ; use absolute coordinates
M83 ; use relative distances for extrusion
G92 E0.0
M900 K30; Filament gcode
G21 ; set units to millimeters
G90 ; use absolute coordinates
M83 ; use relative distances for extrusion
T4
M900 K30; Filament gcode
;BEFORE_LAYER_CHANGE
G92 E0.0
;0.2


G1 E-0.80000 F2100.00000
G1 Z0.600 F10800.000
;AFTER_LAYER_CHANGE
;0.2
G1 X31.702 Y70.858
G1 Z0.200
G1 E0.80000 F2100.00000
M204 S1000
G1 F2400
G1 X33.590 Y69.330 E0.07615
G1 X118.204 Y12.670 E3.19289
G1 X120.255 Y11.441 E0.07498
G1 X122.265 Y10.593 E0.06840
G1 X123.666 Y10.139 E0.04617
G1 X124.889 Y9.845 E0.03945
G1 X126.105 Y9.659 E0.03855
G1 X127.676 Y9.536 E0.04942
G1 X195.181 Y6.554 E2.11862
G1 X219.188 Y6.541 E0.75274
G1 X220.607 Y6.610 E0.04453
G1 X222.012 Y6.813 E0.04453
G1 X223.392 Y7.149 E0.04453
G1 X224.733 Y7.615 E0.04453
G1 X226.024 Y8.207 E0.04453
G1 X227.253 Y8.919 E0.04453
G1 X228.408 Y9.745 E0.04453
G1 X229.486 Y10.684 E0.04483
G1 X230.464 Y11.714 E0.04453
G1 X231.338 Y12.833 E0.04453
G1 X232.102 Y14.031 E0.04453
G1 X232.749 Y15.295 E0.04453
G1 X233.275 Y16.624 E0.04483
G1 X233.669 Y17.989 E0.04453
G1 X233.931 Y19.384 E0.04453
G1 X234.060 Y20.799 E0.04453
G1 X234.064 Y192.147 E5.37251
G1 X233.902 Y193.874 E0.05438
G1 X233.538 Y195.579 E0.05468
G1 X232.977 Y197.230 E0.05468
G1 X232.227 Y198.805 E0.05468
G1 X231.298 Y200.280 E0.05468
G1 X230.204 Y201.638 E0.05468
G1 X228.957 Y202.858 E0.05468
G1 X227.577 Y203.924 E0.05468
G1 X225.870 Y204.930 E0.06214
G1 X224.044 Y205.700 E0.06214
G1 X222.132 Y206.221 E0.06214
G1 X220.168 Y206.484 E0.06214
G1 X191.393 Y206.334 E0.90224
G1 X126.291 Y200.367 E2.04976
G1 X124.346 Y200.041 E0.06184
G1 X122.254 Y199.411 E0.06851
G1 X120.255 Y198.562 E0.06810
G1 X118.207 Y197.332 E0.07492
G1 X33.663 Y140.735 E3.18994
G1 X32.527 Y139.883 E0.04453
G1 X31.471 Y138.919 E0.04483
G1 X30.166 Y137.512 E0.06018
G1 X29.212 Y136.262 E0.04930
G1 X27.799 Y133.806 E0.08885
G1 X26.940 Y131.667 E0.07227
G1 X20.984 Y110.034 E0.70352
G1 X20.585 Y108.413 E0.05235
G1 X20.369 Y107.019 E0.04423
G1 X20.287 Y105.735 E0.04035
G1 X20.301 Y103.656 E0.06519
G1 X20.511 Y101.953 E0.05378
G1 X20.948 Y100.102 E0.05965
G1 X26.802 Y78.802 E0.69261
G1 X27.261 Y77.418 E0.04572
G1 X27.785 Y76.222 E0.04094
G1 X28.539 Y74.821 E0.04987
G1 X29.773 Y72.976 E0.06959
G1 X31.662 Y70.902 E0.08796
G1 F8640
G1 X33.590 Y69.330 E-0.57448
G1 X34.258 Y68.883 E-0.18552
G1 E-0.04000 F2100.00000
G1 Z0.800 F10800.000
G1 X180.168 Y200.112
G1 Z0.200
G1 E0.80000 F2100.00000
G1 F2400
G1 X128.222 Y200.112 E1.62873
G1 X125.150 Y199.824 E0.09672
G1 X122.160 Y199.004 E0.09723
G1 X117.852 Y196.630 E0.15422
G1 X114.341 Y193.151 E0.15499
G1 X90.929 Y159.452 E1.28658
G1 X37.431 Y142.384 E1.76070
G1 X32.833 Y139.644 E0.16782
G1 X29.265 Y135.668 E0.16750
G1 X27.333 Y131.710 E0.13809
G1 X21.303 Y109.772 E0.71338
G1 X20.737 Y107.000 E0.08871
G1 X20.634 Y104.171 E0.08876
G1 X21.283 Y100.302 E0.12299
G1 X27.378 Y78.126 E0.72112
G1 X29.886 Y73.448 E0.16641
G1 X33.395 Y69.913 E0.15618
G1 X37.516 Y67.589 E0.14833
G1 X90.929 Y50.548 E1.75789
G1 X114.345 Y16.856 E1.28646
G1 X116.724 Y14.288 E0.10977
G1 X119.555 Y12.239 E0.10957
G1 X123.631 Y10.526 E0.13863
G1 X128.116 Y9.888 E0.14204
G1 X186.821 Y9.888 E1.84065
G1 X187.982 Y8.952 E0.04676
G1 X190.633 Y7.643 E0.09269
G1 X194.637 Y6.750 E0.12866
G1 X197.002 Y6.729 E0.07414
G1 X220.034 Y6.733 E0.72215
G1 X222.995 Y7.213 E0.09406
G1 X225.842 Y8.283 E0.09536
G1 X229.311 Y10.747 E0.13342
G1 X232.485 Y15.133 E0.16975
G1 X233.887 Y20.365 E0.16982
G1 X233.820 Y42.123 E0.68222
G1 X232.964 Y45.670 E0.11441
G1 X232.785 Y46.059 E0.01342
G1 X232.870 Y46.253 E0.00662
G1 X233.849 Y50.318 E0.13111
G1 X233.845 Y80.747 E0.95408
G1 X233.011 Y84.410 E0.11779
G1 X232.780 Y84.909 E0.01725
G1 X232.870 Y85.113 E0.00697
G1 X233.849 Y89.178 E0.13111
G1 X233.845 Y119.607 E0.95408
G1 X233.012 Y123.265 E0.11761
G1 X232.761 Y123.812 E0.01889
G1 X233.878 Y128.202 E0.14204
G1 X233.881 Y162.425 E1.07301
G1 X233.391 Y164.910 E0.07941
G1 X233.885 Y167.183 E0.07293
G1 X233.885 Y192.504 E0.79394
G1 X233.361 Y195.612 E0.09882
G1 X232.178 Y198.551 E0.09932
G1 X229.841 Y201.670 E0.12220
G1 X227.610 Y203.640 E0.09331
G1 X223.568 Y205.549 E0.14017
G1 X219.172 Y206.150 E0.13912
G1 X191.334 Y206.159 E0.87285
G1 X187.617 Y205.498 E0.11835
G1 X183.850 Y203.699 E0.13089
G1 X180.482 Y200.579 E0.14397
G1 X180.201 Y200.161 E0.01576
G1 X180.373 Y199.735 F10800.000
G1 F2400
G1 X128.231 Y199.735 E1.63488
G1 X125.202 Y199.450 E0.09537
G1 X122.282 Y198.647 E0.09498
G1 X118.058 Y196.313 E0.15131
G1 X114.641 Y192.922 E0.15094
G1 X91.165 Y159.131 E1.29006
M73 Q0 S253
M73 P0 R243
G1 X37.566 Y142.031 E1.76403
G1 X33.051 Y139.335 E0.16489
G1 X29.563 Y135.437 E0.16401
G1 X27.692 Y131.594 E0.13402
G1 X21.668 Y109.678 E0.71263
G1 X21.110 Y106.940 E0.08762
G1 X21.011 Y104.177 E0.08669
G1 X21.649 Y100.393 E0.12030
G1 X27.736 Y78.246 E0.72016
G1 X30.205 Y73.651 E0.16357
G1 X33.603 Y70.228 E0.15122
G1 X37.649 Y67.943 E0.14570
G1 X91.165 Y50.869 E1.76130
G1 X114.630 Y17.103 E1.28925
G1 X116.960 Y14.582 E0.10761
G1 X119.758 Y12.557 E0.10830
G1 X123.754 Y10.884 E0.13584
G1 X128.129 Y10.265 E0.13854
G1 X186.955 Y10.265 E1.84445
G1 X188.168 Y9.280 E0.04898
G1 X190.779 Y7.992 E0.09131
G1 X194.660 Y7.127 E0.12468
G1 X197.003 Y7.107 E0.07344
G1 X220.018 Y7.110 E0.72164
G1 X222.916 Y7.582 E0.09204
G1 X225.686 Y8.628 E0.09283
G1 X229.068 Y11.036 E0.13018
G1 X232.130 Y15.264 E0.16369
G1 X233.510 Y20.389 E0.16639
G1 X233.443 Y42.099 E0.68073
G1 X232.603 Y45.562 E0.11170
G1 X232.367 Y46.060 E0.01729
G1 X232.508 Y46.362 E0.01047
G1 X233.472 Y50.340 E0.12833
G1 X233.468 Y80.726 E0.95270
G1 X232.648 Y84.305 E0.11513
G1 X232.362 Y84.911 E0.02101
G1 X232.508 Y85.223 E0.01081
G1 X233.472 Y89.201 E0.12834
G1 X233.468 Y119.586 E0.95270
G1 X232.649 Y123.160 E0.11497
G1 X232.362 Y123.774 E0.02126
G1 X233.500 Y128.226 E0.14409
G1 X233.504 Y162.406 E1.07168
G1 X233.006 Y164.913 E0.08015
G1 X233.508 Y167.203 E0.07350
G1 X233.508 Y192.489 E0.79280
G1 X232.993 Y195.529 E0.09669
G1 X231.838 Y198.386 E0.09663
G1 X229.551 Y201.427 E0.11930
G1 X227.381 Y203.339 E0.09068
G1 X223.434 Y205.196 E0.13677
G1 X219.134 Y205.774 E0.13603
G1 X191.350 Y205.782 E0.87116
G1 X187.757 Y205.147 E0.11441
G1 X184.039 Y203.371 E0.12918
G1 X180.756 Y200.319 E0.14054
G1 X180.406 Y199.785 E0.02003
G1 X180.580 Y199.357 F10800.000
G1 F2400
G1 X128.239 Y199.357 E1.64110
G1 X125.286 Y199.082 E0.09299
G1 X122.403 Y198.289 E0.09377
G1 X118.304 Y196.026 E0.14679
G1 X114.941 Y192.692 E0.14850
G1 X91.402 Y158.811 E1.29353
G1 X37.701 Y141.678 E1.76737
G1 X33.313 Y139.063 E0.16019
G1 X29.862 Y135.205 E0.16228
G1 X28.051 Y131.477 E0.12994
G1 X22.033 Y109.584 E0.71190
G1 X21.486 Y106.911 E0.08556
G1 X21.389 Y104.183 E0.08559
G1 X22.015 Y100.484 E0.11761
G1 X28.094 Y78.367 E0.71919
G1 X30.524 Y73.853 E0.16072
G1 X33.811 Y70.543 E0.14626
G1 X37.782 Y68.296 E0.14307
G1 X91.402 Y51.189 E1.76470
G1 X114.916 Y17.349 E1.29203
G1 X117.224 Y14.852 E0.10661
G1 X119.961 Y12.876 E0.10585
G1 X123.877 Y11.241 E0.13305
G1 X128.142 Y10.643 E0.13504
G1 X187.090 Y10.643 E1.84827
G1 X188.354 Y9.609 E0.05119
G1 X190.926 Y8.340 E0.08992
G1 X194.684 Y7.504 E0.12070
G1 X197.003 Y7.484 E0.07274
G1 X220.003 Y7.488 E0.72114
G1 X222.836 Y7.951 E0.09001
G1 X225.529 Y8.971 E0.09030
G1 X228.823 Y11.325 E0.12693
G1 X231.804 Y15.457 E0.15975
G1 X233.132 Y20.412 E0.16086
G1 X233.066 Y42.076 E0.67925
G1 X232.241 Y45.452 E0.10896
G1 X231.946 Y46.062 E0.02124
G1 X232.147 Y46.473 E0.01436
G1 X233.095 Y50.363 E0.12553
G1 X233.091 Y80.704 E0.95132
G1 X232.285 Y84.199 E0.11245
G1 X231.941 Y84.913 E0.02486
G1 X232.147 Y85.333 E0.01468
G1 X233.095 Y89.223 E0.12554
G1 X233.091 Y119.564 E0.95132
G1 X232.287 Y123.054 E0.11230
G1 X231.962 Y123.735 E0.02363
G1 X233.123 Y128.250 E0.14618
G1 X233.127 Y162.387 E1.07035
G1 X232.621 Y164.917 E0.08090
G1 X233.131 Y167.224 E0.07407
G1 X233.131 Y192.473 E0.79165
G1 X232.624 Y195.445 E0.09455
G1 X231.498 Y198.222 E0.09394
G1 X229.262 Y201.185 E0.11639
G1 X227.153 Y203.038 E0.08804
G1 X223.301 Y204.842 E0.13336
G1 X219.097 Y205.399 E0.13295
G1 X191.366 Y205.405 E0.86948
G1 X187.896 Y204.795 E0.11047
G1 X184.228 Y203.043 E0.12747
G1 X181.031 Y200.060 E0.13709
G1 X180.612 Y199.408 E0.02430
G1 X180.789 Y198.980 F10800.000
G1 F2400
G1 X128.248 Y198.980 E1.64737
G1 X125.338 Y198.708 E0.09164
G1 X122.525 Y197.931 E0.09150
G1 X118.510 Y195.709 E0.14388
G1 X115.241 Y192.463 E0.14446
G1 X91.639 Y158.491 E1.29701
G1 X37.837 Y141.326 E1.77070
G1 X33.531 Y138.754 E0.15726
G1 X30.161 Y134.974 E0.15878
G1 X28.410 Y131.360 E0.12588
G1 X22.399 Y109.490 E0.71116
G1 X21.859 Y106.851 E0.08447
G1 X21.766 Y104.189 E0.08351
G1 X22.381 Y100.575 E0.11494
G1 X28.452 Y78.487 E0.71822
G1 X30.843 Y74.056 E0.15786
G1 X34.020 Y70.859 E0.14133
G1 X37.916 Y68.649 E0.14043
G1 X91.639 Y51.509 E1.76810
G1 X115.202 Y17.595 E1.29483
G1 X117.460 Y15.147 E0.10443
G1 X120.164 Y13.194 E0.10457
G1 X123.999 Y11.598 E0.13024
G1 X128.155 Y11.020 E0.13156
G1 X187.226 Y11.020 E1.85212
G1 X188.541 Y9.937 E0.05340
G1 X191.072 Y8.688 E0.08852
G1 X194.707 Y7.880 E0.11673
G1 X197.004 Y7.861 E0.07204
G1 X219.987 Y7.865 E0.72063
G1 X222.756 Y8.320 E0.08797
G1 X225.372 Y9.315 E0.08776
G1 X228.578 Y11.613 E0.12368
G1 X231.478 Y15.649 E0.15581
G1 X232.755 Y20.436 E0.15535
G1 X232.689 Y42.052 E0.67776
G1 X231.880 Y45.341 E0.10619
G1 X231.524 Y46.064 E0.02528
G1 X231.786 Y46.585 E0.01829
G1 X232.718 Y50.386 E0.12270
G1 X232.714 Y80.682 E0.94992
G1 X231.923 Y84.092 E0.10974
G1 X231.519 Y84.916 E0.02878
G1 X231.786 Y85.445 E0.01859
G1 X232.718 Y89.246 E0.12270
G1 X232.714 Y119.543 E0.94992
G1 X231.924 Y122.948 E0.10961
G1 X231.533 Y123.755 E0.02811
G1 X231.654 Y124.003 E0.00868
G1 X232.746 Y128.274 E0.13820
G1 X232.750 Y162.368 E1.06902
G1 X232.235 Y164.921 E0.08166
G1 X232.754 Y167.245 E0.07464
G1 X232.754 Y192.457 E0.79050
G1 X232.267 Y195.323 E0.09114
G1 X231.158 Y198.057 E0.09251
G1 X228.973 Y200.942 E0.11347
G1 X226.925 Y202.737 E0.08540
G1 X223.168 Y204.488 E0.12995
G1 X219.061 Y205.023 E0.12987
G1 X191.382 Y205.028 E0.86784
G1 X188.035 Y204.444 E0.10654
G1 X184.417 Y202.715 E0.12574
G1 X181.307 Y199.802 E0.13360
G1 X180.821 Y199.031 E0.02858
G1 F8640
G1 X177.529 Y199.028 E-0.76000
G1 E-0.04000 F2100.00000
G1 Z0.800 F10800.000
G1 X231.109 Y123.760
G1 Z0.200
G1 E0.80000 F2100.00000
G1 F2400
G1 X231.295 Y124.120 E0.01270
G1 X232.369 Y128.298 E0.13524
G1 X232.373 Y162.349 E1.06767
G1 X231.850 Y164.926 E0.08242
G1 X232.376 Y167.266 E0.07522
G1 X232.376 Y192.441 E0.78933
G1 X231.899 Y195.239 E0.08900
G1 X230.818 Y197.891 E0.08981
G1 X228.684 Y200.698 E0.11055
G1 X226.697 Y202.435 E0.08277
G1 X223.036 Y204.134 E0.12653
G1 X219.025 Y204.648 E0.12679
G1 X191.398 Y204.651 E0.86621
G1 X188.174 Y204.092 E0.10260
G1 X184.606 Y202.388 E0.12400
G1 X181.584 Y199.545 E0.13008
G1 X180.999 Y198.603 E0.03475
G1 X128.257 Y198.603 E1.65369
G1 X125.390 Y198.335 E0.09029
G1 X122.647 Y197.574 E0.08924
G1 X118.716 Y195.392 E0.14098
G1 X115.541 Y192.234 E0.14042
G1 X91.875 Y158.170 E1.30049
G1 X37.972 Y140.973 E1.77403
G1 X33.749 Y138.445 E0.15431
G1 X30.460 Y134.743 E0.15527
G1 X28.769 Y131.244 E0.12184
G1 X22.764 Y109.396 E0.71044
M73 Q0 S252
M73 P0 R242
G1 X22.235 Y106.822 E0.08240
G1 X22.144 Y104.195 E0.08241
G1 X22.747 Y100.666 E0.11226
G1 X28.810 Y78.608 E0.71726
G1 X31.162 Y74.260 E0.15500
G1 X34.228 Y71.174 E0.13641
G1 X38.049 Y69.002 E0.13779
G1 X91.875 Y51.830 E1.77150
G1 X115.489 Y17.841 E1.29764
G1 X117.697 Y15.441 E0.10224
G1 X120.367 Y13.513 E0.10328
G1 X124.121 Y11.956 E0.12743
G1 X128.168 Y11.397 E0.12809
G1 X187.362 Y11.397 E1.85598
G1 X188.728 Y10.265 E0.05560
G1 X191.219 Y9.036 E0.08710
G1 X194.730 Y8.257 E0.11275
G1 X197.005 Y8.238 E0.07135
G1 X219.972 Y8.242 E0.72012
G1 X222.640 Y8.680 E0.08476
G1 X225.215 Y9.659 E0.08639
G1 X228.333 Y11.901 E0.12043
G1 X231.123 Y15.780 E0.14979
G1 X232.378 Y20.460 E0.15194
G1 X232.312 Y42.028 E0.67626
G1 X231.519 Y45.229 E0.10340
G1 X231.100 Y46.067 E0.02939
G1 X231.426 Y46.698 E0.02226
G1 X232.341 Y50.409 E0.11983
G1 X232.337 Y80.661 E0.94852
G1 X231.561 Y83.984 E0.10701
G1 X231.095 Y84.920 E0.03278
G1 X231.426 Y85.558 E0.02254
G1 X232.341 Y89.269 E0.11984
G1 X232.337 Y119.521 E0.94852
G1 X231.562 Y122.841 E0.10689
G1 X231.136 Y123.707 E0.03026
G1 F8640
G1 X231.295 Y124.120 E-0.10234
G1 X232.004 Y126.879 E-0.65766
G1 E-0.04000 F2100.00000
G1 Z0.800 F10800.000
G1 X230.674 Y46.071
G1 Z0.200
G1 E0.80000 F2100.00000
G1 F2400
G1 X231.066 Y46.812 E0.02627
G1 X231.964 Y50.432 E0.11694
G1 X231.960 Y80.639 E0.94711
G1 X231.199 Y83.875 E0.10425
G1 X230.670 Y84.924 E0.03683
G1 X231.066 Y85.672 E0.02653
G1 X231.964 Y89.292 E0.11694
G1 X231.960 Y119.499 E0.94711
G1 X231.200 Y122.732 E0.10415
G1 X230.683 Y123.768 E0.03628
G1 X230.936 Y124.238 E0.01674
G1 X231.992 Y128.322 E0.13225
G1 X231.995 Y162.330 E1.06632
G1 X231.464 Y164.930 E0.08320
G1 X231.999 Y167.287 E0.07580
G1 X231.999 Y192.425 E0.78816
G1 X231.531 Y195.154 E0.08684
G1 X230.479 Y197.725 E0.08709
G1 X228.396 Y200.454 E0.10763
G1 X226.470 Y202.133 E0.08014
G1 X222.905 Y203.779 E0.12311
G1 X218.990 Y204.272 E0.12372
G1 X191.414 Y204.274 E0.86461
G1 X188.313 Y203.741 E0.09866
G1 X184.795 Y202.060 E0.12225
G1 X181.862 Y199.288 E0.12654
G1 X181.211 Y198.226 E0.03905
G1 X128.266 Y198.226 E1.66007
G1 X125.475 Y197.967 E0.08789
G1 X122.770 Y197.217 E0.08801
G1 X118.963 Y195.106 E0.13647
G1 X115.840 Y192.005 E0.13800
G1 X92.112 Y157.850 E1.30397
G1 X38.108 Y140.620 E1.77736
G1 X33.968 Y138.137 E0.15135
G1 X30.760 Y134.513 E0.15176
G1 X29.129 Y131.128 E0.11782
G1 X23.129 Y109.302 E0.70971
G1 X22.608 Y106.762 E0.08132
G1 X22.521 Y104.202 E0.08031
G1 X23.113 Y100.757 E0.10959
G1 X29.168 Y78.729 E0.71629
G1 X31.480 Y74.463 E0.15213
G1 X34.477 Y71.458 E0.13307
G1 X38.182 Y69.356 E0.13357
G1 X92.112 Y52.150 E1.77490
G1 X115.791 Y18.067 E1.30124
G1 X117.961 Y15.711 E0.10042
G1 X120.570 Y13.832 E0.10080
G1 X124.243 Y12.314 E0.12462
G1 X128.181 Y11.774 E0.12463
G1 X187.499 Y11.774 E1.85988
G1 X188.915 Y10.594 E0.05779
G1 X191.365 Y9.384 E0.08568
G1 X194.752 Y8.634 E0.10878
G1 X197.006 Y8.615 E0.07065
G1 X219.957 Y8.619 E0.71961
G1 X222.559 Y9.048 E0.08271
G1 X225.057 Y10.002 E0.08384
G1 X228.087 Y12.189 E0.11717
G1 X230.796 Y15.971 E0.14586
G1 X232.001 Y20.484 E0.14644
G1 X231.934 Y42.004 E0.67476
G1 X231.159 Y45.117 E0.10059
G1 X230.701 Y46.018 E0.03168
G1 X230.247 Y46.076 F10800.000
G1 F2400
G1 X230.706 Y46.927 E0.03032
G1 X231.587 Y50.455 E0.11401
G1 X231.583 Y80.616 E0.94569
G1 X230.838 Y83.766 E0.10148
G1 X230.243 Y84.929 E0.04095
