; generated by Slic3r Prusa Edition 1.42.0-beta2+win64 on 2019-04-16 at 14:31:07

; 

; external perimeters extrusion width = 0.45mm
; perimeters extrusion width = 0.45mm
; infill extrusion width = 0.45mm
; solid infill extrusion width = 0.45mm
; top infill extrusion width = 0.40mm
; first layer extrusion width = 0.42mm

M73 P0 R38
M73 Q0 S38
M201 X1000 Y1000 Z1000 E8000 ; sets maximum accelerations, mm/sec^2
M203 X200 Y200 Z12 E120 ; sets maximum feedrates, mm/sec
M204 P1250 R1250 T1250 ; sets acceleration (P, T) and retract acceleration (R), mm/sec^2
M205 X8.00 Y8.00 Z0.40 E1.50 ; sets the jerk limits, mm/sec
M205 S0 T0 ; sets the minimum extruding and travel feed rate, mm/sec
M107
M107
M115 U3.6.0 ; tell printer latest fw version
M83  ; extruder relative mode
M104 S255 ; set extruder temp
M140 S100 ; set bed temp
M190 S100 ; wait for bed temp
M109 S255 ; wait for extruder temp
G28 W ; home all without mesh bed level
G80 ; mesh bed leveling
G21 ; set units to millimeters

; Send the filament type to the MMU2.0 unit.
; E stands for extruder number, F stands for filament type (0: default; 1:flex; 2: PVA)
M403 E0 F0
M403 E1 F0
M403 E2 F0
M403 E3 F0
M403 E4 F0


;go outside print area
G1 Y-3.0 F1000.0
G1 Z0.4 F1000.0
; select extruder
T3
; initial load
G1 X55.0 E29.0 F1073.0
M73 Q1 S38
M73 P1 R38
G1 X5.0 E29.0 F1800.0
G1 X55.0 E8.0 F2000.0
G1 Z0.3 F1000.0
G92 E0.0
G1 X240.0 E25.0  F2200.0
G1 Y-2.0 F1000.0
G1 X55.0 E25 F1400.0
G1 Z0.20 F1000.0
G1 X5.0 E4.0 F1000.0
G92 E0.0


M221 S95
G90 ; use absolute coordinates
M83 ; use relative distances for extrusion
G92 E0.0
M900 K30 ; Filament gcode
G21 ; set units to millimeters
G90 ; use absolute coordinates
M83 ; use relative distances for extrusion
T3
M900 K30 ; Filament gcode
;BEFORE_LAYER_CHANGE
G92 E0.0
;0.2


G1 E-0.80000 F2100.00000
G1 Z0.600 F10800.000
;AFTER_LAYER_CHANGE
;0.2
G1 X91.441 Y75.893
G1 Z0.200
G1 E0.80000 F2100.00000
M204 S1000
G1 F1200
G1 X93.744 Y74.361 E0.08670
G1 X96.428 Y73.813 E0.08592
G1 X153.504 Y73.811 E1.78955
G1 X156.249 Y74.358 E0.08777
G1 X158.563 Y75.897 E0.08716
G1 X160.129 Y78.220 E0.08783
G1 X160.681 Y80.819 E0.08330
G1 X160.687 Y129.088 E1.51343
G1 X160.135 Y131.766 E0.08574
G1 X158.558 Y134.107 E0.08851
G1 X156.256 Y135.639 E0.08670
G1 X153.572 Y136.187 E0.08591
G1 X96.500 Y136.189 E1.78944
G1 X93.744 Y135.639 E0.08810
G1 X91.393 Y134.059 E0.08884
G1 X89.862 Y131.760 E0.08659
G1 X89.313 Y129.086 E0.08558
G1 X89.311 Y80.996 E1.50782
G1 X89.861 Y78.244 E0.08799
G1 X91.408 Y75.943 E0.08696
G1 F8640
G1 X93.744 Y74.361 E-0.65135
G1 X94.205 Y74.267 E-0.10865
G1 E-0.04000 F2100.00000
G1 Z0.800 F10800.000
G1 X94.283 Y78.783
G1 Z0.200
G1 E0.80000 F2100.00000
G1 F1200
G1 X96.500 Y77.865 E0.07524
G1 X98.717 Y78.783 E0.07524
G1 X99.635 Y81.000 E0.07524
G1 X98.717 Y83.217 E0.07524
G1 X96.500 Y84.135 E0.07524
G1 X94.283 Y83.217 E0.07524
G1 X93.365 Y81.000 E0.07524
G1 X94.260 Y78.838 E0.07336
G1 X94.572 Y79.072 F10800.000
G1 F1200
G1 X96.500 Y78.273 E0.06545
G1 X98.428 Y79.072 E0.06545
G1 X99.227 Y81.000 E0.06545
G1 X98.428 Y82.928 E0.06545
G1 X96.500 Y83.727 E0.06545
G1 X94.572 Y82.928 E0.06545
G1 X93.773 Y81.000 E0.06545
G1 X94.549 Y79.127 E0.06357
G1 X94.468 Y78.685 F10800.000
G1 F8640
G1 X96.500 Y78.273 E-0.49188
G1 X97.573 Y78.717 E-0.26812
G1 E-0.04000 F2100.00000
G1 Z0.800 F10800.000
G1 X150.365 Y81.000
G1 Z0.200
G1 E0.80000 F2100.00000
G1 F1200
G1 X151.283 Y78.783 E0.07524
G1 X153.500 Y77.865 E0.07524
G1 X155.717 Y78.783 E0.07524
G1 X156.635 Y81.000 E0.07524
G1 X155.717 Y83.217 E0.07524
G1 X153.500 Y84.135 E0.07524
G1 X151.283 Y83.217 E0.07524
G1 X150.388 Y81.055 E0.07336
G1 X150.773 Y81.000 F10800.000
G1 F1200
G1 X151.571 Y79.072 E0.06545
G1 X153.500 Y78.273 E0.06545
G1 X155.429 Y79.072 E0.06545
G1 X156.227 Y81.000 E0.06545
G1 X155.429 Y82.928 E0.06545
G1 X153.500 Y83.727 E0.06545
G1 X151.571 Y82.928 E0.06545
G1 X150.796 Y81.055 E0.06357
G1 X150.426 Y80.800 F10800.000
G1 F8640
G1 X151.571 Y79.072 E-0.49187
G1 X152.644 Y78.627 E-0.26813
G1 E-0.04000 F2100.00000
G1 Z0.800 F10800.000
G1 X149.586 Y82.913
G1 Z0.200
G1 E0.80000 F2100.00000
G1 F1200
G1 X100.414 Y82.913 E1.54177
G1 X99.612 Y84.112 E0.04523
G1 X98.184 Y85.066 E0.05385
G1 X96.500 Y85.401 E0.05385
G1 X94.816 Y85.066 E0.05385
G1 X93.388 Y84.112 E0.05385
G1 X92.434 Y82.684 E0.05385
G1 X92.099 Y81.000 E0.05385
G1 X92.434 Y79.316 E0.05385
G1 X93.388 Y77.888 E0.05385
G1 X94.816 Y76.934 E0.05385
G1 X96.500 Y76.599 E0.05385
G1 X98.184 Y76.934 E0.05385
G1 X99.612 Y77.888 E0.05385
G1 X100.414 Y79.087 E0.04523
G1 X149.586 Y79.087 E1.54177
G1 X150.388 Y77.888 E0.04523
G1 X151.816 Y76.934 E0.05385
G1 X153.500 Y76.599 E0.05385
G1 X155.184 Y76.934 E0.05385
G1 X156.612 Y77.888 E0.05385
G1 X157.566 Y79.316 E0.05385
G1 X157.901 Y81.000 E0.05385
G1 X157.566 Y82.684 E0.05385
G1 X156.612 Y84.112 E0.05385
G1 X155.184 Y85.066 E0.05385
G1 X153.500 Y85.401 E0.05385
G1 X151.816 Y85.066 E0.05385
G1 X150.388 Y84.112 E0.05385
G1 X149.620 Y82.963 E0.04335
G1 X149.385 Y83.290 F10800.000
G1 F1200
G1 X100.615 Y83.290 E1.52913
G1 X99.884 Y84.384 E0.04126
G1 X98.331 Y85.422 E0.05855
G1 X96.500 Y85.786 E0.05855
G1 X94.669 Y85.422 E0.05855
G1 X93.116 Y84.384 E0.05855
G1 X92.078 Y82.831 E0.05855
G1 X91.714 Y81.000 E0.05855
G1 X92.078 Y79.169 E0.05855
G1 X93.116 Y77.616 E0.05855
G1 X94.669 Y76.578 E0.05855
G1 X96.500 Y76.214 E0.05855
G1 X98.331 Y76.578 E0.05855
G1 X99.884 Y77.616 E0.05855
G1 X100.615 Y78.710 E0.04126
G1 X149.385 Y78.710 E1.52913
G1 X150.116 Y77.616 E0.04126
G1 X151.669 Y76.578 E0.05855
G1 X153.500 Y76.214 E0.05855
G1 X155.331 Y76.578 E0.05855
G1 X156.884 Y77.616 E0.05855
G1 X157.922 Y79.169 E0.05855
G1 X158.286 Y81.000 E0.05855
G1 X157.922 Y82.831 E0.05855
G1 X156.884 Y84.384 E0.05855
G1 X155.331 Y85.422 E0.05855
G1 X153.500 Y85.786 E0.05855
G1 X151.669 Y85.422 E0.05855
G1 X150.116 Y84.384 E0.05855
G1 X149.418 Y83.340 E0.03938
G1 X149.277 Y82.905 F10800.000
G1 X149.323 Y82.800
G1 F1200
G1 X145.893 Y79.370 E0.15294
G1 X145.356 Y79.370 E0.01691
G1 X148.617 Y82.630 E0.14538
G1 X148.080 Y82.630 E0.01691
G1 X144.820 Y79.370 E0.14538
G1 X144.284 Y79.370 E0.01691
G1 X147.544 Y82.630 E0.14538
G1 X147.008 Y82.630 E0.01691
G1 X143.748 Y79.370 E0.14538
G1 X143.211 Y79.370 E0.01691
G1 X146.472 Y82.630 E0.14538
G1 X145.935 Y82.630 E0.01691
G1 X142.675 Y79.370 E0.14538
G1 X142.139 Y79.370 E0.01691
G1 X145.399 Y82.630 E0.14538
G1 X144.863 Y82.630 E0.01691
G1 X141.603 Y79.370 E0.14538
G1 X141.066 Y79.370 E0.01691
G1 X144.327 Y82.630 E0.14538
G1 X143.790 Y82.630 E0.01691
G1 X140.530 Y79.370 E0.14538
G1 X139.994 Y79.370 E0.01691
G1 X143.254 Y82.630 E0.14538
G1 X142.718 Y82.630 E0.01691
G1 X139.458 Y79.370 E0.14538
G1 X138.921 Y79.370 E0.01691
G1 X142.182 Y82.630 E0.14538
G1 X141.645 Y82.630 E0.01691
G1 X138.385 Y79.370 E0.14538
G1 X137.849 Y79.370 E0.01691
G1 X141.109 Y82.630 E0.14538
G1 X140.573 Y82.630 E0.01691
G1 X137.313 Y79.370 E0.14538
G1 X136.776 Y79.370 E0.01691
G1 X140.037 Y82.630 E0.14538
G1 X139.500 Y82.630 E0.01691
G1 X136.240 Y79.370 E0.14538
G1 X135.704 Y79.370 E0.01691
G1 X138.964 Y82.630 E0.14538
G1 X138.428 Y82.630 E0.01691
G1 X135.167 Y79.370 E0.14538
G1 X134.631 Y79.370 E0.01691
G1 X137.891 Y82.630 E0.14538
G1 X137.355 Y82.630 E0.01691
G1 X134.095 Y79.370 E0.14538
G1 X133.559 Y79.370 E0.01691
G1 X136.819 Y82.630 E0.14538
G1 X136.283 Y82.630 E0.01691
G1 X133.022 Y79.370 E0.14538
M73 Q3 S37
G1 X132.486 Y79.370 E0.01691
G1 X135.746 Y82.630 E0.14538
M73 P3 R37
G1 X135.210 Y82.630 E0.01691
G1 X131.950 Y79.370 E0.14538
G1 X131.414 Y79.370 E0.01691
G1 X134.674 Y82.630 E0.14538
G1 X134.138 Y82.630 E0.01691
G1 X130.877 Y79.370 E0.14538
G1 X130.341 Y79.370 E0.01691
G1 X133.601 Y82.630 E0.14538
G1 X133.065 Y82.630 E0.01691
G1 X129.805 Y79.370 E0.14538
G1 X129.269 Y79.370 E0.01691
G1 X132.529 Y82.630 E0.14538
G1 X131.993 Y82.630 E0.01691
G1 X128.732 Y79.370 E0.14538
G1 X128.196 Y79.370 E0.01691
G1 X131.456 Y82.630 E0.14538
G1 X130.920 Y82.630 E0.01691
G1 X127.660 Y79.370 E0.14538
G1 X127.124 Y79.370 E0.01691
G1 X130.384 Y82.630 E0.14538
G1 X129.848 Y82.630 E0.01691
G1 X126.587 Y79.370 E0.14538
G1 X126.051 Y79.370 E0.01691
G1 X129.311 Y82.630 E0.14538
G1 X128.775 Y82.630 E0.01691
G1 X125.515 Y79.370 E0.14538
G1 X124.979 Y79.370 E0.01691
G1 X128.239 Y82.630 E0.14538
G1 X127.703 Y82.630 E0.01691
G1 X124.442 Y79.370 E0.14538
G1 X123.906 Y79.370 E0.01691
G1 X127.166 Y82.630 E0.14538
G1 X126.630 Y82.630 E0.01691
G1 X123.370 Y79.370 E0.14538
G1 X122.834 Y79.370 E0.01691
G1 X126.094 Y82.630 E0.14538
G1 X125.558 Y82.630 E0.01691
G1 X122.297 Y79.370 E0.14538
G1 X121.761 Y79.370 E0.01691
G1 X125.021 Y82.630 E0.14538
G1 X124.485 Y82.630 E0.01691
G1 X121.225 Y79.370 E0.14538
G1 X120.689 Y79.370 E0.01691
G1 X123.949 Y82.630 E0.14538
G1 X123.413 Y82.630 E0.01691
G1 X120.152 Y79.370 E0.14538
G1 X119.616 Y79.370 E0.01691
G1 X122.876 Y82.630 E0.14538
G1 X122.340 Y82.630 E0.01691
G1 X119.080 Y79.370 E0.14538
G1 X118.544 Y79.370 E0.01691
G1 X121.804 Y82.630 E0.14538
G1 X121.268 Y82.630 E0.01691
G1 X118.007 Y79.370 E0.14538
G1 X117.471 Y79.370 E0.01691
G1 X120.731 Y82.630 E0.14538
G1 X120.195 Y82.630 E0.01691
G1 X116.935 Y79.370 E0.14538
G1 X116.398 Y79.370 E0.01691
G1 X119.659 Y82.630 E0.14538
G1 X119.122 Y82.630 E0.01691
G1 X115.862 Y79.370 E0.14538
G1 X115.326 Y79.370 E0.01691
G1 X118.586 Y82.630 E0.14538
G1 X118.050 Y82.630 E0.01691
G1 X114.790 Y79.370 E0.14538
G1 X114.253 Y79.370 E0.01691
G1 X117.514 Y82.630 E0.14538
G1 X116.977 Y82.630 E0.01691
G1 X113.717 Y79.370 E0.14538
G1 X113.181 Y79.370 E0.01691
G1 X116.441 Y82.630 E0.14538
G1 X115.905 Y82.630 E0.01691
G1 X112.645 Y79.370 E0.14538
G1 X112.108 Y79.370 E0.01691
G1 X115.369 Y82.630 E0.14538
G1 X114.832 Y82.630 E0.01691
G1 X111.572 Y79.370 E0.14538
G1 X111.036 Y79.370 E0.01691
G1 X114.296 Y82.630 E0.14538
G1 X113.760 Y82.630 E0.01691
G1 X110.500 Y79.370 E0.14538
G1 X109.963 Y79.370 E0.01691
G1 X113.224 Y82.630 E0.14538
G1 X112.687 Y82.630 E0.01691
G1 X109.427 Y79.370 E0.14538
G1 X108.891 Y79.370 E0.01691
G1 X112.151 Y82.630 E0.14538
G1 X111.615 Y82.630 E0.01691
G1 X108.355 Y79.370 E0.14538
G1 X107.818 Y79.370 E0.01691
G1 X111.079 Y82.630 E0.14538
G1 X110.542 Y82.630 E0.01691
G1 X107.282 Y79.370 E0.14538
G1 X106.746 Y79.370 E0.01691
G1 X110.006 Y82.630 E0.14538
G1 X109.470 Y82.630 E0.01691
G1 X106.210 Y79.370 E0.14538
G1 X105.673 Y79.370 E0.01691
G1 X108.934 Y82.630 E0.14538
G1 X108.397 Y82.630 E0.01691
G1 X105.137 Y79.370 E0.14538
G1 X104.601 Y79.370 E0.01691
G1 X107.861 Y82.630 E0.14538
G1 X107.325 Y82.630 E0.01691
G1 X104.065 Y79.370 E0.14538
G1 X103.528 Y79.370 E0.01691
G1 X106.789 Y82.630 E0.14538
G1 X106.252 Y82.630 E0.01691
G1 X102.992 Y79.370 E0.14538
G1 X102.456 Y79.370 E0.01691
G1 X105.716 Y82.630 E0.14538
G1 X105.180 Y82.630 E0.01691
G1 X101.920 Y79.370 E0.14538
G1 X101.383 Y79.370 E0.01691
G1 X104.644 Y82.630 E0.14538
G1 X104.107 Y82.630 E0.01691
G1 X100.677 Y79.200 E0.15294
G1 F8640
G1 X103.005 Y81.528 E-0.76000
G1 E-0.04000 F2100.00000
G1 Z0.800 F10800.000
G1 X98.396 Y78.527
G1 Z0.200
G1 E0.80000 F2100.00000
G1 F1200
G1 X96.819 Y76.950 E0.07032
G1 X96.500 Y76.887 E0.01025
G1 X96.266 Y76.934 E0.00753
G1 X97.167 Y77.835 E0.04018
G1 X96.500 Y77.558 E0.02276
G1 X96.397 Y77.601 E0.00351
G1 X95.818 Y77.022 E0.02580
G1 X95.371 Y77.111 E0.01438
G1 X96.018 Y77.758 E0.02884
G1 X95.639 Y77.915 E0.01294
G1 X94.924 Y77.201 E0.03185
G1 X94.603 Y77.416 E0.01219
G1 X95.259 Y78.072 E0.02927
G1 X94.880 Y78.229 E0.01294
G1 X94.281 Y77.631 E0.02670
G1 X93.960 Y77.845 E0.01219
G1 X94.501 Y78.386 E0.02412
G1 X94.122 Y78.544 E0.01294
G1 X93.639 Y78.060 E0.02155
G1 X93.592 Y78.092 E0.00178
G1 X93.408 Y78.366 E0.01041
G1 X93.932 Y78.890 E0.02337
G1 X93.775 Y79.269 E0.01294
G1 X93.193 Y78.688 E0.02595
G1 X92.979 Y79.009 E0.01219
G1 X93.618 Y79.649 E0.02852
G1 X93.461 Y80.028 E0.01294
G1 X92.764 Y79.330 E0.03109
G1 X92.700 Y79.426 E0.00362
G1 X92.637 Y79.740 E0.01011
G1 X93.304 Y80.407 E0.02972
G1 X93.147 Y80.786 E0.01294
G1 X92.548 Y80.188 E0.02669
G1 X92.460 Y80.635 E0.01438
G1 X93.224 Y81.399 E0.03408
G1 X93.603 Y82.315 E0.03124
G1 X92.411 Y81.123 E0.05314
G1 X92.545 Y81.793 E0.02152
G1 X95.707 Y84.955 E0.14103
G1 X95.038 Y84.822 E0.02152
G1 X92.462 Y82.246 E0.11488
G1 F8640
G1 X94.789 Y84.573 E-0.76000
G1 E-0.04000 F2100.00000
G1 Z0.800 F10800.000
G1 X94.872 Y83.583
G1 Z0.200
G1 E0.80000 F2100.00000
G1 F1200
G1 X96.377 Y85.089 E0.06712
G1 X96.500 Y85.113 E0.00396
G1 X96.865 Y85.040 E0.01173
G1 X96.101 Y84.276 E0.03408
G1 X96.500 Y84.442 E0.01363
G1 X96.714 Y84.353 E0.00730
G1 X97.312 Y84.952 E0.02669
G1 X97.760 Y84.863 E0.01438
G1 X97.093 Y84.196 E0.02972
G1 X97.472 Y84.039 E0.01294
G1 X98.170 Y84.736 E0.03109
G1 X98.491 Y84.521 E0.01219
G1 X97.851 Y83.882 E0.02852
G1 X98.231 Y83.725 E0.01294
G1 X98.812 Y84.307 E0.02595
G1 X99.134 Y84.092 E0.01219
G1 X98.610 Y83.568 E0.02337
G1 X98.934 Y83.434 E0.01105
G1 X98.956 Y83.378 E0.00189
G1 X99.440 Y83.861 E0.02155
G1 X99.655 Y83.540 E0.01219
G1 X99.114 Y82.999 E0.02412
G1 X99.271 Y82.620 E0.01294
G1 X99.869 Y83.219 E0.02670
G1 X100.084 Y82.897 E0.01219
G1 X99.428 Y82.241 E0.02927
G1 X99.585 Y81.861 E0.01294
G1 X100.353 Y82.630 E0.03428
G1 X100.890 Y82.630 E0.01691
G1 X99.742 Y81.482 E0.05119
G1 X99.899 Y81.103 E0.01294
G1 X101.426 Y82.630 E0.06810
G1 X101.962 Y82.630 E0.01691
G1 X99.665 Y80.333 E0.10242
G1 X99.286 Y79.418 E0.03124
G1 X102.499 Y82.630 E0.14324
G1 X103.035 Y82.630 E0.01691
G1 X97.488 Y77.083 E0.24733
G1 X98.074 Y77.200 E0.01884
G1 X98.276 Y77.335 E0.00764
G1 X103.741 Y82.800 E0.24369
G1 F8640
G1 X101.413 Y80.472 E-0.76000
G1 E-0.04000 F2100.00000
G1 Z0.800 F10800.000
G1 X150.714 Y82.582
G1 Z0.200
G1 E0.80000 F2100.00000
G1 F1200
G1 X147.501 Y79.370 E0.14324
G1 X148.038 Y79.370 E0.01691
G1 X150.335 Y81.667 E0.10243
G1 X150.058 Y81.000 E0.02276
G1 X150.101 Y80.897 E0.00351
G1 X148.574 Y79.370 E0.06810
G1 X149.110 Y79.370 E0.01691
G1 X150.258 Y80.518 E0.05119
G1 X150.415 Y80.139 E0.01294
G1 X149.646 Y79.370 E0.03428
G1 X149.737 Y79.370 E0.00287
G1 X149.916 Y79.103 E0.01012
G1 X150.572 Y79.759 E0.02927
G1 X150.729 Y79.380 E0.01294
G1 X150.131 Y78.782 E0.02670
G1 X150.345 Y78.460 E0.01219
G1 X150.886 Y79.001 E0.02412
G1 X151.043 Y78.622 E0.01294
G1 X150.560 Y78.139 E0.02155
G1 X150.592 Y78.092 E0.00178
G1 X150.866 Y77.908 E0.01041
G1 X151.390 Y78.432 E0.02337
G1 X151.769 Y78.275 E0.01294
G1 X151.188 Y77.693 E0.02594
G1 X151.509 Y77.479 E0.01219
G1 X152.149 Y78.118 E0.02852
G1 X152.528 Y77.961 E0.01294
G1 X151.830 Y77.264 E0.03109
G1 X151.926 Y77.200 E0.00362
G1 X152.240 Y77.137 E0.01011
G1 X152.907 Y77.804 E0.02973
G1 X153.286 Y77.647 E0.01294
G1 X152.688 Y77.049 E0.02669
G1 X153.135 Y76.960 E0.01438
G1 X153.899 Y77.724 E0.03408
G1 X154.815 Y78.103 E0.03124
G1 X153.438 Y76.726 E0.06139
G1 F8640
G1 X154.815 Y78.103 E-0.44957
G1 X153.899 Y77.724 E-0.22879
G1 X153.649 Y77.474 E-0.08164
G1 E-0.04000 F2100.00000
G1 Z0.800 F10800.000
G1 X157.538 Y79.754
G1 Z0.200
G1 E0.80000 F2100.00000
G1 F1200
G1 X154.962 Y77.178 E0.11488
G1 X154.292 Y77.045 E0.02152
G1 X157.455 Y80.208 E0.14104
G1 X157.589 Y80.877 E0.02152
G1 X156.397 Y79.685 E0.05313
G1 X156.776 Y80.601 E0.03124
G1 X157.540 Y81.365 E0.03408
G1 X157.452 Y81.812 E0.01438
G1 X156.853 Y81.214 E0.02669
G1 X156.696 Y81.593 E0.01294
G1 X157.363 Y82.260 E0.02973
G1 X157.300 Y82.574 E0.01011
G1 X157.236 Y82.670 E0.00362
G1 X156.539 Y81.972 E0.03109
G1 X156.382 Y82.351 E0.01294
G1 X157.021 Y82.991 E0.02852
G1 X156.807 Y83.312 E0.01219
G1 X156.225 Y82.731 E0.02594
G1 X156.068 Y83.110 E0.01294
G1 X156.592 Y83.634 E0.02337
G1 X156.408 Y83.908 E0.01041
G1 X156.361 Y83.940 E0.00178
G1 X155.878 Y83.457 E0.02155
G1 X155.499 Y83.614 E0.01294
G1 X156.040 Y84.155 E0.02412
G1 X155.718 Y84.369 E0.01219
G1 X155.120 Y83.771 E0.02670
G1 X154.741 Y83.928 E0.01294
G1 X155.397 Y84.584 E0.02927
G1 X155.076 Y84.799 E0.01219
G1 X154.361 Y84.085 E0.03185
G1 X153.982 Y84.242 E0.01294
G1 X154.629 Y84.889 E0.02884
G1 X154.182 Y84.978 E0.01438
G1 X153.603 Y84.399 E0.02580
G1 X153.500 Y84.442 E0.00351
G1 X152.833 Y84.165 E0.02276
G1 X153.734 Y85.066 E0.04018
G1 X153.500 Y85.113 E0.00753
