; generated by Slic3r Prusa Edition 1.41.0+win64 on 2018-11-27 at 22:05:36

; 

; external perimeters extrusion width = 0.45mm
; perimeters extrusion width = 0.45mm
; infill extrusion width = 0.45mm
; solid infill extrusion width = 0.45mm
; top infill extrusion width = 0.40mm
; first layer extrusion width = 0.42mm

M201 X1000 Y1000 Z1000 E5000 ; sets maximum accelerations, mm/sec^2
M203 X200 Y200 Z12 E120 ; sets maximum feedrates, mm/sec
M204 P1250 R1250 T1250 ; sets acceleration (P, T) and retract acceleration (R), mm/sec^2
M205 X8.00 Y8.00 Z0.40 E1.50 ; sets the jerk limits, mm/sec
M205 S0 T0 ; sets the minimum extruding and travel feed rate, mm/sec
M107
M115 U3.4.1 ; tell printer latest fw version
M83  ; extruder relative mode
M104 S215 ; set extruder temp
M140 S60 ; set bed temp
M190 S60 ; wait for bed temp
M109 S215 ; wait for extruder temp
G28 W ; home all without mesh bed level
G80 ; mesh bed leveling
G1 Y-3.0 F1000.0 ; go outside print area
G92 E0.0
G1 X60.0 E9.0  F1000.0 ; intro line
M73 Q0 S81
M73 P0 R80
G1 X100.0 E12.5  F1000.0 ; intro line
G92 E0.0
M221 S95
M900 K30; Filament gcode
G21 ; set units to millimeters
G90 ; use absolute coordinates
M83 ; use relative distances for extrusion
;BEFORE_LAYER_CHANGE
G92 E0.0
;0.2


G1 E-0.80000 F2100.00000
G1 Z0.600 F10800.000
;AFTER_LAYER_CHANGE
;0.2
G1 X111.102 Y89.872
G1 Z0.200
G1 E0.80000 F2100.00000
M204 S1000
G1 F1200
G1 X111.690 Y89.273 E0.02631
G1 X123.557 Y80.653 E0.45989
G1 X124.246 Y80.321 E0.02398
G1 X125.003 Y80.208 E0.02398
G1 X125.759 Y80.323 E0.02398
G1 X126.444 Y80.653 E0.02386
G1 X138.436 Y89.371 E0.46485
G1 X138.932 Y89.922 E0.02324
G1 X139.250 Y90.592 E0.02324
G1 X139.362 Y91.329 E0.02337
G1 X139.260 Y92.063 E0.02324
G1 X134.705 Y106.080 E0.46213
G1 X134.330 Y106.769 E0.02459
G1 X133.765 Y107.313 E0.02459
G1 X133.088 Y107.651 E0.02374
G1 X132.345 Y107.778 E0.02361
G1 X117.693 Y107.778 E0.45940
G1 X116.991 Y107.675 E0.02226
G1 X116.442 Y107.443 E0.01869
G1 X115.958 Y107.088 E0.01882
G1 X115.571 Y106.630 E0.01882
G1 X115.300 Y106.094 E0.01882
G1 X110.742 Y92.069 E0.46237
G1 X110.638 Y91.347 E0.02288
G1 X110.741 Y90.625 E0.02288
G1 X111.076 Y89.926 E0.02431
G1 X111.412 Y90.088 F10800.000
G1 F1200
G1 X111.912 Y89.577 E0.02243
G1 X123.761 Y80.969 E0.45920
G1 X124.351 Y80.684 E0.02055
G1 X125.003 Y80.585 E0.02066
G1 X125.651 Y80.684 E0.02055
G1 X126.240 Y80.971 E0.02055
G1 X138.184 Y89.652 E0.46298
G1 X138.613 Y90.124 E0.01998
G1 X138.889 Y90.702 E0.02010
G1 X138.985 Y91.332 E0.01998
G1 X138.895 Y91.967 E0.02010
G1 X134.353 Y105.944 E0.46080
G1 X134.036 Y106.534 E0.02100
G1 X133.551 Y107.002 E0.02112
G1 X132.972 Y107.292 E0.02032
G1 X132.333 Y107.401 E0.02032
G1 X117.698 Y107.401 E0.45886
G1 X117.089 Y107.311 E0.01930
G1 X116.620 Y107.111 E0.01601
G1 X116.210 Y106.807 E0.01601
G1 X115.881 Y106.416 E0.01601
G1 X115.651 Y105.956 E0.01612
G1 X111.107 Y91.972 E0.46103
G1 X111.015 Y91.349 E0.01976
G1 X111.104 Y90.725 E0.01976
G1 X111.386 Y90.142 E0.02029
; PURGING FINISHED
G1 F8640
G1 X111.912 Y89.577 E-0.17839
G1 X113.950 Y88.097 E-0.58161
G1 E-0.04000 F2100.00000
G1 Z0.800 F10800.000
G1 X114.084 Y91.631
G1 Z0.200
G1 E0.80000 F2100.00000
G1 F1200
G1 X125.000 Y83.700 E0.42304
G1 X135.916 Y91.631 E0.42305
G1 X131.746 Y104.463 E0.42305
G1 X118.254 Y104.463 E0.42305
G1 X114.103 Y91.688 E0.42116
G1 X113.641 Y91.487 F10800.000
G1 F1200
G1 X125.000 Y83.234 E0.44022
G1 X136.359 Y91.487 E0.44023
G1 X132.020 Y104.840 E0.44023
G1 X117.980 Y104.840 E0.44023
G1 X113.660 Y91.544 E0.43834
G1 X114.032 Y91.404 F10800.000
G1 F8640
G1 X116.315 Y89.598 E-0.76000
G1 E-0.04000 F2100.00000
G1 Z0.800 F10800.000
G1 X117.962 Y103.200
G1 Z0.200
G1 E0.80000 F2100.00000
G1 F1200
G1 X118.942 Y104.180 E0.04391
G1 X119.481 Y104.180 E0.01708
G1 X117.967 Y102.666 E0.06785
G1 X117.708 Y101.868 E0.02661
G1 X120.020 Y104.180 E0.10363
G1 X120.559 Y104.180 E0.01708
G1 X117.449 Y101.069 E0.13942
G1 X117.189 Y100.271 E0.02661
G1 X121.098 Y104.180 E0.17520
G1 X121.637 Y104.180 E0.01708
G1 X116.930 Y99.472 E0.21099
G1 X116.670 Y98.674 E0.02661
G1 X122.176 Y104.180 E0.24677
G1 X122.715 Y104.180 E0.01708
G1 X116.411 Y97.876 E0.28256
G1 X116.151 Y97.077 E0.02661
G1 X123.254 Y104.180 E0.31834
G1 X123.793 Y104.180 E0.01708
G1 X115.892 Y96.279 E0.35413
G1 X115.633 Y95.480 E0.02661
G1 X124.332 Y104.180 E0.38991
G1 X124.871 Y104.180 E0.01708
G1 X115.373 Y94.682 E0.42569
G1 X115.114 Y93.883 E0.02661
G1 X125.410 Y104.180 E0.46148
G1 X125.949 Y104.180 E0.01708
G1 X114.854 Y93.085 E0.49726
G1 X114.595 Y92.287 E0.02661
G1 X126.488 Y104.180 E0.53305
G1 X127.027 Y104.180 E0.01708
G1 X114.515 Y91.668 E0.56079
G1 X114.827 Y91.441 E0.01223
G1 X127.566 Y104.180 E0.57095
G1 X128.105 Y104.180 E0.01708
G1 X115.139 Y91.214 E0.58112
G1 X115.451 Y90.987 E0.01223
G1 X128.644 Y104.180 E0.59129
G1 X129.183 Y104.180 E0.01708
G1 X115.764 Y90.760 E0.60145
G1 X116.076 Y90.534 E0.01223
G1 X129.722 Y104.180 E0.61162
G1 X130.261 Y104.180 E0.01708
G1 X116.388 Y90.307 E0.62178
G1 X116.700 Y90.080 E0.01223
G1 X130.800 Y104.180 E0.63195
G1 X131.339 Y104.180 E0.01708
G1 X117.012 Y89.853 E0.64211
G1 X117.325 Y89.626 E0.01223
G1 X131.624 Y103.925 E0.64086
G1 X131.756 Y103.518 E0.01356
G1 X117.637 Y89.399 E0.63279
G1 X117.949 Y89.173 E0.01223
G1 X131.888 Y103.112 E0.62472
G1 X132.020 Y102.705 E0.01356
G1 X118.261 Y88.946 E0.61666
G1 X118.573 Y88.719 E0.01223
G1 X132.152 Y102.298 E0.60859
G1 X132.284 Y101.891 E0.01356
G1 X118.886 Y88.492 E0.60052
G1 X119.198 Y88.265 E0.01223
G1 X132.417 Y101.484 E0.59245
G1 X132.549 Y101.078 E0.01356
G1 X119.510 Y88.039 E0.58439
G1 X119.822 Y87.812 E0.01223
G1 X132.681 Y100.671 E0.57632
G1 X132.813 Y100.264 E0.01356
G1 X120.134 Y87.585 E0.56825
G1 X120.446 Y87.358 E0.01223
G1 X132.945 Y99.857 E0.56018
G1 X133.078 Y99.450 E0.01356
G1 X120.759 Y87.131 E0.55212
G1 X121.071 Y86.905 E0.01223
G1 X133.210 Y99.043 E0.54405
G1 X133.342 Y98.637 E0.01356
G1 X121.383 Y86.678 E0.53598
G1 X121.695 Y86.451 E0.01223
G1 X133.474 Y98.230 E0.52791
G1 X133.606 Y97.823 E0.01356
G1 X122.007 Y86.224 E0.51985
G1 X122.320 Y85.997 E0.01223
G1 X133.739 Y97.416 E0.51178
G1 X133.871 Y97.009 E0.01356
G1 X122.632 Y85.770 E0.50371
G1 X122.944 Y85.544 E0.01223
G1 X134.003 Y96.603 E0.49564
G1 X134.135 Y96.196 E0.01356
G1 X123.256 Y85.317 E0.48758
G1 X123.568 Y85.090 E0.01223
G1 X134.267 Y95.789 E0.47951
G1 X134.399 Y95.382 E0.01356
G1 X123.881 Y84.863 E0.47144
G1 X124.193 Y84.636 E0.01223
G1 X134.532 Y94.975 E0.46337
G1 X134.664 Y94.568 E0.01356
G1 X124.505 Y84.410 E0.45531
G1 X124.817 Y84.183 E0.01223
G1 X134.931 Y94.296 E0.45327
G1 X135.063 Y93.889 F10800.000
G1 F1200
G1 X125.049 Y83.876 E0.44880
G1 F8640
G1 X127.377 Y86.203 E-0.76000
G1 E-0.04000 F2100.00000
G1 Z0.800 F10800.000
G1 X127.020 Y85.308
G1 Z0.200
G1 E0.80000 F2100.00000
G1 F1200
G1 X135.195 Y93.483 E0.36639
M73 Q1 S80
M73 P1 R79
G1 X135.327 Y93.076 F10800.000
G1 F1200
G1 X128.991 Y86.740 E0.28397
G1 F8640
G1 X131.319 Y89.067 E-0.76000
G1 E-0.04000 F2100.00000
G1 Z0.800 F10800.000
G1 X130.962 Y88.172
G1 Z0.200
G1 E0.80000 F2100.00000
G1 F1200
G1 X135.459 Y92.669 E0.20156
G1 X135.592 Y92.262 F10800.000
G1 F1200
G1 X132.933 Y89.604 E0.11914
M106 S255
;BEFORE_LAYER_CHANGE
G92 E0.0
;0.35


G1 F8640
G1 X135.261 Y91.931 E-0.76000
G1 E-0.04000 F2100.00000
G1 Z0.800 F10800.000
;AFTER_LAYER_CHANGE
;0.35
G1 X138.932 Y89.922
G1 Z0.350
G1 E0.80000 F2100.00000
G1 F3000
G1 X139.250 Y90.592 E0.01793
G1 X139.362 Y91.329 E0.01802
G1 X139.260 Y92.063 E0.01793
G1 X134.705 Y106.080 E0.35646
G1 X134.330 Y106.769 E0.01897
G1 X133.765 Y107.313 E0.01897
G1 X133.088 Y107.651 E0.01831
G1 X132.345 Y107.778 E0.01821
G1 X117.693 Y107.778 E0.35435
G1 X116.991 Y107.675 E0.01717
G1 X116.442 Y107.443 E0.01442
G1 X115.958 Y107.088 E0.01451
G1 X115.571 Y106.630 E0.01451
G1 X115.300 Y106.094 E0.01451
G1 X110.742 Y92.069 E0.35665
G1 X110.638 Y91.347 E0.01765
G1 X110.741 Y90.625 E0.01765
G1 X111.102 Y89.872 E0.02020
G1 X111.690 Y89.273 E0.02029
G1 X123.557 Y80.653 E0.35473
G1 X124.246 Y80.321 E0.01850
G1 X125.003 Y80.208 E0.01850
G1 X125.759 Y80.323 E0.01850
G1 X126.444 Y80.653 E0.01840
G1 X138.436 Y89.371 E0.35856
G1 X138.892 Y89.877 E0.01648
; PURGING FINISHED
G1 F8640
G1 X139.250 Y90.592 E-0.18450
G1 X139.362 Y91.329 E-0.17208
G1 X139.260 Y92.063 E-0.17118
G1 X138.949 Y93.019 E-0.23224
G1 E-0.04000 F2100.00000
G1 Z0.950 F10800.000
G1 X135.953 Y91.619
G1 Z0.350
G1 E0.80000 F2100.00000
M204 S800
G1 F2700
G1 X131.769 Y104.495 E0.35276
G1 X118.231 Y104.495 E0.35276
G1 X114.047 Y91.619 E0.35276
G1 X125.000 Y83.661 E0.35276
G1 X135.904 Y91.583 E0.35119
M204 S1000
G1 X136.444 Y91.459 F10800.000
M204 S800
G1 F2100
G1 X132.073 Y104.912 E0.36858
G1 X117.927 Y104.912 E0.36858
G1 X113.556 Y91.459 E0.36858
G1 X125.000 Y83.145 E0.36858
G1 X136.396 Y91.424 E0.36701
M204 S1000
G1 X136.176 Y91.756 F10800.000
G1 F8640
G1 X135.391 Y94.558 E-0.76000
G1 E-0.04000 F2100.00000
G1 Z0.950 F10800.000
G1 X125.159 Y83.932
G1 Z0.350
G1 E0.80000 F2100.00000
M204 S1250
G1 F3506
G1 X115.136 Y93.955 E0.37084
G1 X115.281 Y94.403 E0.01232
G1 X125.368 Y84.316 E0.37319
G1 X125.712 Y84.566 E0.01111
G1 X115.427 Y94.851 E0.38052
G1 X115.572 Y95.299 E0.01232
G1 X126.056 Y84.815 E0.38784
G1 X126.399 Y85.065 E0.01111
G1 X115.718 Y95.746 E0.39517
G1 X115.863 Y96.194 E0.01232
G1 X126.743 Y85.315 E0.40250
G1 X127.086 Y85.564 E0.01111
G1 X116.009 Y96.642 E0.40983
G1 X116.154 Y97.090 E0.01232
G1 X127.430 Y85.814 E0.41716
G1 X127.774 Y86.063 E0.01111
G1 X116.300 Y97.537 E0.42449
G1 X116.445 Y97.985 E0.01232
G1 X128.117 Y86.313 E0.43182
G1 X128.461 Y86.563 E0.01111
G1 X116.591 Y98.433 E0.43915
G1 X116.736 Y98.881 E0.01232
G1 X128.804 Y86.812 E0.44648
G1 X129.148 Y87.062 E0.01111
G1 X116.882 Y99.329 E0.45381
G1 X117.027 Y99.776 E0.01232
G1 X129.492 Y87.312 E0.46114
G1 X129.835 Y87.561 E0.01111
G1 X117.173 Y100.224 E0.46847
G1 X117.318 Y100.672 E0.01232
G1 X130.179 Y87.811 E0.47580
G1 X130.522 Y88.061 E0.01111
G1 X117.464 Y101.120 E0.48313
G1 X117.609 Y101.567 E0.01232
G1 X130.866 Y88.310 E0.49046
G1 X131.210 Y88.560 E0.01111
G1 X117.755 Y102.015 E0.49779
G1 X117.900 Y102.463 E0.01232
G1 X131.553 Y88.809 E0.50512
G1 X131.897 Y89.059 E0.01111
G1 X118.045 Y102.911 E0.51245
G1 X118.191 Y103.358 E0.01232
G1 X132.240 Y89.309 E0.51978
G1 X132.584 Y89.558 E0.01111
G1 X118.336 Y103.806 E0.52711
G1 X118.458 Y104.181 E0.01032
G1 X118.554 Y104.181 E0.00251
G1 X132.928 Y89.808 E0.53175
G1 X133.271 Y90.058 E0.01111
G1 X119.148 Y104.181 E0.52252
G1 X119.741 Y104.181 E0.01552
G1 X133.615 Y90.307 E0.51328
G1 X133.958 Y90.557 E0.01111
G1 X120.334 Y104.181 E0.50405
G1 X120.927 Y104.181 E0.01552
G1 X134.302 Y90.807 E0.49481
G1 X134.646 Y91.056 E0.01111
G1 X121.521 Y104.181 E0.48558
G1 X122.114 Y104.181 E0.01552
G1 X134.989 Y91.306 E0.47634
G1 X135.333 Y91.556 E0.01111
G1 X122.707 Y104.181 E0.46710
G1 X123.300 Y104.181 E0.01552
G1 X135.508 Y91.973 E0.45165
G1 X135.223 Y92.852 E0.02417
G1 X123.894 Y104.181 E0.41914
G1 X124.487 Y104.181 E0.01552
G1 X134.937 Y93.731 E0.38662
G1 X134.652 Y94.610 E0.02417
G1 X125.080 Y104.181 E0.35411
G1 X125.673 Y104.181 E0.01552
G1 X134.366 Y95.488 E0.32160
G1 X134.081 Y96.367 E0.02417
G1 X126.267 Y104.181 E0.28909
G1 X126.860 Y104.181 E0.01552
G1 X133.795 Y97.246 E0.25658
G1 X133.510 Y98.125 E0.02417
G1 X127.453 Y104.181 E0.22407
G1 X128.046 Y104.181 E0.01552
G1 X133.224 Y99.004 E0.19156
G1 X132.939 Y99.882 E0.02417
G1 X128.639 Y104.181 E0.15905
G1 X129.233 Y104.181 E0.01552
G1 X132.653 Y100.761 E0.12654
G1 X132.367 Y101.640 E0.02417
G1 X129.826 Y104.181 E0.09403
G1 X130.419 Y104.181 E0.01552
G1 X132.082 Y102.519 E0.06151
G1 X131.796 Y103.397 E0.02417
G1 X130.824 Y104.369 E0.03596
M204 S1000
G1 F8640
G1 X131.796 Y103.397 E-0.31740
G1 X132.082 Y102.519 E-0.21335
G1 X131.380 Y103.221 E-0.22925
G1 E-0.04000 F2100.00000
G1 Z0.950 F10800.000
G1 X114.841 Y93.657
G1 Z0.350
G1 E0.80000 F2100.00000
M204 S1250
G1 F3506
G1 X123.837 Y84.661 E0.33283
M204 S1000
G1 F8640
G1 X121.510 Y86.988 E-0.76000
G1 E-0.04000 F2100.00000
G1 Z0.950 F10800.000
G1 X121.668 Y86.237
G1 Z0.350
G1 E0.80000 F2100.00000
M204 S1250
G1 F3506
G1 X114.696 Y93.209 E0.25795
M204 S1000
G1 X114.550 Y92.761 F10800.000
M204 S1250
G1 F3506
G1 X119.499 Y87.813 E0.18308
M204 S1000
G1 F8640
G1 X117.171 Y90.140 E-0.76000
G1 E-0.04000 F2100.00000
G1 Z0.950 F10800.000
G1 X117.329 Y89.389
G1 Z0.350
G1 E0.80000 F2100.00000
M204 S1250
G1 F3506
G1 X114.405 Y92.314 E0.10820
M204 S1000
;BEFORE_LAYER_CHANGE
G92 E0.0
;0.5


G1 F8640
G1 X116.732 Y89.986 E-0.76000
G1 E-0.04000 F2100.00000
G1 Z0.950 F10800.000
;AFTER_LAYER_CHANGE
;0.5
G1 X111.102 Y89.872
G1 Z0.500
G1 E0.80000 F2100.00000
G1 F3000
G1 X111.690 Y89.273 E0.02029
G1 X123.557 Y80.653 E0.35473
G1 X124.246 Y80.321 E0.01850
G1 X125.003 Y80.208 E0.01850
G1 X125.759 Y80.323 E0.01850
G1 X126.444 Y80.653 E0.01840
G1 X138.436 Y89.371 E0.35856
G1 X138.932 Y89.922 E0.01793
G1 X139.250 Y90.592 E0.01793
G1 X139.362 Y91.329 E0.01802
G1 X139.260 Y92.063 E0.01793
G1 X134.705 Y106.080 E0.35646
G1 X134.330 Y106.769 E0.01897
G1 X133.765 Y107.313 E0.01897
G1 X133.088 Y107.651 E0.01831
G1 X132.345 Y107.778 E0.01821
G1 X117.693 Y107.778 E0.35435
G1 X116.991 Y107.675 E0.01717
G1 X116.442 Y107.443 E0.01442
G1 X115.958 Y107.088 E0.01451
G1 X115.571 Y106.630 E0.01451
G1 X115.300 Y106.094 E0.01451
G1 X110.742 Y92.069 E0.35665
G1 X110.638 Y91.347 E0.01765
G1 X110.741 Y90.625 E0.01765
G1 X111.076 Y89.926 E0.01875
; PURGING FINISHED
G1 F8640
G1 X111.690 Y89.273 E-0.20691
G1 X113.628 Y87.865 E-0.55309
G1 E-0.04000 F2100.00000
G1 Z1.100 F10800.000
G1 X113.959 Y91.590
G1 Z0.500
G1 E0.80000 F2100.00000
M204 S800
G1 F2700
G1 X125.000 Y83.568 E0.35560
G1 X136.041 Y91.590 E0.35560
G1 X131.824 Y104.570 E0.35560
G1 X118.176 Y104.570 E0.35560
G1 X113.977 Y91.647 E0.35403
M204 S1000
G1 X113.468 Y91.430 F10800.000
M204 S800
G1 F2100
G1 X125.000 Y83.052 E0.37142
G1 X136.532 Y91.430 E0.37142
G1 X132.127 Y104.987 E0.37142
G1 X117.873 Y104.987 E0.37142
G1 X113.486 Y91.488 E0.36985
M204 S1000
G1 X113.859 Y91.347 F10800.000
G1 F8640
G1 X116.141 Y89.542 E-0.76000
G1 E-0.04000 F2100.00000
G1 Z1.100 F10800.000
G1 X117.853 Y103.169
G1 Z0.500
G1 E0.80000 F2100.00000
M204 S1250
G1 F3488
G1 X118.940 Y104.256 E0.04056
G1 X119.538 Y104.256 E0.01577
G1 X117.858 Y102.576 E0.06268
G1 X117.570 Y101.690 E0.02457
G1 X120.136 Y104.256 E0.09572
G1 X120.734 Y104.256 E0.01577
G1 X117.282 Y100.804 E0.12876
G1 X116.994 Y99.918 E0.02457
G1 X121.333 Y104.256 E0.16180
G1 X121.931 Y104.256 E0.01577
G1 X116.706 Y99.032 E0.19485
G1 X116.419 Y98.146 E0.02457
G1 X122.529 Y104.256 E0.22789
G1 X123.127 Y104.256 E0.01577
G1 X116.131 Y97.260 E0.26093
G1 X115.843 Y96.374 E0.02457
G1 X123.725 Y104.256 E0.29397
G1 X124.323 Y104.256 E0.01577
G1 X115.555 Y95.488 E0.32702
G1 X115.267 Y94.603 E0.02457
G1 X124.921 Y104.256 E0.36006
G1 X125.519 Y104.256 E0.01577
G1 X114.979 Y93.717 E0.39310
G1 X114.691 Y92.831 E0.02457
G1 X126.117 Y104.256 E0.42614
G1 X126.715 Y104.256 E0.01577
G1 X114.404 Y91.945 E0.45919
G1 X114.327 Y91.710 E0.00652
G1 X114.582 Y91.525 E0.00830
G1 X127.313 Y104.256 E0.47485
G1 X127.911 Y104.256 E0.01577
G1 X114.928 Y91.273 E0.48423
G1 X115.275 Y91.022 E0.01129
G1 X128.509 Y104.256 E0.49362
G1 X129.107 Y104.256 E0.01577
G1 X115.621 Y90.770 E0.50301
G1 X115.967 Y90.518 E0.01129
G1 X129.706 Y104.256 E0.51239
G1 X130.304 Y104.256 E0.01577
G1 X116.314 Y90.267 E0.52178
G1 X116.660 Y90.015 E0.01129
G1 X130.902 Y104.256 E0.53117
G1 X131.500 Y104.256 E0.01577
G1 X117.007 Y89.763 E0.54055
G1 X117.353 Y89.511 E0.01129
G1 X131.719 Y103.878 E0.53582
G1 X131.866 Y103.426 E0.01252
G1 X117.699 Y89.260 E0.52837
G1 X118.046 Y89.008 E0.01129
G1 X132.013 Y102.975 E0.52092
G1 X132.159 Y102.524 E0.01252
G1 X118.392 Y88.756 E0.51347
G1 X118.739 Y88.505 E0.01129
G1 X132.306 Y102.072 E0.50602
G1 X132.453 Y101.621 E0.01252
G1 X119.085 Y88.253 E0.49857
G1 X119.431 Y88.001 E0.01129
G1 X132.599 Y101.169 E0.49112
G1 X132.746 Y100.718 E0.01252
G1 X119.778 Y87.750 E0.48367
G1 X120.124 Y87.498 E0.01129
G1 X132.893 Y100.267 E0.47622
G1 X133.039 Y99.815 E0.01252
G1 X120.471 Y87.246 E0.46878
G1 X120.817 Y86.995 E0.01129
