; generated by Slic3r Prusa Edition 1.41.0+win64 on 2018-10-22 at 20:24:07

; 

; external perimeters extrusion width = 0.45mm
; perimeters extrusion width = 0.45mm
; infill extrusion width = 0.45mm
; solid infill extrusion width = 0.45mm
; top infill extrusion width = 0.45mm
; first layer extrusion width = 0.42mm

M201 X9000 Y9000 Z500 E10000 ; sets maximum accelerations, mm/sec^2
M203 X500 Y500 Z12 E120 ; sets maximum feedrates, mm/sec
M204 P2000 R1500 T2000 ; sets acceleration (P, T) and retract acceleration (R), mm/sec^2
M205 X10.00 Y10.00 Z0.20 E2.50 ; sets the jerk limits, mm/sec
M205 S0 T0 ; sets the minimum extruding and travel feed rate, mm/sec
M107
M115 U3.4.0 ; tell printer latest fw version
M83  ; extruder relative mode
M104 S220 ; set extruder temp
M140 S55 ; set bed temp
M190 S55 ; wait for bed temp
M109 S220 ; wait for extruder temp
G28 W ; home all without mesh bed level
G80 ; mesh bed leveling
G1 Y-3.0 F1000.0 ; go outside print area
G92 E0.0
G1 X60.0 E9.0  F1000.0 ; intro line
M73 P0 R91
G1 X100.0 E12.5  F1000.0 ; intro line
G92 E0.0
M900 K10; Filament gcode
G21 ; set units to millimeters
G90 ; use absolute coordinates
M83 ; use relative distances for extrusion
;BEFORE_LAYER_CHANGE
G92 E0.0
;0.2


G1 E-0.80000 F2100.00000
G1 Z0.600 F10800.000
;AFTER_LAYER_CHANGE
;0.2
G1 X105.267 Y98.003
G1 Z0.200
G1 E0.80000 F2100.00000
M204 S1000
G1 F1193.38
G1 X106.074 Y97.144 E0.04434
G1 X106.970 Y96.391 E0.04405
G1 X107.921 Y95.763 E0.04288
G1 X125.936 Y85.376 E0.78241
G1 X127.021 Y84.896 E0.04464
G1 X128.163 Y84.546 E0.04493
G1 X129.338 Y84.335 E0.04493
G1 X130.522 Y84.265 E0.04464
G1 X132.571 Y84.453 E0.07740
G1 X133.981 Y84.761 E0.05431
G1 X135.467 Y85.332 E0.05988
G1 X136.843 Y86.131 E0.05988
G1 X138.231 Y87.292 E0.06808
G1 X139.474 Y88.771 E0.07271
G1 X140.321 Y90.073 E0.05841
G1 X140.958 Y91.497 E0.05871
G1 X141.370 Y93.026 E0.05959
G1 X141.535 Y94.609 E0.05988
G1 X141.538 Y115.147 E0.77272
G1 X141.483 Y116.199 E0.03965
G1 X141.317 Y117.240 E0.03965
G1 X141.042 Y118.257 E0.03965
G1 X140.662 Y119.240 E0.03965
G1 X139.675 Y120.957 E0.07451
G1 X138.802 Y122.084 E0.05367
G1 X138.071 Y122.865 E0.04024
G1 X137.310 Y123.525 E0.03789
G1 X136.493 Y124.100 E0.03760
G1 X135.623 Y124.592 E0.03760
G1 X134.701 Y124.996 E0.03789
G1 X132.889 Y125.496 E0.07071
G1 X131.515 Y125.684 E0.05220
G1 X130.509 Y125.735 E0.03789
G1 X129.325 Y125.664 E0.04464
G1 X128.157 Y125.453 E0.04464
G1 X127.023 Y125.105 E0.04464
G1 X125.938 Y124.625 E0.04464
G1 X107.923 Y114.238 E0.78241
G1 X106.966 Y113.606 E0.04317
G1 X106.070 Y112.852 E0.04405
G1 X105.263 Y111.993 E0.04434
G1 X104.568 Y111.051 E0.04405
G1 X103.984 Y110.027 E0.04434
G1 X103.353 Y108.542 E0.06071
G1 X103.012 Y107.463 E0.04258
G1 X102.782 Y106.243 E0.04669
G1 X102.704 Y104.997 E0.04698
G1 X102.782 Y103.751 E0.04698
G1 X103.014 Y102.532 E0.04669
G1 X103.355 Y101.453 E0.04258
G1 X103.986 Y99.968 E0.06070
G1 X104.567 Y98.951 E0.04405
G1 X105.231 Y98.051 E0.04209
G1 F8640
G1 X106.074 Y97.144 E-0.28590
G1 X106.970 Y96.391 E-0.27033
G1 X107.707 Y95.905 E-0.20377
G1 E-0.04000 F2100.00000
G1 Z0.800 F10800.000
G1 X104.159 Y100.713
G1 Z0.200
G1 E0.80000 F2100.00000
G1 F1193.38
G1 X107.347 Y96.950 E0.18557
G1 X126.688 Y85.783 E0.84027
G1 X129.508 Y84.920 E0.11097
G1 X132.451 Y84.918 E0.11072
G1 X135.335 Y85.820 E0.11369
G1 X137.830 Y87.591 E0.11514
G1 X139.693 Y90.087 E0.11718
G1 X140.668 Y92.980 E0.11487
G1 X140.799 Y116.107 E0.87016
G1 X140.168 Y118.775 E0.10316
G1 X139.674 Y119.976 E0.04887
G1 X137.226 Y122.978 E0.14574
G1 X135.827 Y123.918 E0.06343
G1 X134.351 Y124.604 E0.06121
G1 X132.190 Y125.095 E0.08339
G1 X130.769 Y125.203 E0.05363
G1 X126.777 Y124.268 E0.15427
G1 X107.390 Y113.075 E0.84227
G1 X104.944 Y110.507 E0.13341
G1 X104.249 Y109.423 E0.04847
G1 X103.410 Y107.008 E0.09620
G1 X103.214 Y104.457 E0.09627
G1 X103.518 Y102.547 E0.07276
G1 X104.139 Y100.769 E0.07085
G1 X104.495 Y100.894 F10800.000
G1 F1193.38
G1 X107.564 Y97.260 E0.17896
G1 X126.858 Y86.121 E0.83822
G1 X129.591 Y85.289 E0.10749
G1 X132.421 Y85.295 E0.10648
G1 X135.192 Y86.170 E0.10936
G1 X137.587 Y87.880 E0.11071
G1 X139.372 Y90.287 E0.11275
G1 X140.301 Y93.071 E0.11041
G1 X140.422 Y116.086 E0.86596
G1 X139.804 Y118.673 E0.10006
G1 X139.336 Y119.807 E0.04615
G1 X136.952 Y122.717 E0.14155
G1 X135.630 Y123.596 E0.05974
G1 X134.211 Y124.253 E0.05884
G1 X132.121 Y124.724 E0.08062
G1 X130.769 Y124.825 E0.05099
G1 X126.941 Y123.927 E0.14794
G1 X107.602 Y112.762 E0.84020
G1 X105.231 Y110.261 E0.12967
G1 X104.579 Y109.240 E0.04560
G1 X103.774 Y106.908 E0.09280
G1 X103.590 Y104.494 E0.09110
G1 X103.879 Y102.655 E0.07002
G1 X104.475 Y100.951 E0.06794
G1 X104.831 Y101.076 F10800.000
G1 F1193.38
G1 X107.781 Y97.570 E0.17238
G1 X127.028 Y86.458 E0.83620
G1 X129.619 Y85.666 E0.10196
G1 X132.335 Y85.663 E0.10218
G1 X135.050 Y86.521 E0.10711
G1 X137.342 Y88.169 E0.10623
G1 X139.051 Y90.486 E0.10833
G1 X139.933 Y93.161 E0.10596
G1 X140.044 Y116.065 E0.86179
G1 X139.441 Y118.570 E0.09694
G1 X138.999 Y119.636 E0.04345
G1 X136.720 Y122.419 E0.13532
G1 X135.458 Y123.261 E0.05708
G1 X134.108 Y123.890 E0.05602
G1 X132.052 Y124.353 E0.07932
G1 X130.771 Y124.447 E0.04834
G1 X127.106 Y123.587 E0.14163
G1 X107.815 Y112.449 E0.83812
G1 X105.517 Y110.015 E0.12594
G1 X104.927 Y109.094 E0.04114
G1 X104.148 Y106.854 E0.08925
G1 X103.966 Y104.530 E0.08770
G1 X104.249 Y102.731 E0.06853
G1 X104.811 Y101.132 E0.06376
G1 X105.167 Y101.258 F10800.000
G1 F1193.38
G1 X105.186 Y101.202 E0.00221
G1 X107.998 Y97.881 E0.16374
G1 X127.198 Y86.796 E0.83415
G1 X129.702 Y86.035 E0.09847
G1 X132.305 Y86.040 E0.09794
G1 X134.906 Y86.870 E0.10274
G1 X137.097 Y88.457 E0.10176
G1 X138.728 Y90.684 E0.10390
G1 X139.566 Y93.249 E0.10152
G1 X139.667 Y116.043 E0.85764
G1 X139.079 Y118.466 E0.09380
G1 X138.662 Y119.466 E0.04075
G1 X136.487 Y122.120 E0.12912
G1 X135.261 Y122.939 E0.05548
G1 X133.968 Y123.539 E0.05361
G1 X131.984 Y123.982 E0.07651
G1 X130.772 Y124.069 E0.04570
G1 X127.271 Y123.247 E0.13534
G1 X108.028 Y112.137 E0.83603
G1 X105.804 Y109.770 E0.12216
G1 X105.258 Y108.911 E0.03832
G1 X104.513 Y106.754 E0.08586
G1 X104.343 Y104.524 E0.08414
G1 X104.619 Y102.808 E0.06540
G1 X105.147 Y101.314 E0.05960
G1 X105.502 Y101.440 F10800.000
G1 F1193.38
G1 X105.530 Y101.360 E0.00318
G1 X108.215 Y98.191 E0.15627
G1 X127.368 Y87.133 E0.83213
G1 X129.731 Y86.412 E0.09295
G1 X132.220 Y86.409 E0.09366
G1 X134.710 Y87.194 E0.09824
G1 X136.851 Y88.744 E0.09947
G1 X138.406 Y90.881 E0.09943
G1 X139.198 Y93.337 E0.09708
G1 X139.290 Y116.022 E0.85352
G1 X138.716 Y118.361 E0.09065
G1 X138.325 Y119.294 E0.03805
G1 X136.214 Y121.858 E0.12496
G1 X135.065 Y122.616 E0.05178
G1 X133.829 Y123.188 E0.05127
G1 X131.916 Y123.611 E0.07369
G1 X130.774 Y123.691 E0.04307
G1 X127.435 Y122.906 E0.12906
G1 X108.241 Y111.824 E0.83393
G1 X106.092 Y109.526 E0.11839
G1 X105.606 Y108.766 E0.03392
G1 X104.887 Y106.700 E0.08231
G1 X104.719 Y104.561 E0.08073
G1 X104.980 Y102.917 E0.06262
G1 X105.482 Y101.496 E0.05669
G1 X105.838 Y101.622 F10800.000
G1 F1193.38
G1 X105.874 Y101.518 E0.00414
G1 X108.431 Y98.501 E0.14880
G1 X127.537 Y87.470 E0.83008
G1 X129.813 Y86.781 E0.08945
G1 X132.190 Y86.785 E0.08943
G1 X134.566 Y87.544 E0.09385
G1 X136.605 Y89.031 E0.09495
G1 X138.082 Y91.077 E0.09497
G1 X138.830 Y93.424 E0.09266
G1 X138.913 Y115.999 E0.84942
G1 X138.354 Y118.256 E0.08747
G1 X137.988 Y119.122 E0.03537
G1 X135.983 Y121.560 E0.11876
G1 X134.894 Y122.280 E0.04912
G1 X133.689 Y122.837 E0.04995
G1 X131.850 Y123.239 E0.07085
G1 X130.777 Y123.313 E0.04046
G1 X127.600 Y122.566 E0.12280
G1 X108.454 Y111.512 E0.83182
G1 X106.380 Y109.282 E0.11457
G1 X105.936 Y108.583 E0.03116
G1 X105.261 Y106.645 E0.07719
G1 X105.095 Y104.597 E0.07732
G1 X105.341 Y103.026 E0.05982
G1 X105.818 Y101.679 E0.05377
G1 X106.218 Y101.677 F10800.000
G1 F1193.38
G1 X108.648 Y98.812 E0.14136
G1 X127.707 Y87.808 E0.82803
G1 X129.894 Y87.150 E0.08593
G1 X132.158 Y87.162 E0.08519
G1 X134.420 Y87.893 E0.08945
G1 X136.357 Y89.317 E0.09043
G1 X137.758 Y91.272 E0.09051
G1 X138.462 Y93.509 E0.08825
G1 X138.536 Y115.977 E0.84535
G1 X137.992 Y118.150 E0.08427
G1 X137.652 Y118.950 E0.03270
G1 X135.751 Y121.261 E0.11260
G1 X134.721 Y121.944 E0.04649
G1 X133.588 Y122.474 E0.04706
G1 X131.783 Y122.868 E0.06951
G1 X130.780 Y122.935 E0.03782
G1 X127.764 Y122.225 E0.11656
G1 X108.667 Y111.200 E0.82970
G1 X106.668 Y109.038 E0.11076
G1 X106.285 Y108.436 E0.02685
G1 X105.634 Y106.590 E0.07367
G1 X105.471 Y104.633 E0.07388
G1 X105.711 Y103.102 E0.05830
G1 X106.198 Y101.734 E0.05465
G1 X106.553 Y101.861 F10800.000
G1 F1193.38
G1 X108.865 Y99.122 E0.13485
G1 X127.877 Y88.145 E0.82600
G1 X129.920 Y87.527 E0.08032
G1 X132.126 Y87.539 E0.08300
G1 X134.274 Y88.241 E0.08501
G1 X136.108 Y89.601 E0.08591
G1 X137.433 Y91.465 E0.08605
G1 X138.093 Y93.594 E0.08385
G1 X138.159 Y115.954 E0.84131
G1 X137.630 Y118.042 E0.08105
G1 X137.316 Y118.776 E0.03004
G1 X135.519 Y120.963 E0.10649
G1 X134.549 Y121.609 E0.04384
G1 X133.448 Y122.123 E0.04571
G1 X131.718 Y122.496 E0.06660
G1 X130.784 Y122.557 E0.03521
G1 X127.929 Y121.885 E0.11034
G1 X108.881 Y110.887 E0.82757
G1 X106.958 Y108.796 E0.10689
G1 X106.615 Y108.254 E0.02413
G1 X105.998 Y106.489 E0.07036
G1 X105.849 Y104.626 E0.07031
G1 X106.081 Y103.179 E0.05511
G1 X106.533 Y101.917 E0.05045
G1 X106.888 Y102.044 F10800.000
G1 F1193.38
G1 X106.905 Y101.995 E0.00194
G1 X109.081 Y99.432 E0.12651
G1 X128.046 Y88.483 E0.82394
G1 X130.001 Y87.897 E0.07678
G1 X132.093 Y87.916 E0.07871
G1 X134.125 Y88.589 E0.08057
G1 X135.858 Y89.885 E0.08138
G1 X137.107 Y91.657 E0.08160
G1 X137.725 Y93.677 E0.07946
G1 X137.781 Y115.931 E0.83730
G1 X137.268 Y117.934 E0.07780
G1 X136.980 Y118.603 E0.02739
G1 X135.286 Y120.665 E0.10043
M73 P1 R90
G1 X134.376 Y121.273 E0.04118
G1 X133.308 Y121.772 E0.04435
G1 X131.653 Y122.125 E0.06366
G1 X130.788 Y122.179 E0.03261
G1 X128.094 Y121.545 E0.10415
G1 X109.095 Y110.576 E0.82543
G1 X107.247 Y108.554 E0.10304
G1 X106.963 Y108.108 E0.01990
G1 X106.372 Y106.433 E0.06683
G1 X106.225 Y104.662 E0.06686
G1 X106.442 Y103.290 E0.05226
G1 X106.867 Y102.101 E0.04752
G1 X107.222 Y102.228 F10800.000
G1 F1193.38
G1 X107.248 Y102.155 E0.00292
G1 X109.298 Y99.743 E0.11911
G1 X128.215 Y88.821 E0.82188
G1 X130.080 Y88.267 E0.07320
G1 X132.058 Y88.292 E0.07441
G1 X133.976 Y88.937 E0.07614
G1 X135.606 Y90.167 E0.07685
G1 X136.780 Y91.848 E0.07714
G1 X137.356 Y93.759 E0.07509
G1 X137.404 Y115.907 E0.83333
G1 X136.907 Y117.825 E0.07453
G1 X136.645 Y118.428 E0.02476
G1 X135.053 Y120.367 E0.09441
G1 X134.202 Y120.939 E0.03856
G1 X133.208 Y121.408 E0.04136
G1 X131.588 Y121.753 E0.06229
G1 X130.793 Y121.801 E0.02998
G1 X128.258 Y121.204 E0.09798
G1 X109.309 Y110.264 E0.82328
G1 X107.538 Y108.313 E0.09912
G1 X107.294 Y107.926 E0.01723
G1 X106.736 Y106.331 E0.06355
G1 X106.603 Y104.655 E0.06327
G1 X106.811 Y103.368 E0.04907
G1 X107.201 Y102.285 E0.04331
G1 X107.556 Y102.413 F10800.000
G1 F1193.38
G1 X107.591 Y102.315 E0.00390
G1 X109.514 Y100.053 E0.11171
G1 X128.384 Y89.158 E0.81981
G1 X130.158 Y88.637 E0.06959
G1 X132.021 Y88.669 E0.07008
G1 X133.825 Y89.283 E0.07170
G1 X135.353 Y90.449 E0.07232
G1 X136.453 Y92.037 E0.07269
G1 X136.986 Y93.840 E0.07073
G1 X137.027 Y115.883 E0.82939
G1 X136.547 Y117.714 E0.07122
G1 X136.310 Y118.253 E0.02213
G1 X134.819 Y120.070 E0.08846
G1 X134.028 Y120.604 E0.03590
G1 X133.067 Y121.057 E0.03997
G1 X131.525 Y121.381 E0.05927
G1 X130.799 Y121.423 E0.02738
G1 X128.423 Y120.864 E0.09183
G1 X109.523 Y109.952 E0.82111
G1 X107.830 Y108.074 E0.09514
G1 X107.626 Y107.745 E0.01458
G1 X107.110 Y106.276 E0.05857
G1 X106.979 Y104.691 E0.05982
G1 X107.172 Y103.479 E0.04621
G1 X107.536 Y102.469 E0.04038
G1 X107.934 Y102.476 F10800.000
G1 F1193.38
G1 X109.731 Y100.363 E0.10434
G1 X128.553 Y89.497 E0.81773
G1 X130.235 Y89.007 E0.06594
G1 X131.982 Y89.045 E0.06574
G1 X133.672 Y89.629 E0.06725
G1 X135.099 Y90.729 E0.06779
G1 X136.124 Y92.225 E0.06824
G1 X136.617 Y93.919 E0.06638
G1 X136.650 Y115.859 E0.82548
G1 X136.186 Y117.602 E0.06788
G1 X135.976 Y118.076 E0.01952
G1 X134.585 Y119.774 E0.08257
G1 X133.853 Y120.269 E0.03324
G1 X132.927 Y120.707 E0.03856
G1 X131.463 Y121.009 E0.05621
G1 X130.805 Y121.045 E0.02480
G1 X128.587 Y120.524 E0.08572
G1 X109.738 Y109.641 E0.81893
G1 X108.122 Y107.835 E0.09120
G1 X107.974 Y107.598 E0.01048
G1 X107.483 Y106.219 E0.05509
G1 X107.355 Y104.728 E0.05631
G1 X107.541 Y103.556 E0.04464
G1 X107.914 Y102.532 E0.04099
G1 X108.268 Y102.661 F10800.000
G1 F1193.38
G1 X109.947 Y100.674 E0.09789
G1 X128.721 Y89.835 E0.81564
G1 X130.311 Y89.377 E0.06225
G1 X131.942 Y89.421 E0.06138
G1 X133.517 Y89.975 E0.06281
G1 X134.843 Y91.007 E0.06325
G1 X135.795 Y92.411 E0.06380
G1 X136.247 Y93.997 E0.06205
G1 X136.273 Y115.834 E0.82162
G1 X135.826 Y117.489 E0.06450
G1 X135.642 Y117.899 E0.01692
G1 X134.350 Y119.477 E0.07676
G1 X133.677 Y119.936 E0.03062
G1 X132.827 Y120.342 E0.03544
G1 X131.401 Y120.636 E0.05478
G1 X130.813 Y120.667 E0.02219
G1 X128.752 Y120.183 E0.07964
G1 X109.953 Y109.330 E0.81673
G1 X108.413 Y107.595 E0.08726
G1 X108.321 Y107.450 E0.00647
G1 X107.857 Y106.160 E0.05158
G1 X107.731 Y104.763 E0.05281
G1 X107.902 Y103.667 E0.04170
G1 X108.247 Y102.717 E0.03803
G1 X108.601 Y102.847 F10800.000
G1 F1193.38
G1 X108.619 Y102.798 E0.00198
G1 X110.164 Y100.984 E0.08963
G1 X128.890 Y90.173 E0.81358
G1 X130.330 Y89.755 E0.05642
G1 X131.901 Y89.797 E0.05913
G1 X133.360 Y90.319 E0.05829
G1 X134.586 Y91.284 E0.05872
G1 X135.465 Y92.595 E0.05935
G1 X135.877 Y94.073 E0.05774
G1 X135.896 Y115.808 E0.81780
G1 X135.467 Y117.374 E0.06108
G1 X135.309 Y117.721 E0.01433
G1 X134.114 Y119.182 E0.07102
G1 X133.501 Y119.602 E0.02797
G1 X132.686 Y119.992 E0.03399
G1 X131.341 Y120.264 E0.05162
G1 X130.821 Y120.289 E0.01960
G1 X128.917 Y119.843 E0.07359
G1 X110.169 Y109.019 E0.81452
G1 X108.708 Y107.360 E0.08317
G1 X108.653 Y107.271 E0.00394
G1 X108.220 Y106.057 E0.04847
G1 X108.109 Y104.754 E0.04920
G1 X108.271 Y103.746 E0.03843
G1 X108.580 Y102.903 E0.03377
G1 X108.934 Y103.033 F10800.000
G1 F1193.38
G1 X108.962 Y102.959 E0.00297
G1 X110.380 Y101.295 E0.08229
G1 X129.058 Y90.511 E0.81148
G1 X130.405 Y90.126 E0.05270
G1 X131.858 Y90.173 E0.05471
G1 X133.201 Y90.662 E0.05378
G1 X134.327 Y91.560 E0.05418
G1 X135.133 Y92.777 E0.05491
G1 X135.506 Y94.147 E0.05344
G1 X135.519 Y115.782 E0.81403
G1 X135.108 Y117.257 E0.05760
G1 X134.977 Y117.541 E0.01175
G1 X133.878 Y118.887 E0.06538
G1 X133.323 Y119.269 E0.02538
G1 X132.587 Y119.627 E0.03077
G1 X131.281 Y119.891 E0.05014
G1 X130.830 Y119.911 E0.01698
G1 X129.081 Y119.502 E0.06759
G1 X110.385 Y108.708 E0.81228
G1 X109.005 Y107.127 E0.07893
G1 X108.584 Y105.954 E0.04689
G1 X108.485 Y104.790 E0.04395
G1 X108.632 Y103.858 E0.03550
G1 X108.914 Y103.090 E0.03081
G1 X109.303 Y103.122 F10800.000
G1 F1193.38
G1 X110.597 Y101.605 E0.07499
G1 X129.226 Y90.849 E0.80937
G1 X130.478 Y90.497 E0.04892
G1 X131.813 Y90.548 E0.05026
G1 X133.040 Y91.004 E0.04927
G1 X134.066 Y91.834 E0.04965
G1 X134.800 Y92.957 E0.05048
G1 X135.136 Y94.220 E0.04916
G1 X135.142 Y115.756 E0.81031
G1 X134.750 Y117.139 E0.05407
G1 X134.646 Y117.359 E0.00917
G1 X133.641 Y118.592 E0.05985
G1 X133.144 Y118.937 E0.02275
G1 X132.445 Y119.277 E0.02928
G1 X131.223 Y119.518 E0.04684
G1 X130.841 Y119.534 E0.01439
G1 X129.245 Y119.162 E0.06165
G1 X110.601 Y108.397 E0.81003
G1 X109.325 Y106.921 E0.07342
G1 X108.957 Y105.897 E0.04091
G1 X108.862 Y104.782 E0.04211
G1 X109.001 Y103.938 E0.03218
G1 X109.283 Y103.178 E0.03051
G1 X109.636 Y103.309 F10800.000
G1 F1193.38
G1 X110.813 Y101.916 E0.06863
G1 X129.394 Y91.188 E0.80724
G1 X130.549 Y90.868 E0.04509
G1 X131.764 Y90.923 E0.04579
G1 X132.877 Y91.345 E0.04476
G1 X133.804 Y92.106 E0.04511
G1 X134.467 Y93.134 E0.04604
G1 X134.765 Y94.290 E0.04491
G1 X134.765 Y115.729 E0.80664
G1 X134.392 Y117.017 E0.05047
G1 X134.316 Y117.175 E0.00659
G1 X133.403 Y118.298 E0.05446
G1 X132.966 Y118.604 E0.02008
G1 X132.302 Y118.927 E0.02776
G1 X131.167 Y119.145 E0.04349
G1 X130.853 Y119.156 E0.01183
G1 X129.410 Y118.821 E0.05576
G1 X110.817 Y108.086 E0.80779
