; generated by Slic3r Prusa Edition 1.42.0-beta2+win64 on 2019-04-24 at 21:09:38

; 

; external perimeters extrusion width = 0.45mm
; perimeters extrusion width = 0.45mm
; infill extrusion width = 0.45mm
; solid infill extrusion width = 0.45mm
; top infill extrusion width = 0.40mm
; first layer extrusion width = 0.42mm

M73 P0 R119
M73 Q0 S119
M201 X1000 Y1000 Z1000 E8000 ; sets maximum accelerations, mm/sec^2
M203 X200 Y200 Z12 E120 ; sets maximum feedrates, mm/sec
M204 P1250 R1250 T1250 ; sets acceleration (P, T) and retract acceleration (R), mm/sec^2
M205 X8.00 Y8.00 Z0.40 E1.50 ; sets the jerk limits, mm/sec
M205 S0 T0 ; sets the minimum extruding and travel feed rate, mm/sec
M107
M107
M115 U3.6.0 ; tell printer latest fw version
M83  ; extruder relative mode
M104 S230 ; set extruder temp
M140 S55 ; set bed temp
M190 S55 ; wait for bed temp
M109 S230 ; wait for extruder temp
G28 W ; home all without mesh bed level
G80 ; mesh bed leveling
G21 ; set units to millimeters

; Send the filament type to the MMU2.0 unit.
; E stands for extruder number, F stands for filament type (0: default; 1:flex; 2: PVA)
M403 E0 F0
M403 E1 F0
M403 E2 F1
M403 E3 F0
M403 E4 F0


;go outside print area
G1 Y-3.0 F1000.0
G1 Z0.4 F1000.0
; select extruder
T2
; initial load
G1 X55.0 E29.0 F1073.0
M73 Q0 S118
M73 P0 R118
G1 X5.0 E29.0 F1800.0
G1 X55.0 E8.0 F2000.0
G1 Z0.3 F1000.0
G92 E0.0
G1 X240.0 E25.0  F2200.0
G1 Y-2.0 F1000.0
G1 X55.0 E25 F1400.0
G1 Z0.20 F1000.0
G1 X5.0 E4.0 F1000.0
G92 E0.0


M221 S95
G90 ; use absolute coordinates
M83 ; use relative distances for extrusion
G92 E0.0
M900 K30 ; Filament gcode
G21 ; set units to millimeters
G90 ; use absolute coordinates
M83 ; use relative distances for extrusion
T2
M900 K30 ; Filament gcode
;BEFORE_LAYER_CHANGE
G92 E0.0
;0.2


G1 Z0.200 F6000.000
;AFTER_LAYER_CHANGE
;0.2
G1 X91.053 Y41.707
M204 S1000
G1 F1800
G1 X91.750 Y40.186 E0.04983
G1 X92.475 Y39.060 E0.03988
G1 X93.328 Y38.046 E0.03949
G1 X94.633 Y36.889 E0.05193
G1 X95.776 Y36.140 E0.04070
G1 X97.328 Y35.412 E0.05106
G1 X98.825 Y34.953 E0.04665
G1 X100.174 Y34.697 E0.04091
G1 X101.668 Y34.542 E0.04474
G1 X103.814 Y34.479 E0.06395
G1 X147.032 Y34.484 E1.28732
G1 X149.686 Y34.664 E0.07924
G1 X152.001 Y35.152 E0.07048
G1 X153.299 Y35.630 E0.04119
G1 X154.248 Y36.099 E0.03153
G1 X155.138 Y36.652 E0.03122
G1 X155.950 Y37.274 E0.03046
G1 X156.694 Y37.970 E0.03036
G1 X157.407 Y38.781 E0.03217
G1 X157.974 Y39.569 E0.02893
G1 X158.609 Y40.679 E0.03807
G1 X159.028 Y41.637 E0.03117
G1 X159.393 Y42.745 E0.03473
G1 X159.644 Y43.799 E0.03227
G1 X159.880 Y45.405 E0.04837
G1 X159.982 Y47.008 E0.04784
G1 X159.982 Y163.010 E3.45530
G1 X159.771 Y165.477 E0.07376
G1 X159.511 Y166.809 E0.04041
G1 X159.120 Y168.121 E0.04080
G1 X158.518 Y169.504 E0.04492
G1 X157.584 Y170.995 E0.05241
G1 X156.541 Y172.191 E0.04726
G1 X155.344 Y173.207 E0.04678
G1 X153.984 Y174.049 E0.04763
G1 X152.600 Y174.654 E0.04500
G1 X151.139 Y175.083 E0.04534
G1 X149.361 Y175.381 E0.05371
G1 X147.037 Y175.521 E0.06936
G1 X103.026 Y175.521 E1.31094
G1 X101.324 Y175.438 E0.05073
G1 X99.645 Y175.223 E0.05042
G1 X97.427 Y174.630 E0.06841
G1 X95.893 Y173.931 E0.05020
G1 X94.486 Y173.004 E0.05017
G1 X93.435 Y172.068 E0.04195
G1 X92.874 Y171.452 E0.02480
G1 X91.936 Y170.139 E0.04806
G1 X91.118 Y168.493 E0.05474
G1 X90.615 Y166.931 E0.04890
G1 X90.315 Y165.405 E0.04633
G1 X90.118 Y163.134 E0.06789
G1 X90.115 Y46.989 E3.45956
G1 X90.238 Y45.203 E0.05331
G1 X90.409 Y44.024 E0.03549
G1 X91.028 Y41.761 E0.06988
G1 X122.935 Y66.786 F6000.000
G1 F2100
G1 X122.994 Y66.584 E0.00626
G1 X123.197 Y66.074 E0.01635
G1 X123.456 Y65.586 E0.01646
G1 X123.766 Y65.128 E0.01646
G1 X124.124 Y64.707 E0.01646
G1 X124.525 Y64.327 E0.01646
G1 X124.965 Y63.993 E0.01646
G1 X125.438 Y63.708 E0.01646
G1 X125.940 Y63.476 E0.01646
G1 X126.464 Y63.299 E0.01646
G1 X127.003 Y63.180 E0.01646
G1 X127.553 Y63.121 E0.01646
G1 X128.104 Y63.121 E0.01643
G1 X128.695 Y63.183 E0.01770
G1 X128.973 Y63.257 E0.00857
G1 X129.239 Y63.381 E0.00873
G1 X129.479 Y63.549 E0.00873
G1 X129.692 Y63.762 E0.00897
G1 X129.909 Y64.092 E0.01175
G1 X129.977 Y64.369 E0.00852
G1 X130.066 Y64.916 E0.01650
G1 X130.095 Y65.476 E0.01671
G1 X130.066 Y66.037 E0.01672
G1 X129.976 Y66.594 E0.01680
G1 X129.847 Y67.045 E0.01397
G1 X130.300 Y67.184 E0.01411
G1 X130.606 Y67.307 E0.00980
G1 X131.147 Y67.589 E0.01818
G1 X131.524 Y67.846 E0.01358
G1 X131.869 Y68.133 E0.01337
G1 X132.186 Y68.445 E0.01326
G1 X132.483 Y68.776 E0.01324
G1 X132.906 Y69.303 E0.02013
G1 X133.161 Y69.725 E0.01470
G1 X133.352 Y70.142 E0.01367
G1 X133.387 Y70.437 E0.00885
G1 X133.365 Y70.694 E0.00767
G1 X133.231 Y71.063 E0.01170
G1 X133.073 Y71.287 E0.00817
G1 X132.785 Y71.529 E0.01122
G1 X132.570 Y71.644 E0.00725
G1 X132.317 Y71.817 E0.00914
G1 X132.101 Y72.017 E0.00877
G1 X131.917 Y72.248 E0.00877
G1 X131.770 Y72.502 E0.00874
G1 X131.663 Y72.777 E0.00880
G1 X131.597 Y73.064 E0.00877
G1 X131.575 Y73.357 E0.00877
G1 X131.597 Y73.651 E0.00877
G1 X131.663 Y73.938 E0.00877
G1 X131.770 Y74.212 E0.00877
G1 X131.917 Y74.467 E0.00877
G1 X132.101 Y74.697 E0.00877
G1 X132.317 Y74.897 E0.00877
G1 X132.563 Y75.065 E0.00888
G1 X132.964 Y75.265 E0.01332
G1 X133.226 Y75.622 E0.01321
G1 X133.369 Y75.968 E0.01116
G1 X133.425 Y76.177 E0.00644
G1 X133.451 Y76.475 E0.00891
G1 X133.426 Y76.765 E0.00868
G1 X133.337 Y77.134 E0.01131
G1 X132.967 Y77.982 E0.02755
G1 X132.572 Y78.798 E0.02702
G1 X132.187 Y79.506 E0.02398
G1 X131.763 Y80.192 E0.02403
G1 X131.290 Y80.852 E0.02420
G1 X130.757 Y81.467 E0.02424
G1 X130.390 Y81.814 E0.01505
G1 X129.997 Y82.117 E0.01476
G1 X129.766 Y82.265 E0.00818
G1 X129.312 Y82.492 E0.01510
G1 X128.826 Y82.645 E0.01518
G1 X128.554 Y82.691 E0.00822
G1 X128.280 Y82.712 E0.00819
G1 X127.784 Y82.685 E0.01480
G1 X127.511 Y82.636 E0.00826
G1 X127.032 Y82.507 E0.01477
G1 X125.756 Y82.046 E0.04040
G1 X125.351 Y81.924 E0.01260
G1 X124.983 Y81.881 E0.01102
G1 X124.561 Y81.954 E0.01277
G1 X123.057 Y82.449 E0.04715
G1 X122.625 Y82.566 E0.01334
G1 X122.250 Y82.635 E0.01135
G1 X121.862 Y82.667 E0.01160
G1 X121.466 Y82.640 E0.01182
G1 X121.074 Y82.545 E0.01203
G1 X120.687 Y82.373 E0.01262
G1 X120.337 Y82.144 E0.01245
G1 X120.020 Y81.891 E0.01207
G1 X119.724 Y81.623 E0.01190
G1 X119.267 Y81.158 E0.01943
G1 X118.853 Y80.655 E0.01940
G1 X118.482 Y80.125 E0.01928
G1 X118.139 Y79.575 E0.01930
G1 X117.650 Y78.680 E0.03038
G1 X117.212 Y77.756 E0.03045
G1 X116.836 Y76.805 E0.03047
G1 X116.544 Y75.825 E0.03046
G1 X116.432 Y75.312 E0.01566
G1 X116.346 Y74.794 E0.01564
G1 X116.249 Y73.770 E0.03062
G1 X116.243 Y72.746 E0.03051
G1 X116.275 Y72.224 E0.01558
G1 X116.336 Y71.706 E0.01551
G1 X116.429 Y71.206 E0.01517
G1 X116.559 Y70.711 E0.01522
G1 X116.730 Y70.228 E0.01529
G1 X116.946 Y69.763 E0.01527
G1 X117.203 Y69.319 E0.01528
G1 X117.495 Y68.898 E0.01525
G1 X117.817 Y68.502 E0.01520
G1 X118.169 Y68.126 E0.01536
G1 X118.758 Y67.610 E0.02331
G1 X119.092 Y67.372 E0.01222
G1 X119.442 Y67.161 E0.01219
G1 X120.007 Y66.900 E0.01852
G1 X120.607 Y66.703 E0.01882
G1 X121.216 Y66.572 E0.01854
G1 X121.544 Y66.540 E0.00984
G1 X121.870 Y66.539 E0.00971
G1 X122.232 Y66.580 E0.01085
G1 X122.593 Y66.664 E0.01103
G1 X122.879 Y66.766 E0.00904
G1 X123.103 Y67.222 F6000.000
G1 F1500
G1 X123.200 Y67.166 E0.00336
G1 X123.235 Y67.106 E0.00204
G1 X123.351 Y66.707 E0.01240
G1 X123.540 Y66.232 E0.01520
G1 X123.780 Y65.780 E0.01524
G1 X124.067 Y65.357 E0.01524
G1 X124.398 Y64.967 E0.01524
G1 X124.770 Y64.615 E0.01524
G1 X125.177 Y64.305 E0.01524
G1 X125.615 Y64.041 E0.01524
G1 X126.080 Y63.826 E0.01524
G1 X126.565 Y63.663 E0.01524
G1 X127.064 Y63.553 E0.01524
G1 X127.573 Y63.498 E0.01524
G1 X128.085 Y63.498 E0.01523
G1 X128.626 Y63.555 E0.01623
G1 X128.844 Y63.613 E0.00671
G1 X129.050 Y63.709 E0.00676
G1 X129.235 Y63.839 E0.00676
G1 X129.398 Y64.002 E0.00685
G1 X129.558 Y64.245 E0.00868
G1 X129.608 Y64.445 E0.00613
G1 X129.690 Y64.956 E0.01544
G1 X129.718 Y65.476 E0.01551
G1 X129.690 Y65.997 E0.01552
G1 X129.607 Y66.512 E0.01554
G1 X129.457 Y67.039 E0.01633
G1 X129.461 Y67.131 E0.00275
G1 X129.500 Y67.239 E0.00341
G1 X129.572 Y67.325 E0.00335
G1 X129.672 Y67.385 E0.00348
G1 X130.174 Y67.540 E0.01565
G1 X130.447 Y67.650 E0.00878
G1 X130.953 Y67.913 E0.01697
G1 X131.296 Y68.148 E0.01239
G1 X131.616 Y68.413 E0.01236
G1 X131.913 Y68.705 E0.01243
G1 X132.195 Y69.020 E0.01258
G1 X132.596 Y69.519 E0.01909
G1 X132.827 Y69.902 E0.01331
G1 X132.985 Y70.246 E0.01127
G1 X133.008 Y70.443 E0.00593
G1 X132.994 Y70.612 E0.00503
G1 X132.893 Y70.887 E0.00874
G1 X132.793 Y71.030 E0.00521
G1 X132.573 Y71.215 E0.00857
G1 X132.375 Y71.321 E0.00669
G1 X132.081 Y71.521 E0.01058
G1 X131.824 Y71.760 E0.01045
G1 X131.605 Y72.035 E0.01045
G1 X131.430 Y72.338 E0.01043
G1 X131.301 Y72.665 E0.01048
G1 X131.223 Y73.007 E0.01045
G1 X131.197 Y73.357 E0.01045
G1 X131.223 Y73.707 E0.01045
G1 X131.301 Y74.049 E0.01045
G1 X131.429 Y74.376 E0.01045
G1 X131.605 Y74.680 E0.01045
G1 X131.824 Y74.954 E0.01045
G1 X132.081 Y75.193 E0.01045
G1 X132.372 Y75.392 E0.01049
G1 X132.714 Y75.562 E0.01137
G1 X132.895 Y75.808 E0.00912
G1 X133.011 Y76.089 E0.00906
G1 X133.052 Y76.243 E0.00473
G1 X133.072 Y76.475 E0.00694
G1 X133.052 Y76.704 E0.00686
G1 X132.978 Y77.014 E0.00948
G1 X132.624 Y77.824 E0.02634
G1 X132.236 Y78.626 E0.02653
G1 X131.861 Y79.316 E0.02341
G1 X131.449 Y79.983 E0.02333
G1 X130.993 Y80.618 E0.02330
G1 X130.484 Y81.206 E0.02316
G1 X130.144 Y81.527 E0.01392
G1 X129.780 Y81.808 E0.01370
G1 X129.579 Y81.936 E0.00710
G1 X129.170 Y82.141 E0.01362
G1 X128.737 Y82.277 E0.01352
G1 X128.508 Y82.317 E0.00694
G1 X128.276 Y82.335 E0.00693
G1 X127.827 Y82.310 E0.01337
G1 X127.593 Y82.268 E0.00708
G1 X127.145 Y82.147 E0.01382
G1 X125.875 Y81.688 E0.04023
G1 X125.435 Y81.555 E0.01369
G1 X125.107 Y81.504 E0.00988
G1 X124.951 Y81.504 E0.00464
G1 X124.470 Y81.588 E0.01456
G1 X122.949 Y82.088 E0.04767
G1 X122.541 Y82.198 E0.01260
G1 X122.200 Y82.261 E0.01032
G1 X121.860 Y82.289 E0.01019
G1 X121.523 Y82.266 E0.01004
G1 X121.196 Y82.187 E0.01004
G1 X120.868 Y82.041 E0.01069
G1 X120.558 Y81.838 E0.01102
G1 X120.264 Y81.603 E0.01120
G1 X119.985 Y81.351 E0.01122
G1 X119.547 Y80.906 E0.01859
G1 X119.153 Y80.427 E0.01847
G1 X118.797 Y79.917 E0.01854
G1 X118.465 Y79.384 E0.01868
G1 X117.986 Y78.509 E0.02973
G1 X117.558 Y77.606 E0.02975
G1 X117.192 Y76.682 E0.02961
G1 X116.909 Y75.731 E0.02954
G1 X116.721 Y74.745 E0.02992
G1 X116.626 Y73.751 E0.02973
G1 X116.620 Y72.756 E0.02963
G1 X116.651 Y72.258 E0.01489
G1 X116.709 Y71.763 E0.01483
G1 X116.797 Y71.288 E0.01439
G1 X116.919 Y70.822 E0.01434
G1 X117.079 Y70.370 E0.01428
G1 X117.281 Y69.937 E0.01424
G1 X117.522 Y69.521 E0.01431
G1 X117.797 Y69.125 E0.01437
G1 X118.101 Y68.750 E0.01437
G1 X118.432 Y68.398 E0.01441
G1 X118.992 Y67.906 E0.02220
G1 X119.299 Y67.688 E0.01121
G1 X119.619 Y67.495 E0.01114
G1 X120.145 Y67.252 E0.01726
G1 X120.706 Y67.067 E0.01758
G1 X121.274 Y66.946 E0.01730
G1 X121.563 Y66.917 E0.00866
G1 X121.850 Y66.916 E0.00853
G1 X122.168 Y66.952 E0.00955
G1 X122.486 Y67.027 E0.00974
G1 X123.043 Y67.222 E0.01756
G1 X123.133 Y67.113 F6000.000
G1 X115.443 Y49.380
G1 F2100
G1 X114.981 Y49.524 E0.01441
G1 X114.505 Y49.611 E0.01441
G1 X114.040 Y49.639 E0.01388
G1 X107.027 Y49.639 E0.20889
G1 X106.791 Y49.660 E0.00704
G1 X106.588 Y49.714 E0.00627
G1 X106.397 Y49.803 E0.00627
G1 X106.215 Y49.931 E0.00663
G1 X105.616 Y50.483 E0.02428
G1 X105.119 Y50.851 E0.01842
G1 X104.591 Y51.168 E0.01835
G1 X104.034 Y51.432 E0.01834
G1 X103.457 Y51.638 E0.01825
G1 X102.856 Y51.789 E0.01844
G1 X102.247 Y51.879 E0.01835
G1 X101.632 Y51.909 E0.01835
G1 X101.017 Y51.879 E0.01835
G1 X100.407 Y51.789 E0.01835
G1 X99.810 Y51.639 E0.01835
G1 X99.230 Y51.432 E0.01835
G1 X98.673 Y51.168 E0.01835
G1 X98.145 Y50.852 E0.01835
G1 X97.650 Y50.485 E0.01835
G1 X97.194 Y50.071 E0.01835
G1 X96.780 Y49.615 E0.01835
G1 X96.413 Y49.120 E0.01835
G1 X96.096 Y48.592 E0.01835
G1 X95.833 Y48.035 E0.01835
G1 X95.625 Y47.455 E0.01835
G1 X95.476 Y46.857 E0.01835
G1 X95.385 Y46.248 E0.01835
G1 X95.355 Y45.633 E0.01835
G1 X95.385 Y45.018 E0.01835
G1 X95.476 Y44.408 E0.01835
G1 X95.625 Y43.811 E0.01835
G1 X95.833 Y43.231 E0.01835
G1 X96.096 Y42.674 E0.01835
G1 X96.413 Y42.146 E0.01835
G1 X96.780 Y41.651 E0.01835
G1 X97.194 Y41.194 E0.01835
G1 X97.650 Y40.781 E0.01835
G1 X98.145 Y40.414 E0.01835
G1 X98.333 Y40.301 E0.00655
G1 X98.673 Y40.097 E0.01179
G1 X99.230 Y39.834 E0.01835
G1 X99.810 Y39.626 E0.01835
G1 X100.407 Y39.477 E0.01835
G1 X101.017 Y39.386 E0.01835
G1 X101.632 Y39.356 E0.01835
G1 X102.247 Y39.386 E0.01835
G1 X102.856 Y39.477 E0.01835
G1 X103.457 Y39.627 E0.01844
G1 X104.034 Y39.834 E0.01825
G1 X104.591 Y40.097 E0.01835
G1 X105.119 Y40.414 E0.01835
G1 X105.616 Y40.782 E0.01842
G1 X106.215 Y41.335 E0.02428
G1 X106.397 Y41.462 E0.00663
G1 X106.588 Y41.551 E0.00627
G1 X106.791 Y41.606 E0.00627
G1 X107.027 Y41.627 E0.00704
G1 X114.040 Y41.627 E0.20889
G1 X114.505 Y41.655 E0.01388
G1 X114.981 Y41.742 E0.01441
G1 X115.443 Y41.886 E0.01441
G1 X115.884 Y42.084 E0.01441
G1 X116.298 Y42.335 E0.01441
G1 X116.679 Y42.633 E0.01441
G1 X117.021 Y42.975 E0.01441
G1 X117.320 Y43.356 E0.01441
G1 X117.570 Y43.770 E0.01441
G1 X117.769 Y44.212 E0.01441
G1 X117.913 Y44.674 E0.01441
G1 X118.000 Y45.150 E0.01441
G1 X118.029 Y45.633 E0.01441
G1 X118.000 Y46.116 E0.01441
G1 X117.913 Y46.592 E0.01441
G1 X117.769 Y47.054 E0.01441
G1 X117.570 Y47.495 E0.01441
G1 X117.320 Y47.909 E0.01441
G1 X117.021 Y48.290 E0.01441
G1 X116.679 Y48.632 E0.01441
G1 X116.298 Y48.931 E0.01441
G1 X115.884 Y49.181 E0.01441
G1 X115.498 Y49.355 E0.01263
G1 X115.343 Y49.011 F6000.000
G1 F1500
G1 X114.890 Y49.157 E0.01416
G1 X114.459 Y49.236 E0.01306
G1 X114.028 Y49.262 E0.01287
G1 X107.010 Y49.262 E0.20904
G1 X106.726 Y49.287 E0.00851
G1 X106.459 Y49.358 E0.00824
G1 X106.208 Y49.475 E0.00824
G1 X105.978 Y49.636 E0.00836
G1 X105.375 Y50.192 E0.02443
G1 X104.909 Y50.538 E0.01726
G1 X104.413 Y50.835 E0.01725
G1 X103.889 Y51.083 E0.01724
G1 X103.347 Y51.277 E0.01715
G1 X102.783 Y51.418 E0.01734
G1 X102.210 Y51.503 E0.01724
G1 X101.632 Y51.532 E0.01724
G1 X101.054 Y51.503 E0.01724
G1 X100.481 Y51.418 E0.01724
G1 X99.919 Y51.278 E0.01724
G1 X99.374 Y51.083 E0.01724
G1 X98.851 Y50.835 E0.01724
G1 X98.354 Y50.538 E0.01724
G1 X97.889 Y50.193 E0.01724
G1 X97.461 Y49.804 E0.01724
G1 X97.072 Y49.375 E0.01724
G1 X96.727 Y48.910 E0.01724
G1 X96.429 Y48.414 E0.01724
G1 X96.182 Y47.890 E0.01724
G1 X95.987 Y47.345 E0.01724
G1 X95.846 Y46.784 E0.01724
G1 X95.761 Y46.211 E0.01724
G1 X95.733 Y45.633 E0.01724
G1 X95.761 Y45.055 E0.01724
G1 X95.846 Y44.482 E0.01724
G1 X95.987 Y43.920 E0.01724
G1 X96.182 Y43.375 E0.01724
G1 X96.429 Y42.852 E0.01724
G1 X96.533 Y42.679 E0.00600
G1 X96.727 Y42.355 E0.01124
G1 X97.072 Y41.890 E0.01724
G1 X97.461 Y41.461 E0.01724
G1 X97.889 Y41.073 E0.01724
G1 X98.354 Y40.728 E0.01724
G1 X98.527 Y40.624 E0.00600
G1 X98.851 Y40.430 E0.01124
G1 X99.374 Y40.183 E0.01724
G1 X99.919 Y39.988 E0.01724
G1 X100.481 Y39.847 E0.01724
G1 X101.054 Y39.762 E0.01724
G1 X101.632 Y39.734 E0.01724
G1 X102.210 Y39.762 E0.01724
G1 X102.783 Y39.847 E0.01724
G1 X103.347 Y39.989 E0.01734
G1 X103.889 Y40.183 E0.01715
G1 X104.413 Y40.430 E0.01724
G1 X104.909 Y40.728 E0.01725
G1 X105.375 Y41.073 E0.01726
G1 X105.978 Y41.629 E0.02443
G1 X106.208 Y41.790 E0.00836
G1 X106.459 Y41.907 E0.00824
G1 X106.726 Y41.979 E0.00824
G1 X107.010 Y42.004 E0.00851
G1 X114.028 Y42.004 E0.20904
G1 X114.459 Y42.030 E0.01287
G1 X114.890 Y42.109 E0.01306
G1 X115.309 Y42.239 E0.01306
G1 X115.709 Y42.419 E0.01306
G1 X116.084 Y42.646 E0.01306
G1 X116.429 Y42.916 E0.01306
G1 X116.739 Y43.226 E0.01306
G1 X117.009 Y43.571 E0.01306
G1 X117.236 Y43.946 E0.01306
G1 X117.415 Y44.346 E0.01306
G1 X117.546 Y44.764 E0.01306
G1 X117.625 Y45.195 E0.01306
G1 X117.651 Y45.633 E0.01306
G1 X117.625 Y46.070 E0.01306
G1 X117.546 Y46.501 E0.01306
G1 X117.415 Y46.920 E0.01306
G1 X117.236 Y47.319 E0.01306
G1 X117.009 Y47.695 E0.01306
G1 X116.739 Y48.040 E0.01306
G1 X116.429 Y48.349 E0.01306
G1 X116.084 Y48.620 E0.01306
G1 X115.709 Y48.847 E0.01306
