; generated by Slic3r Prusa Edition 1.42.0-beta2+win64 on 2019-09-24 at 21:24:01

; 

; external perimeters extrusion width = 0.45mm
; perimeters extrusion width = 0.45mm
; infill extrusion width = 0.45mm
; solid infill extrusion width = 0.45mm
; top infill extrusion width = 0.40mm
; first layer extrusion width = 0.42mm

M73 P0 R7
M73 Q0 S7
M201 X1000 Y1000 Z1000 E8000 ; sets maximum accelerations, mm/sec^2
M203 X200 Y200 Z12 E120 ; sets maximum feedrates, mm/sec
M204 P1250 R1250 T1250 ; sets acceleration (P, T) and retract acceleration (R), mm/sec^2
M205 X8.00 Y8.00 Z0.40 E1.50 ; sets the jerk limits, mm/sec
M205 S0 T0 ; sets the minimum extruding and travel feed rate, mm/sec
M107
M107
M115 U3.6.0 ; tell printer latest fw version
M83  ; extruder relative mode
M104 S215 ; set extruder temp
M140 S60 ; set bed temp
M190 S60 ; wait for bed temp
M109 S215 ; wait for extruder temp
G28 W ; home all without mesh bed level
G80 ; mesh bed leveling
G21 ; set units to millimeters

; Send the filament type to the MMU2.0 unit.
; E stands for extruder number, F stands for filament type (0: default; 1:flex; 2: PVA)
M403 E0 F0
M403 E1 F0
M403 E2 F0
M403 E3 F0
M403 E4 F0


;go outside print area
G1 Y-3.0 F1000.0
G1 Z0.4 F1000.0
; select extruder
T1
; initial load
G1 X55.0 E32.0 F1073.0
M73 Q7 S6
M73 P7 R6
G1 X5.0 E32.0 F1800.0
G1 X55.0 E8.0 F2000.0
G1 Z0.3 F1000.0
G92 E0.0
G1 X240.0 E25.0  F2200.0
G1 Y-2.0 F1000.0
G1 X55.0 E25 F1400.0
G1 Z0.20 F1000.0
G1 X5.0 E4.0 F1000.0
G92 E0.0


M221 S95
G90 ; use absolute coordinates
M83 ; use relative distances for extrusion
G92 E0.0
M900 K30 ; Filament gcode
G21 ; set units to millimeters
G90 ; use absolute coordinates
M83 ; use relative distances for extrusion
T1
M900 K30 ; Filament gcode
;BEFORE_LAYER_CHANGE
G92 E0.0
;0.2


G1 E-0.80000 F2100.00000
G1 Z0.600 F10800.000
;AFTER_LAYER_CHANGE
;0.2
G1 X114.754 Y95.190
G1 Z0.200
G1 E0.80000 F2100.00000
M204 S1000
G1 X115.963 Y94.062 E0.05183
G1 X117.399 Y93.019 E0.05564
G1 X118.950 Y92.166 E0.05552
G1 X120.486 Y91.552 E0.05186
G1 X122.458 Y91.044 E0.06386
G1 X124.107 Y90.840 E0.05209
G1 X125.757 Y90.835 E0.05175
G1 X127.781 Y91.090 E0.06397
G1 X129.393 Y91.509 E0.05220
G1 X131.033 Y92.158 E0.05530
G1 X132.716 Y93.098 E0.06046
G1 X134.051 Y94.073 E0.05183
G1 X135.341 Y95.286 E0.05553
G1 X136.473 Y96.652 E0.05564
G1 X137.364 Y98.046 E0.05186
G1 X138.195 Y99.785 E0.06043
G1 X138.741 Y101.466 E0.05541
G1 X139.057 Y103.097 E0.05209
G1 X139.185 Y105.126 E0.06374
G1 X139.077 Y106.780 E0.05197
G1 X138.769 Y108.416 E0.05221
G1 X138.138 Y110.349 E0.06377
G1 X137.429 Y111.843 E0.05183
G1 X136.478 Y113.341 E0.05564
G1 X135.347 Y114.708 E0.05564
G1 X134.142 Y115.847 E0.05197
G1 X132.495 Y117.044 E0.06386
G1 X131.033 Y117.842 E0.05220
G1 X129.397 Y118.490 E0.05518
G1 X127.523 Y118.959 E0.06057
G1 X125.882 Y119.161 E0.05183
G1 X124.119 Y119.161 E0.05530
G1 X122.207 Y118.907 E0.06046
G1 X120.607 Y118.491 E0.05183
G1 X118.958 Y117.838 E0.05564
G1 X117.405 Y116.985 E0.05552
G1 X116.065 Y116.017 E0.05186
G1 X114.651 Y114.706 E0.06043
G1 X113.525 Y113.345 E0.05541
G1 X112.636 Y111.954 E0.05174
G1 X111.803 Y110.212 E0.06055
G1 X111.259 Y108.534 E0.05529
G1 X110.943 Y106.903 E0.05209
G1 X110.815 Y104.874 E0.06374
G1 X110.923 Y103.220 E0.05197
G1 X111.229 Y101.595 E0.05186
G1 X111.815 Y99.759 E0.06043
G1 X112.564 Y98.170 E0.05506
G1 X113.452 Y96.762 E0.05221
G1 X114.716 Y95.236 E0.06211
G1 F8640
G1 X115.963 Y94.062 E-0.39544
G1 X117.240 Y93.134 E-0.36456
G1 E-0.04000 F2100.00000
G1 Z0.800 F10800.000
G1 X123.464 Y113.160
G1 Z0.200
G1 E0.80000 F2100.00000
G1 F1050
G1 X123.712 Y113.040 E0.00865
G1 X123.979 Y112.942 E0.00890
G1 X124.264 Y112.867 E0.00926
G1 X124.845 Y112.793 E0.01836
G1 X125.155 Y112.793 E0.00969
G1 X125.740 Y112.867 E0.01851
G1 X126.283 Y113.038 E0.01784
G1 X126.536 Y113.160 E0.00881
G1 X126.762 Y113.302 E0.00837
G1 X126.950 Y113.453 E0.00757
G1 X127.134 Y113.643 E0.00828
G1 X127.273 Y113.841 E0.00758
G1 X127.376 Y114.051 E0.00736
G1 X127.440 Y114.273 E0.00722
G1 X127.461 Y114.500 E0.00715
G1 X127.440 Y114.727 E0.00715
G1 X127.376 Y114.948 E0.00722
G1 X127.273 Y115.159 E0.00736
G1 X127.134 Y115.356 E0.00755
G1 X126.963 Y115.537 E0.00780
G1 X126.762 Y115.698 E0.00808
G1 X126.536 Y115.840 E0.00837
G1 X126.283 Y115.962 E0.00881
G1 X125.740 Y116.133 E0.01784
G1 X125.150 Y116.208 E0.01865
G1 X124.552 Y116.182 E0.01879
G1 X123.983 Y116.059 E0.01823
G1 X123.712 Y115.960 E0.00905
G1 X123.464 Y115.840 E0.00865
G1 X123.238 Y115.698 E0.00837
G1 X123.037 Y115.537 E0.00808
G1 X122.866 Y115.356 E0.00780
G1 X122.727 Y115.159 E0.00755
G1 X122.624 Y114.948 E0.00736
G1 X122.560 Y114.727 E0.00722
G1 X122.539 Y114.500 E0.00715
G1 X122.560 Y114.273 E0.00715
G1 X122.624 Y114.051 E0.00722
G1 X122.727 Y113.841 E0.00736
G1 X122.866 Y113.644 E0.00755
G1 X123.037 Y113.463 E0.00780
G1 X123.238 Y113.302 E0.00808
G1 X123.413 Y113.192 E0.00649
G1 X123.469 Y112.884 F10800.000
G1 F8640
G1 X123.712 Y113.040 E-0.07748
G1 X123.979 Y112.942 E-0.06557
G1 X124.264 Y112.867 E-0.06820
G1 X124.845 Y112.793 E-0.13522
G1 X125.155 Y112.793 E-0.07138
G1 X125.740 Y112.867 E-0.13634
G1 X126.283 Y113.038 E-0.13138
G1 X126.536 Y113.160 E-0.06485
G1 X126.571 Y113.182 E-0.00957
G1 E-0.04000 F2100.00000
G1 Z0.800 F10800.000
G1 X123.539 Y116.295
G1 Z0.200
G1 E0.80000 F2100.00000
G1 F2520
G1 X122.862 Y116.210 E0.02141
G1 X121.474 Y115.853 E0.04493
G1 X120.141 Y115.326 E0.04493
G1 X118.885 Y114.635 E0.04493
G1 X117.726 Y113.793 E0.04493
G1 X116.681 Y112.812 E0.04493
G1 X115.768 Y111.708 E0.04493
G1 X115.000 Y110.498 E0.04493
G1 X114.390 Y109.201 E0.04493
G1 X113.947 Y107.838 E0.04493
G1 X113.678 Y106.430 E0.04493
G1 X113.588 Y105.000 E0.04493
G1 X113.678 Y103.570 E0.04493
G1 X113.947 Y102.162 E0.04493
G1 X114.390 Y100.799 E0.04493
G1 X115.000 Y99.502 E0.04493
G1 X115.768 Y98.292 E0.04493
G1 X116.681 Y97.188 E0.04493
G1 X117.726 Y96.207 E0.04493
G1 X118.885 Y95.365 E0.04493
G1 X120.141 Y94.674 E0.04493
G1 X121.474 Y94.147 E0.04493
G1 X122.862 Y93.790 E0.04493
G1 X124.281 Y93.611 E0.04486
G1 X125.814 Y93.623 E0.04806
G1 X127.138 Y93.790 E0.04186
G1 X128.526 Y94.147 E0.04493
G1 X129.859 Y94.674 E0.04493
G1 X131.115 Y95.365 E0.04493
G1 X132.274 Y96.207 E0.04493
G1 X133.319 Y97.188 E0.04493
G1 X134.232 Y98.292 E0.04493
G1 X135.000 Y99.502 E0.04493
G1 X135.610 Y100.799 E0.04493
G1 X136.053 Y102.162 E0.04493
G1 X136.322 Y103.570 E0.04493
G1 X136.412 Y105.000 E0.04493
G1 X136.322 Y106.430 E0.04493
G1 X136.053 Y107.838 E0.04493
G1 X135.610 Y109.201 E0.04493
G1 X135.000 Y110.498 E0.04493
G1 X134.232 Y111.708 E0.04493
G1 X133.381 Y112.736 E0.04186
G1 X132.272 Y113.794 E0.04806
G1 X131.115 Y114.635 E0.04486
G1 X129.859 Y115.326 E0.04493
G1 X128.526 Y115.853 E0.04493
G1 X127.138 Y116.210 E0.04493
G1 X126.461 Y116.295 E0.02141
G1 X126.719 Y116.170 E0.00898
G1 X126.981 Y116.006 E0.00971
G1 X127.219 Y115.815 E0.00956
G1 X127.427 Y115.596 E0.00945
G1 X127.599 Y115.352 E0.00937
G1 X127.730 Y115.084 E0.00935
G1 X127.812 Y114.797 E0.00935
G1 X127.840 Y114.500 E0.00936
G1 X127.812 Y114.203 E0.00936
G1 X127.730 Y113.916 E0.00935
G1 X127.599 Y113.648 E0.00935
G1 X127.425 Y113.402 E0.00945
G1 X127.205 Y113.174 E0.00993
G1 X126.981 Y112.994 E0.00900
G1 X126.719 Y112.830 E0.00971
G1 X126.423 Y112.686 E0.01032
G1 X125.821 Y112.498 E0.01976
G1 X125.178 Y112.416 E0.02031
G1 X124.822 Y112.416 E0.01119
G1 X124.192 Y112.496 E0.01989
G1 X123.866 Y112.582 E0.01059
G1 X123.565 Y112.692 E0.01005
G1 X123.281 Y112.830 E0.00988
G1 X123.019 Y112.994 E0.00971
G1 X122.781 Y113.185 E0.00956
G1 X122.573 Y113.404 E0.00945
G1 X122.401 Y113.648 E0.00937
G1 X122.270 Y113.916 E0.00935
G1 X122.188 Y114.203 E0.00935
G1 X122.160 Y114.500 E0.00936
G1 X122.188 Y114.797 E0.00936
G1 X122.270 Y115.084 E0.00935
G1 X122.401 Y115.352 E0.00935
G1 X122.573 Y115.596 E0.00937
G1 X122.781 Y115.815 E0.00945
G1 X123.019 Y116.006 E0.00956
G1 X123.281 Y116.170 E0.00971
G1 X123.485 Y116.269 E0.00710
G1 X122.791 Y116.581 F10800.000
G1 F1470
G1 X121.357 Y116.213 E0.04642
G1 X119.980 Y115.668 E0.04642
G1 X118.683 Y114.954 E0.04642
G1 X117.485 Y114.084 E0.04642
G1 X116.406 Y113.071 E0.04642
G1 X115.462 Y111.930 E0.04642
G1 X114.669 Y110.680 E0.04642
G1 X114.038 Y109.340 E0.04642
G1 X113.581 Y107.932 E0.04642
G1 X113.303 Y106.478 E0.04642
G1 X113.210 Y105.000 E0.04642
G1 X113.303 Y103.522 E0.04642
G1 X113.581 Y102.068 E0.04642
G1 X114.038 Y100.660 E0.04642
G1 X114.669 Y99.320 E0.04642
G1 X115.462 Y98.070 E0.04642
G1 X116.406 Y96.929 E0.04642
G1 X117.485 Y95.916 E0.04642
G1 X118.683 Y95.046 E0.04642
G1 X119.980 Y94.332 E0.04642
G1 X121.357 Y93.787 E0.04642
G1 X122.791 Y93.419 E0.04642
G1 X124.259 Y93.234 E0.04640
G1 X125.839 Y93.246 E0.04955
G1 X127.209 Y93.419 E0.04330
G1 X128.643 Y93.787 E0.04642
G1 X130.020 Y94.332 E0.04642
G1 X131.317 Y95.046 E0.04642
G1 X132.515 Y95.916 E0.04642
G1 X133.594 Y96.929 E0.04642
G1 X134.538 Y98.070 E0.04642
G1 X135.331 Y99.320 E0.04642
G1 X135.962 Y100.660 E0.04642
G1 X136.419 Y102.068 E0.04642
G1 X136.697 Y103.522 E0.04642
G1 X136.790 Y105.000 E0.04642
G1 X136.697 Y106.478 E0.04642
G1 X136.419 Y107.932 E0.04642
G1 X135.962 Y109.340 E0.04642
G1 X135.331 Y110.680 E0.04642
G1 X134.538 Y111.930 E0.04642
G1 X133.658 Y112.994 E0.04330
G1 X132.514 Y114.085 E0.04955
G1 X131.317 Y114.954 E0.04640
G1 X130.020 Y115.668 E0.04642
G1 X128.643 Y116.213 E0.04642
G1 X127.209 Y116.581 E0.04642
G1 X125.740 Y116.766 E0.04642
G1 X124.260 Y116.766 E0.04642
G1 X122.850 Y116.588 E0.04454
G1 X122.659 Y116.203 F10800.000
G1 X122.423 Y115.980
G1 F6125
G1 X114.226 Y107.783 E0.36961
G1 X114.487 Y108.587 E0.02693
G1 X121.434 Y115.534 E0.31324
G1 X120.537 Y115.178 E0.03079
G1 X114.484 Y109.126 E0.27291
G1 F8640
G1 X116.811 Y111.453 E-0.76000
G1 E-0.04000 F2100.00000
G1 Z0.800 F10800.000
G1 X114.957 Y110.141
G1 Z0.200
G1 E0.80000 F2100.00000
G1 F6125
G1 X119.856 Y115.040 E0.22091
G1 F8640
G1 X117.529 Y112.712 E-0.76000
G1 E-0.04000 F2100.00000
G1 Z0.800 F10800.000
G1 X118.461 Y114.187
G1 Z0.200
G1 E0.80000 F2100.00000
G1 F6125
G1 X115.763 Y111.489 E0.12168
G1 F8640
G1 X118.090 Y113.816 E-0.76000
G1 E-0.04000 F2100.00000
G1 Z0.800 F10800.000
G1 X122.216 Y115.231
G1 Z0.200
G1 E0.80000 F2100.00000
G1 F6125
G1 X114.096 Y107.111 E0.36615
G1 X113.968 Y106.440 E0.02175
G1 X121.889 Y114.362 E0.35718
G1 X121.909 Y114.150 E0.00678
G1 X121.978 Y113.909 E0.00801
G1 X113.925 Y105.856 E0.36311
G1 X113.889 Y105.277 E0.01849
G1 X122.143 Y113.531 E0.37219
G1 X122.366 Y113.212 E0.01242
G1 X113.888 Y104.734 E0.38226
G1 X113.920 Y104.224 E0.01630
G1 X122.636 Y112.939 E0.39299
G1 X122.945 Y112.706 E0.01235
G1 X113.953 Y103.714 E0.40549
G1 X114.028 Y103.247 E0.01508
G1 X123.292 Y112.510 E0.41772
G1 X123.675 Y112.351 E0.01322
G1 X114.115 Y102.791 E0.43106
G1 X114.202 Y102.336 E0.01478
G1 X124.095 Y112.229 E0.44610
G1 X124.571 Y112.163 E0.01532
G1 X114.324 Y101.916 E0.46203
G1 X114.457 Y101.507 E0.01372
G1 X125.083 Y112.133 E0.47915
G1 X125.688 Y112.196 E0.01939
G1 X114.590 Y101.097 E0.50043
G1 X114.653 Y100.903 E0.00651
G1 X114.744 Y100.709 E0.00683
G1 X126.758 Y112.723 E0.54170
G1 F8640
G1 X124.431 Y110.396 E-0.76000
G1 E-0.04000 F2100.00000
G1 Z0.800 F10800.000
G1 X127.522 Y115.657
G1 Z0.200
G1 E0.80000 F2100.00000
G1 F6125
G1 X127.652 Y115.786 E0.00583
G1 X128.083 Y115.675 E0.01420
G1 X127.863 Y115.455 E0.00991
G1 X127.995 Y115.186 E0.00956
G1 X128.026 Y115.076 E0.00364
G1 X128.507 Y115.557 E0.02169
G1 X128.896 Y115.403 E0.01332
G1 X128.112 Y114.620 E0.03531
G1 X128.124 Y114.500 E0.00384
G1 X128.091 Y114.150 E0.01121
G1 X128.053 Y114.018 E0.00438
G1 X129.284 Y115.249 E0.05551
G1 X129.672 Y115.095 E0.01332
G1 X114.918 Y100.341 E0.66529
G1 X115.091 Y99.972 E0.01299
G1 X130.029 Y114.909 E0.67354
G1 X130.379 Y114.717 E0.01273
G1 X115.268 Y99.607 E0.68133
G1 X115.479 Y99.275 E0.01253
G1 X130.729 Y114.525 E0.68762
G1 X131.067 Y114.321 E0.01259
G1 X115.690 Y98.943 E0.69337
G1 X115.900 Y98.612 E0.01253
G1 X131.381 Y114.092 E0.69804
G1 X131.695 Y113.864 E0.01238
G1 X116.129 Y98.299 E0.70186
G1 X116.375 Y98.002 E0.01228
G1 X132.009 Y113.636 E0.70495
G1 X132.296 Y113.381 E0.01225
G1 X116.621 Y97.705 E0.70682
G1 X116.866 Y97.408 E0.01228
G1 X132.574 Y113.116 E0.70827
G1 X132.851 Y112.851 E0.01223
G1 X117.143 Y97.143 E0.70831
G1 X117.422 Y96.880 E0.01223
G1 X133.129 Y112.586 E0.70821
G1 X133.379 Y112.295 E0.01226
G1 X117.702 Y96.617 E0.70691
G1 X117.991 Y96.364 E0.01225
G1 X133.625 Y111.998 E0.70495
G1 X133.870 Y111.701 E0.01228
G1 X118.305 Y96.136 E0.70186
G1 X118.619 Y95.908 E0.01238
G1 X134.100 Y111.389 E0.69804
G1 X134.310 Y111.057 E0.01253
G1 X118.933 Y95.680 E0.69337
G1 X119.271 Y95.475 E0.01259
G1 X134.521 Y110.725 E0.68762
G1 X134.732 Y110.393 E0.01253
G1 X119.621 Y95.283 E0.68134
G1 X119.971 Y95.091 E0.01273
G1 X134.909 Y110.028 E0.67354
G1 X135.082 Y109.659 E0.01299
G1 X120.327 Y94.905 E0.66530
G1 X120.716 Y94.751 E0.01332
G1 X135.256 Y109.291 E0.65560
G1 X135.347 Y109.097 E0.00684
G1 X135.410 Y108.903 E0.00650
G1 X121.104 Y94.597 E0.64505
G1 X121.493 Y94.443 E0.01332
G1 X135.543 Y108.493 E0.63353
G1 X135.676 Y108.084 E0.01372
G1 X121.917 Y94.325 E0.62041
G1 X122.348 Y94.214 E0.01420
G1 X135.798 Y107.664 E0.60648
G1 X135.885 Y107.209 E0.01478
G1 X122.780 Y94.103 E0.59094
G1 X123.246 Y94.027 E0.01505
G1 X135.972 Y106.754 E0.57385
G1 X136.047 Y106.287 E0.01508
G1 X123.727 Y93.966 E0.55554
G1 X124.209 Y93.905 E0.01547
G1 X136.080 Y105.776 E0.53527
G1 X136.112 Y105.266 E0.01630
G1 X124.743 Y93.897 E0.51262
G1 X125.290 Y93.902 E0.01743
G1 X136.111 Y104.723 E0.48795
G1 X136.075 Y104.145 E0.01849
G1 X125.842 Y93.912 E0.46141
G1 X126.462 Y93.990 E0.01995
G1 X136.032 Y103.560 E0.43150
G1 X135.904 Y102.890 E0.02175
G1 X127.083 Y94.068 E0.39775
G1 X127.812 Y94.255 E0.02400
G1 X135.774 Y102.217 E0.35899
G1 X135.513 Y101.414 E0.02693
G1 X128.566 Y94.466 E0.31325
G1 X129.463 Y94.822 E0.03079
G1 X135.516 Y100.875 E0.27292
G1 F8640
G1 X133.189 Y98.547 E-0.76000
G1 E-0.04000 F2100.00000
G1 Z0.800 F10800.000
G1 X135.043 Y99.860
G1 Z0.200
G1 E0.80000 F2100.00000
G1 F6125
G1 X130.144 Y94.960 E0.22092
G1 F8640
G1 X132.471 Y97.287 E-0.76000
G1 E-0.04000 F2100.00000
G1 Z0.800 F10800.000
G1 X131.538 Y95.812
G1 Z0.200
G1 E0.80000 F2100.00000
G1 F6125
G1 X134.237 Y98.511 E0.12170
G1 F8640
G1 X131.910 Y96.184 E-0.76000
G1 E-0.04000 F2100.00000
G1 Z0.800 F10800.000
G1 X126.277 Y116.338
G1 Z0.200
G1 E0.80000 F2100.00000
G1 F1680
G1 X126.048 Y116.388 E0.00604
G1 X125.819 Y116.439 E0.00549
G1 X125.445 Y116.469 E0.00791
G1 X125.170 Y116.487 E0.00497
G1 X124.523 Y116.474 E0.00978
G1 X124.280 Y116.449 E0.00370
G1 X123.722 Y116.341 E0.01379
M106 S255
;BEFORE_LAYER_CHANGE
G92 E0.0
;0.35


G1 F8640
G1 X124.280 Y116.449 E-0.13111
G1 E-0.66889 F2100.00000
G1 Z0.800 F10800.000
;AFTER_LAYER_CHANGE
;0.35
M104 S205 ; set temperature
G1 X124.550 Y116.197
G1 Z0.350
G1 E0.80000 F2100.00000
M204 S800
G1 F1500
G1 X123.979 Y116.074 E0.01521
G1 X123.706 Y115.974 E0.00757
G1 X123.457 Y115.853 E0.00723
G1 X123.229 Y115.710 E0.00700
G1 X123.027 Y115.548 E0.00676
G1 X122.854 Y115.366 E0.00654
G1 X122.714 Y115.167 E0.00634
G1 X122.610 Y114.954 E0.00618
G1 X122.546 Y114.730 E0.00607
G1 X122.524 Y114.500 E0.00602
G1 X122.546 Y114.270 E0.00602
G1 X122.610 Y114.046 E0.00607
G1 X122.714 Y113.833 E0.00618
G1 X122.854 Y113.634 E0.00634
G1 X123.027 Y113.452 E0.00654
G1 X123.229 Y113.290 E0.00676
G1 X123.457 Y113.147 E0.00700
G1 X123.706 Y113.026 E0.00723
G1 X123.974 Y112.928 E0.00744
G1 X124.262 Y112.852 E0.00774
G1 X124.844 Y112.778 E0.01531
G1 X125.156 Y112.778 E0.00810
G1 X125.744 Y112.853 E0.01544
G1 X126.294 Y113.025 E0.01503
G1 X126.726 Y113.261 E0.01282
G1 X126.972 Y113.451 E0.00810
G1 X127.146 Y113.634 E0.00659
G1 X127.286 Y113.833 E0.00634
G1 X127.390 Y114.046 E0.00618
G1 X127.454 Y114.270 E0.00607
G1 X127.476 Y114.500 E0.00602
G1 X127.454 Y114.730 E0.00602
G1 X127.390 Y114.954 E0.00607
G1 X127.286 Y115.167 E0.00618
G1 X127.146 Y115.366 E0.00634
G1 X126.973 Y115.548 E0.00654
G1 X126.771 Y115.710 E0.00676
G1 X126.543 Y115.853 E0.00700
G1 X126.289 Y115.976 E0.00737
G1 X125.744 Y116.147 E0.01489
G1 X125.151 Y116.223 E0.01557
