; generated by Slic3r Prusa Edition 1.41.0+win64 on 2019-03-15 at 12:42:06

; 

; external perimeters extrusion width = 0.45mm
; perimeters extrusion width = 0.45mm
; infill extrusion width = 0.45mm
; solid infill extrusion width = 0.45mm
; top infill extrusion width = 0.40mm
; first layer extrusion width = 0.42mm

M201 X1000 Y1000 Z1000 E8000 ; sets maximum accelerations, mm/sec^2
M203 X200 Y200 Z12 E120 ; sets maximum feedrates, mm/sec
M204 P1250 R1250 T1250 ; sets acceleration (P, T) and retract acceleration (R), mm/sec^2
M205 X8.00 Y8.00 Z0.40 E1.50 ; sets the jerk limits, mm/sec
M205 S0 T0 ; sets the minimum extruding and travel feed rate, mm/sec
M107
M107
M115 U3.4.1 ; tell printer latest fw version
M83  ; extruder relative mode
M104 S215 ; set extruder temp
M140 S60 ; set bed temp
M190 S60 ; wait for bed temp
M109 S215 ; wait for extruder temp
G28 W ; home all without mesh bed level
G80 ; mesh bed leveling
G21 ; set units to millimeters

; Send the filament type to the MMU2.0 unit.
; E stands for extruder number, F stands for filament type (0: default; 1:flex; 2: PVA)
M403 E0 F0
M403 E1 F0
M403 E2 F0
M403 E3 F0
M403 E4 F0


;go outside print area
G1 Y-3.0 F1000.0
G1 Z0.4 F1000.0
; select extruder
T0
; initial load
G1 X55.0 E32.0 F1073.0
M73 Q1 S23
M73 P1 R22
G1 X5.0 E32.0 F1800.0
G1 X55.0 E8.0 F2000.0
G1 Z0.3 F1000.0
G92 E0.0
G1 X240.0 E25.0  F2200.0
G1 Y-2.0 F1000.0
G1 X55.0 E25 F1400.0
G1 Z0.20 F1000.0
G1 X5.0 E4.0 F1000.0
G92 E0.0


M221 S95
G90 ; use absolute coordinates
M83 ; use relative distances for extrusion
G92 E0.0
M900 K30; Filament gcode
G21 ; set units to millimeters
G90 ; use absolute coordinates
M83 ; use relative distances for extrusion
;BEFORE_LAYER_CHANGE
G92 E0.0
;0.2


G1 E-0.80000 F2100.00000
G1 Z0.600 F10800.000
;AFTER_LAYER_CHANGE
;0.2
G1 X165.244 Y138.153
G1 Z0.200
G1 E0.80000 F2100.00000
M204 S1000
G1 F1200
G1 X164.411 Y138.547 E0.02889
G1 X118.439 Y148.491 E1.47475
G1 X117.038 Y148.600 E0.04406
G1 X115.912 Y148.573 E0.03533
G1 X114.640 Y148.414 E0.04018
G1 X113.515 Y148.165 E0.03614
G1 X112.341 Y147.796 E0.03858
G1 X110.045 Y146.759 E0.07898
G1 X107.802 Y145.365 E0.08282
G1 X106.723 Y144.574 E0.04194
G1 X104.657 Y142.872 E0.08394
G1 X101.543 Y139.960 E0.13365
G1 X99.488 Y137.916 E0.09089
G1 X99.118 Y137.384 E0.02032
G1 X79.552 Y92.344 E1.53969
G1 X79.128 Y91.130 E0.04032
G1 X78.927 Y89.923 E0.03836
G1 X78.945 Y88.479 E0.04529
G1 X79.287 Y86.919 E0.05008
G1 X79.881 Y85.550 E0.04679
G1 X80.668 Y84.300 E0.04629
G1 X81.687 Y83.059 E0.05036
G1 X82.824 Y81.926 E0.05032
G1 X84.043 Y80.879 E0.05038
G1 X85.497 Y79.778 E0.05720
G1 X88.647 Y77.717 E0.11801
G1 X92.228 Y75.672 E0.12932
G1 X96.112 Y73.635 E0.13749
G1 X100.418 Y71.498 E0.15072
G1 X123.104 Y66.562 E0.72795
G1 X155.917 Y61.400 E1.04149
G1 X156.704 Y61.440 E0.02470
G1 X157.442 Y61.606 E0.02372
G1 X158.492 Y62.045 E0.03569
G1 X159.860 Y63.030 E0.05287
G1 X161.076 Y64.329 E0.05578
G1 X162.237 Y65.934 E0.06211
G1 X163.324 Y67.723 E0.06563
G1 X165.874 Y72.613 E0.17293
G1 X166.083 Y73.299 E0.02247
G1 X170.958 Y118.183 E1.41560
G1 X171.099 Y120.424 E0.07040
G1 X171.024 Y122.550 E0.06670
G1 X170.894 Y123.747 E0.03776
G1 X170.504 Y125.896 E0.06845
G1 X169.921 Y128.061 E0.07032
G1 X169.181 Y130.191 E0.07070
G1 X168.318 Y132.287 E0.07106
G1 X165.841 Y137.451 E0.17959
G1 X165.283 Y138.107 E0.02701
; PURGING FINISHED
G1 F8640
G1 X164.411 Y138.547 E-0.22545
G1 X162.148 Y139.036 E-0.53455
G1 E-0.04000 F2100.00000
G1 Z0.800 F10800.000
G1 X163.747 Y135.423
G1 Z0.200
G1 E0.80000 F2100.00000
G1 F1200
G1 X162.492 Y134.175 E0.05551
G1 X160.482 Y132.249 E0.08728
G1 X159.471 Y131.331 E0.04283
G1 X158.458 Y130.459 E0.04191
G1 X157.441 Y129.640 E0.04093
G1 X156.421 Y128.882 E0.03985
G1 X155.396 Y128.193 E0.03872
G1 X154.366 Y127.580 E0.03758
G1 X153.330 Y127.050 E0.03648
G1 X152.289 Y126.608 E0.03547
G1 X151.242 Y126.262 E0.03459
G1 X150.189 Y126.014 E0.03390
G1 X149.133 Y125.869 E0.03343
G1 X148.075 Y125.829 E0.03320
G1 X147.016 Y125.895 E0.03327
G1 X145.960 Y126.066 E0.03352
G1 X144.909 Y126.338 E0.03406
G1 X143.863 Y126.709 E0.03479
G1 X142.823 Y127.172 E0.03570
G1 X141.789 Y127.724 E0.03675
G1 X140.760 Y128.356 E0.03786
G1 X139.736 Y129.063 E0.03900
G1 X138.717 Y129.837 E0.04013
G1 X137.702 Y130.669 E0.04118
G1 X136.689 Y131.553 E0.04214
G1 X135.680 Y132.479 E0.04295
G1 X134.672 Y133.439 E0.04366
G1 X130.670 Y137.408 E0.17671
G1 X128.677 Y139.339 E0.08701
G1 X127.688 Y140.254 E0.04225
G1 X126.699 Y141.125 E0.04130
G1 X125.714 Y141.942 E0.04013
G1 X124.733 Y142.698 E0.03883
G1 X123.756 Y143.384 E0.03744
G1 X122.784 Y143.994 E0.03599
G1 X121.817 Y144.523 E0.03456
G1 X120.856 Y144.966 E0.03317
G1 X119.901 Y145.320 E0.03193
G1 X118.951 Y145.581 E0.03088
G1 X118.006 Y145.749 E0.03010
G1 X117.064 Y145.824 E0.02963
G1 X116.123 Y145.804 E0.02951
G1 X115.180 Y145.691 E0.02979
G1 X114.233 Y145.484 E0.03039
G1 X113.281 Y145.184 E0.03129
G1 X112.324 Y144.793 E0.03242
G1 X111.360 Y144.314 E0.03374
G1 X110.391 Y143.750 E0.03515
G1 X109.417 Y143.108 E0.03659
G1 X108.438 Y142.392 E0.03803
G1 X107.455 Y141.610 E0.03938
G1 X106.469 Y140.769 E0.04064
G1 X105.479 Y139.878 E0.04175
G1 X104.489 Y138.949 E0.04258
G1 X102.076 Y136.573 E0.10617
G1 X104.990 Y135.107 E0.10225
G1 X108.834 Y133.102 E0.13594
G1 X110.660 Y132.096 E0.06538
G1 X112.395 Y131.088 E0.06291
G1 X114.023 Y130.078 E0.06008
G1 X115.529 Y129.064 E0.05692
G1 X116.899 Y128.046 E0.05352
G1 X118.119 Y127.020 E0.04997
G1 X119.179 Y125.986 E0.04644
G1 X120.066 Y124.938 E0.04305
G1 X120.772 Y123.874 E0.04003
G1 X121.282 Y122.789 E0.03759
G1 X121.585 Y121.686 E0.03587
G1 X121.669 Y120.571 E0.03506
G1 X121.530 Y119.456 E0.03521
G1 X121.175 Y118.357 E0.03622
G1 X120.615 Y117.278 E0.03812
G1 X119.864 Y116.218 E0.04074
G1 X118.933 Y115.174 E0.04386
G1 X117.833 Y114.142 E0.04730
G1 X116.574 Y113.118 E0.05086
G1 X115.170 Y112.101 E0.05437
G1 X113.632 Y111.088 E0.05774
G1 X111.976 Y110.079 E0.06081
G1 X110.218 Y109.071 E0.06354
G1 X108.373 Y108.066 E0.06586
G1 X106.460 Y107.062 E0.06774
G1 X98.525 Y103.061 E0.27863
G1 X94.656 Y101.065 E0.13652
G1 X92.818 Y100.071 E0.06551
G1 X91.068 Y99.077 E0.06311
G1 X89.423 Y98.086 E0.06020
G1 X87.902 Y97.099 E0.05687
G1 X86.520 Y96.115 E0.05318
G1 X85.292 Y95.137 E0.04921
G1 X84.231 Y94.168 E0.04507
G1 X83.348 Y93.209 E0.04086
G1 X82.650 Y92.266 E0.03679
G1 X82.141 Y91.342 E0.03308
G1 X81.819 Y90.438 E0.03008
G1 X81.678 Y89.550 E0.02820
G1 X81.715 Y88.667 E0.02772
G1 X81.930 Y87.773 E0.02883
G1 X82.330 Y86.861 E0.03121
G1 X82.917 Y85.928 E0.03455
G1 X83.692 Y84.979 E0.03844
G1 X84.651 Y84.015 E0.04261
G1 X85.783 Y83.042 E0.04680
G1 X87.076 Y82.062 E0.05088
G1 X88.517 Y81.076 E0.05476
G1 X90.091 Y80.087 E0.05828
G1 X91.782 Y79.095 E0.06147
G1 X93.572 Y78.101 E0.06419
G1 X95.441 Y77.105 E0.06640
G1 X97.373 Y76.108 E0.06815
G1 X100.971 Y74.297 E0.12630
G1 X102.597 Y75.883 E0.07123
G1 X103.622 Y76.790 E0.04290
G1 X104.652 Y77.588 E0.04087
G1 X105.182 Y77.944 E0.02002
G1 X105.712 Y78.259 E0.01933
G1 X106.248 Y78.533 E0.01887
G1 X106.789 Y78.763 E0.01844
G1 X107.337 Y78.944 E0.01807
G1 X107.889 Y79.074 E0.01780
G1 X108.445 Y79.150 E0.01760
G1 X109.004 Y79.171 E0.01752
G1 X109.562 Y79.137 E0.01755
G1 X110.118 Y79.047 E0.01765
G1 X110.669 Y78.904 E0.01786
G1 X111.215 Y78.710 E0.01816
G1 X111.755 Y78.470 E0.01853
G1 X112.289 Y78.185 E0.01898
G1 X112.818 Y77.860 E0.01945
G1 X113.341 Y77.498 E0.01995
G1 X113.861 Y77.104 E0.02044
G1 X114.379 Y76.679 E0.02102
G1 X115.399 Y75.766 E0.04291
G1 X117.905 Y73.300 E0.11025
G1 X119.391 Y71.883 E0.06437
G1 X120.367 Y71.048 E0.04029
G1 X120.845 Y70.680 E0.01891
G1 X121.322 Y70.345 E0.01828
G1 X121.794 Y70.048 E0.01748
G1 X122.261 Y69.793 E0.01669
G1 X122.722 Y69.580 E0.01591
G1 X123.177 Y69.412 E0.01522
G1 X123.627 Y69.288 E0.01462
G1 X124.072 Y69.209 E0.01417
G1 X124.514 Y69.174 E0.01391
G1 X124.955 Y69.183 E0.01384
G1 X125.398 Y69.236 E0.01400
G1 X125.845 Y69.334 E0.01434
G1 X126.297 Y69.476 E0.01485
G1 X126.754 Y69.663 E0.01549
G1 X127.218 Y69.894 E0.01623
G1 X127.687 Y70.166 E0.01702
G1 X128.161 Y70.479 E0.01781
G1 X128.640 Y70.830 E0.01860
G1 X129.120 Y71.211 E0.01922
G1 X130.100 Y72.070 E0.04086
G1 X131.087 Y73.011 E0.04275
G1 X132.015 Y73.933 E0.04102
G1 X132.890 Y75.672 E0.06104
G1 X133.896 Y77.602 E0.06824
G1 X134.907 Y79.389 E0.06438
G1 X135.419 Y80.215 E0.03045
G1 X135.933 Y80.978 E0.02885
G1 X136.452 Y81.675 E0.02725
G1 X136.977 Y82.300 E0.02560
G1 X137.512 Y82.848 E0.02400
G1 X138.059 Y83.312 E0.02250
G1 X138.624 Y83.686 E0.02123
G1 X139.208 Y83.961 E0.02026
G1 X139.812 Y84.127 E0.01962
G1 X140.427 Y84.173 E0.01933
G1 X141.040 Y84.097 E0.01939
G1 X141.640 Y83.903 E0.01975
G1 X142.219 Y83.602 E0.02046
G1 X142.779 Y83.206 E0.02152
G1 X143.323 Y82.720 E0.02285
G1 X143.855 Y82.153 E0.02439
G1 X144.379 Y81.510 E0.02601
G1 X144.896 Y80.795 E0.02765
G1 X145.409 Y80.017 E0.02923
G1 X145.920 Y79.178 E0.03079
G1 X146.929 Y77.371 E0.06490
G1 X147.435 Y76.408 E0.03411
G1 X149.436 Y72.440 E0.13935
G1 X150.432 Y70.509 E0.06813
G1 X151.420 Y68.726 E0.06391
G1 X151.911 Y67.911 E0.02983
G1 X152.398 Y67.160 E0.02808
G1 X152.882 Y66.480 E0.02614
G1 X153.360 Y65.881 E0.02405
G1 X153.829 Y65.367 E0.02183
G1 X154.287 Y64.944 E0.01954
G1 X154.731 Y64.616 E0.01728
G1 X155.155 Y64.383 E0.01518
G1 X155.554 Y64.241 E0.01328
G1 X155.991 Y64.179 E0.01386
G1 X156.331 Y64.193 E0.01064
G1 X156.725 Y64.288 E0.01270
G1 X157.137 Y64.469 E0.01410
G1 X157.569 Y64.741 E0.01602
G1 X158.019 Y65.108 E0.01820
G1 X158.482 Y65.569 E0.02050
G1 X158.955 Y66.119 E0.02276
G1 X159.436 Y66.753 E0.02493
G1 X159.921 Y67.463 E0.02698
G1 X160.410 Y68.242 E0.02882
G1 X160.901 Y69.078 E0.03040
G1 X161.893 Y70.901 E0.06507
G1 X163.256 Y73.587 E0.09444
G1 X162.475 Y75.158 E0.05500
G1 X161.512 Y77.167 E0.06986
G1 X160.618 Y79.189 E0.06933
G1 X160.209 Y80.203 E0.03427
G1 X159.832 Y81.219 E0.03398
G1 X159.490 Y82.238 E0.03369
G1 X159.186 Y83.258 E0.03339
G1 X158.924 Y84.281 E0.03311
G1 X158.707 Y85.306 E0.03285
G1 X158.537 Y86.333 E0.03262
G1 X158.416 Y87.361 E0.03245
G1 X158.345 Y88.389 E0.03233
G1 X158.326 Y89.419 E0.03228
G1 X158.358 Y90.449 E0.03232
G1 X158.441 Y91.477 E0.03235
G1 X158.574 Y92.505 E0.03249
G1 X158.756 Y93.531 E0.03267
G1 X158.985 Y94.555 E0.03290
G1 X159.257 Y95.578 E0.03318
G1 X159.571 Y96.598 E0.03346
G1 X159.922 Y97.616 E0.03377
G1 X160.309 Y98.635 E0.03416
G1 X161.164 Y100.655 E0.06878
G1 X162.106 Y102.671 E0.06977
G1 X164.091 Y106.674 E0.14011
G1 X165.056 Y108.665 E0.06935
G1 X165.951 Y110.649 E0.06827
G1 X166.360 Y111.634 E0.03342
G1 X166.739 Y112.619 E0.03309
G1 X167.084 Y113.601 E0.03265
G1 X167.392 Y114.581 E0.03221
G1 X167.659 Y115.559 E0.03179
G1 X167.884 Y116.535 E0.03140
G1 X168.064 Y117.510 E0.03107
G1 X168.198 Y118.482 E0.03078
G1 X168.285 Y119.454 E0.03058
G1 X168.323 Y120.424 E0.03046
G1 X168.313 Y121.394 E0.03041
G1 X168.255 Y122.365 E0.03050
G1 X168.149 Y123.337 E0.03066
G1 X167.995 Y124.311 E0.03089
G1 X167.796 Y125.285 E0.03119
G1 X167.553 Y126.262 E0.03156
G1 X167.269 Y127.241 E0.03197
G1 X166.945 Y128.222 E0.03239
G1 X166.586 Y129.206 E0.03284
G1 X166.194 Y130.191 E0.03326
G1 X165.773 Y131.177 E0.03360
G1 X164.861 Y133.163 E0.06851
G1 X163.774 Y135.370 E0.07713
G1 X163.854 Y136.061 F10800.000
G1 F1200
G1 X162.228 Y134.445 E0.07186
G1 X160.225 Y132.525 E0.08701
G1 X159.221 Y131.613 E0.04251
G1 X158.216 Y130.749 E0.04157
G1 X157.210 Y129.938 E0.04051
G1 X156.203 Y129.190 E0.03934
G1 X155.194 Y128.512 E0.03812
G1 X154.183 Y127.910 E0.03688
G1 X153.171 Y127.391 E0.03567
G1 X152.156 Y126.962 E0.03456
G1 X151.139 Y126.625 E0.03359
G1 X150.120 Y126.385 E0.03282
G1 X149.100 Y126.245 E0.03229
G1 X148.079 Y126.207 E0.03203
G1 X147.057 Y126.270 E0.03210
G1 X146.038 Y126.435 E0.03239
G1 X145.019 Y126.699 E0.03299
G1 X144.003 Y127.059 E0.03381
G1 X142.989 Y127.511 E0.03482
G1 X141.976 Y128.051 E0.03597
G1 X140.966 Y128.672 E0.03718
G1 X139.958 Y129.368 E0.03842
G1 X138.951 Y130.133 E0.03964
G1 X137.945 Y130.957 E0.04077
G1 X136.941 Y131.834 E0.04181
G1 X135.937 Y132.755 E0.04269
G1 X134.934 Y133.710 E0.04343
G1 X130.934 Y137.677 E0.17665
G1 X128.936 Y139.613 E0.08722
G1 X127.940 Y140.534 E0.04253
G1 X126.944 Y141.411 E0.04162
G1 X125.950 Y142.237 E0.04052
G1 X124.956 Y143.001 E0.03931
G1 X123.965 Y143.698 E0.03800
G1 X122.975 Y144.320 E0.03665
G1 X121.986 Y144.860 E0.03532
G1 X121.000 Y145.315 E0.03404
G1 X120.016 Y145.679 E0.03290
G1 X119.034 Y145.949 E0.03194
G1 X118.054 Y146.124 E0.03122
G1 X117.075 Y146.201 E0.03080
G1 X116.097 Y146.181 E0.03068
G1 X115.117 Y146.063 E0.03094
G1 X114.136 Y145.849 E0.03148
G1 X113.153 Y145.539 E0.03231
G1 X112.168 Y145.137 E0.03335
G1 X111.181 Y144.646 E0.03456
G1 X110.192 Y144.071 E0.03587
G1 X109.202 Y143.418 E0.03721
G1 X108.209 Y142.692 E0.03856
G1 X107.215 Y141.901 E0.03982
G1 X106.220 Y141.053 E0.04100
G1 X105.224 Y140.156 E0.04203
G1 X104.227 Y139.221 E0.04285
G1 X101.437 Y136.472 E0.12281
G1 X104.818 Y134.772 E0.11866
G1 X108.656 Y132.770 E0.13572
G1 X110.474 Y131.768 E0.06511
G1 X112.201 Y130.765 E0.06260
G1 X113.819 Y129.761 E0.05969
G1 X115.311 Y128.756 E0.05642
G1 X116.665 Y127.750 E0.05289
G1 X117.866 Y126.741 E0.04918
G1 X118.903 Y125.728 E0.04544
G1 X119.764 Y124.711 E0.04179
G1 X120.442 Y123.688 E0.03848
G1 X120.927 Y122.658 E0.03571
G1 X121.212 Y121.621 E0.03371
G1 X121.290 Y120.580 E0.03274
G1 X121.161 Y119.538 E0.03291
G1 X120.826 Y118.503 E0.03412
G1 X120.293 Y117.474 E0.03632
G1 X119.569 Y116.453 E0.03926
G1 X118.663 Y115.437 E0.04267
G1 X117.585 Y114.426 E0.04635
G1 X116.345 Y113.417 E0.05011
G1 X114.956 Y112.411 E0.05378
G1 X113.430 Y111.407 E0.05727
G1 X111.784 Y110.403 E0.06044
G1 X110.034 Y109.401 E0.06325
G1 X108.195 Y108.399 E0.06564
G1 X106.288 Y107.397 E0.06755
G1 X98.354 Y103.397 E0.27859
G1 X94.479 Y101.398 E0.13670
G1 X92.635 Y100.400 E0.06575
G1 X90.877 Y99.403 E0.06338
M73 Q6 S22
G1 X89.223 Y98.406 E0.06055
G1 X87.690 Y97.410 E0.05732
G1 X86.293 Y96.416 E0.05375
G1 X85.048 Y95.424 E0.04993
M73 P6 R21
G1 X83.965 Y94.435 E0.04598
G1 X83.057 Y93.450 E0.04200
G1 X82.332 Y92.470 E0.03821
G1 X81.796 Y91.497 E0.03483
G1 X81.452 Y90.532 E0.03214
G1 X81.300 Y89.572 E0.03047
G1 X81.340 Y88.614 E0.03006
G1 X81.572 Y87.652 E0.03103
G1 X81.995 Y86.684 E0.03315
G1 X82.610 Y85.708 E0.03616
G1 X83.412 Y84.726 E0.03975
G1 X84.394 Y83.739 E0.04365
G1 X85.546 Y82.748 E0.04763
G1 X86.855 Y81.755 E0.05153
G1 X88.311 Y80.761 E0.05528
G1 X89.895 Y79.765 E0.05869
G1 X91.595 Y78.767 E0.06179
G1 X93.392 Y77.769 E0.06444
G1 X95.266 Y76.771 E0.06658
G1 X97.201 Y75.772 E0.06829
G1 X101.041 Y73.839 E0.13480
G1 X102.853 Y75.607 E0.07937
G1 X103.862 Y76.499 E0.04223
G1 X104.873 Y77.282 E0.04009
G1 X105.384 Y77.625 E0.01929
G1 X105.895 Y77.929 E0.01863
G1 X106.407 Y78.192 E0.01806
G1 X106.922 Y78.410 E0.01753
G1 X107.439 Y78.581 E0.01707
G1 X107.958 Y78.703 E0.01671
G1 X108.478 Y78.774 E0.01646
G1 X108.999 Y78.794 E0.01634
G1 X109.520 Y78.761 E0.01638
G1 X110.040 Y78.677 E0.01651
G1 X110.558 Y78.543 E0.01679
G1 X111.075 Y78.360 E0.01718
G1 X111.589 Y78.131 E0.01765
G1 X112.101 Y77.858 E0.01820
G1 X112.612 Y77.544 E0.01878
G1 X113.120 Y77.193 E0.01938
G1 X113.627 Y76.808 E0.01995
G1 X114.134 Y76.393 E0.02054
G1 X115.141 Y75.491 E0.04238
G1 X117.643 Y73.029 E0.11006
G1 X119.138 Y71.603 E0.06478
G1 X120.129 Y70.755 E0.04091
G1 X120.621 Y70.376 E0.01947
G1 X121.113 Y70.031 E0.01884
G1 X121.603 Y69.723 E0.01814
G1 X122.091 Y69.456 E0.01745
G1 X122.577 Y69.232 E0.01678
G1 X123.061 Y69.053 E0.01618
G1 X123.543 Y68.920 E0.01567
G1 X124.024 Y68.834 E0.01529
G1 X124.503 Y68.796 E0.01508
G1 X124.982 Y68.806 E0.01501
G1 X125.461 Y68.864 E0.01515
G1 X125.942 Y68.969 E0.01544
G1 X126.425 Y69.121 E0.01587
G1 X126.910 Y69.319 E0.01642
G1 X127.397 Y69.562 E0.01705
G1 X127.886 Y69.846 E0.01773
G1 X128.377 Y70.169 E0.01843
G1 X128.869 Y70.530 E0.01913
G1 X129.362 Y70.922 E0.01974
G1 X130.355 Y71.792 E0.04139
G1 X131.350 Y72.741 E0.04312
G1 X132.324 Y73.709 E0.04307
G1 X133.225 Y75.500 E0.06288
G1 X134.228 Y77.422 E0.06796
G1 X135.232 Y79.197 E0.06394
G1 X135.736 Y80.010 E0.02999
G1 X136.241 Y80.760 E0.02835
